Kcygt/SemiCircleKinovaTest_Cpp/halfcirlekinovatest/data.csv
t,q1,q2,q3,q4,q5,q6,q7,qp1,qp2,qp3,qp4,qp5,qp6,qp7,xd,yd,zd,vxd,vyd,vzd,wxd,wyd,wzd,x,y,z,vx,vy,vz,wx,wy,wz
1.8e-06,2.16564e-14,-1.10828,8.22308e-15,2.21657,-4.17723e-14,0.610865,4.52395e-14,1.20313e-08,-5.60406e-07,4.56838e-09,-1.90079e-07,-2.32068e-08,7.50485e-07,2.51331e-08,0,0,0,-2.10792e-07,0,4.99874e-19,0,0,0,0.0702507,-0.0246,0.588057,0,0,0,0,0,0
0.0016986,1.92648e-08,-1.10828,7.31496e-09,2.21657,-3.71592e-08,0.610866,4.02435e-08,1.13536e-05,-0.000528836,4.31103e-06,-0.000179372,-2.18995e-05,0.000708209,2.37172e-05,0,0,0,-0.000198917,0,4.20065e-10,0,0,0,0.0702504,-0.0246,0.588057,0,0,0,0,0,0
0.0028573,4.13942e-08,-1.10829,1.57177e-08,2.21657,-7.98438e-08,0.610868,8.6471e-08,1.90985e-05,-0.000889579,7.25187e-06,-0.000301736,-3.68383e-05,0.00119132,3.9896e-05,0,0,0,-0.000334609,0,1.99945e-09,0,0,0,0.07025,-0.0246,0.588057,0,0,0,0,0,0
0.0038574,6.71802e-08,-1.10829,2.55089e-08,2.21657,-1.29581e-07,0.610869,1.40337e-07,2.57834e-05,-0.00120094,9.79026e-06,-0.000407357,-4.97324e-05,0.0016083,5.38604e-05,0,0,0,-0.000451727,0,4.91957e-09,0,0,0,0.0702496,-0.0246,0.588057,0,0,0,0,0,0
0.0048576,9.96558e-08,-1.10829,3.78404e-08,2.21657,-1.92221e-07,0.610871,2.08176e-07,3.24691e-05,-0.00151233,1.2329e-05,-0.000512996,-6.26277e-05,0.00202533,6.78262e-05,0,0,0,-0.000568857,0,9.82446e-09,0,0,0,0.070249,-0.0246,0.588057,0,0,0,0,0,0
0.0058577,1.38814e-07,-1.10829,5.27095e-08,2.21657,-2.67751e-07,0.610874,2.89975e-07,3.91542e-05,-0.00182369,1.48676e-05,-0.000618633,-7.55219e-05,0.00244232,8.17907e-05,0,0,0,-0.000685976,0,1.72276e-08,0,0,0,0.0702483,-0.0246,0.588057,0,0,0,0,0,0
0.0069593,1.90058e-07,-1.10829,7.21682e-08,2.21657,-3.66591e-07,0.610877,3.97021e-07,4.65179e-05,-0.00216664,1.7664e-05,-0.000735005,-8.97247e-05,0.00290164,9.71726e-05,0,0,0,-0.00081498,0,2.88895e-08,0,0,0,0.0702474,-0.0246,0.588057,0,0,0,0,0,0
0.0079594,2.43267e-07,-1.1083,9.23732e-08,2.21656,-4.69221e-07,0.61088,5.08169e-07,5.32035e-05,-0.00247798,2.0203e-05,-0.000840669,-0.000102619,0.00331865,0.000111137,0,0,0,-0.000932099,0,4.32199e-08,0,0,0,0.0702465,-0.0246,0.588057,0,0,0,0,0,0
0.0089595,3.03162e-07,-1.1083,1.15118e-07,2.21656,-5.84745e-07,0.610884,6.33284e-07,5.98892e-05,-0.00278931,2.27422e-05,-0.000946348,-0.000115513,0.00373566,0.000125102,0,0,0,-0.00104922,0,6.16445e-08,0,0,0,0.0702454,-0.0246,0.588057,0,0,0,0,0,0
0.0099596,3.69744e-07,-1.1083,1.40402e-07,2.21656,-7.13166e-07,0.610888,7.72365e-07,6.65751e-05,-0.00310064,2.52816e-05,-0.00105204,-0.000128408,0.00415268,0.000139068,0,0,0,-0.00116634,0,8.46777e-08,0,0,0,0.0702443,-0.0246,0.588057,0,0,0,0,0,0
0.0109597,4.43012e-07,-1.1083,1.68226e-07,2.21656,-8.54482e-07,0.610893,9.25414e-07,7.32613e-05,-0.00341195,2.78213e-05,-0.00115776,-0.000141302,0.00456971,0.000153033,0,0,0,-0.00128345,0,1.12834e-07,0,0,0,0.070243,-0.0246,0.588057,0,0,0,0,0,0
0.0119598,5.22968e-07,-1.10831,1.9859e-07,2.21656,-1.00869e-06,0.610898,1.09243e-06,7.99478e-05,-0.00372326,3.03613e-05,-0.0012635,-0.000154197,0.00498676,0.000166998,0,0,0,-0.00140057,0,1.46627e-07,0,0,0,0.0702416,-0.0246,0.588057,0,0,0,0,0,0
0.0129599,6.09611e-07,-1.10831,2.31495e-07,2.21656,-1.1758e-06,0.610903,1.27341e-06,8.66347e-05,-0.00403456,3.29016e-05,-0.00136926,-0.000167092,0.00540381,0.000180964,0,0,0,-0.00151769,0,1.86573e-07,0,0,0,0.0702401,-0.0246,0.588057,0,0,0,0,0,0
0.0139601,7.02953e-07,-1.10832,2.66945e-07,2.21656,-1.35583e-06,0.610909,1.46838e-06,9.33225e-05,-0.00434587,3.54426e-05,-0.00147506,-0.000179988,0.00582092,0.000194932,0,0,0,-0.00163482,0,2.33189e-07,0,0,0,0.0702384,-0.0246,0.588057,0,0,0,0,0,0
0.0149602,8.02973e-07,-1.10832,3.04932e-07,2.21656,-1.54873e-06,0.610915,1.6773e-06,0.00010001,-0.00465714,3.79836e-05,-0.00158087,-0.000192883,0.00623801,0.000208898,0,0,0,-0.00175194,0,2.86983e-07,0,0,0,0.0702367,-0.0246,0.588057,0,0,0,0,0,0
0.0159603,9.09682e-07,-1.10833,3.45461e-07,2.21655,-1.75453e-06,0.610922,1.90019e-06,0.000106698,-0.00496839,4.05251e-05,-0.00168671,-0.000205778,0.0066551,0.000222865,0,0,0,-0.00186906,0,3.48471e-07,0,0,0,0.0702348,-0.0246,0.588057,0,0,0,0,0,0
0.0169605,1.02309e-06,-1.10833,3.88537e-07,2.21655,-1.97325e-06,0.610929,2.13707e-06,0.000113387,-0.00527966,4.30673e-05,-0.0017926,-0.000218674,0.00707226,0.000236834,0,0,0,-0.00198619,0,4.18176e-07,0,0,0,0.0702328,-0.0246,0.588057,0,0,0,0,0,0
0.0179606,1.14318e-06,-1.10834,4.34152e-07,2.21655,-2.20484e-06,0.610937,2.3879e-06,0.000120076,-0.00559089,4.56097e-05,-0.0018985,-0.00023157,0.00748939,0.000250801,0,0,0,-0.00210331,0,4.96599e-07,0,0,0,0.0702307,-0.0246,0.588057,0,0,0,0,0,0
0.0189607,1.26996e-06,-1.10834,4.82309e-07,2.21655,-2.44933e-06,0.610944,2.65269e-06,0.000126766,-0.0059021,4.81526e-05,-0.00200444,-0.000244466,0.00790654,0.000264769,0,0,0,-0.00222042,0,5.8426e-07,0,0,0,0.0702285,-0.0246,0.588057,0,0,0,0,0,0
0.0199608,1.40343e-06,-1.10835,5.3301e-07,2.21655,-2.70672e-06,0.610953,2.93146e-06,0.000133455,-0.00621328,5.0696e-05,-0.00211042,-0.000257361,0.00832371,0.000278737,0,0,0,-0.00233754,0,6.81675e-07,0,0,0,0.0702262,-0.0246,0.588057,0,0,0,0,0,0
0.0209609,1.54359e-06,-1.10836,5.86255e-07,2.21654,-2.977e-06,0.610962,3.22419e-06,0.000140146,-0.00652445,5.324e-05,-0.00221644,-0.000270257,0.0087409,0.000292706,0,0,0,-0.00245466,0,7.89356e-07,0,0,0,0.0702237,-0.0246,0.588057,0,0,0,0,0,0
0.021961,1.69044e-06,-1.10836,6.42045e-07,2.21654,-3.26018e-06,0.610971,3.5309e-06,0.000146837,-0.0068356,5.57845e-05,-0.0023225,-0.000283154,0.0091581,0.000306675,0,0,0,-0.00257178,0,9.0782e-07,0,0,0,0.0702211,-0.0246,0.588057,0,0,0,0,0,0
0.0229611,1.84398e-06,-1.10837,7.00381e-07,2.21654,-3.55626e-06,0.61098,3.85157e-06,0.000153529,-0.00714673,5.83297e-05,-0.0024286,-0.00029605,0.00957534,0.000320645,0,0,0,-0.0026889,0,1.03758e-06,0,0,0,0.0702184,-0.0246,0.588057,0,0,0,0,0,0
0.0239652,2.00489e-06,-1.10838,7.61516e-07,2.21654,-3.86653e-06,0.61099,4.18762e-06,0.000160248,-0.00745909,6.08856e-05,-0.00253517,-0.000308998,0.00999426,0.000334671,0,0,0,-0.00280648,0,1.17974e-06,0,0,0,0.0702156,-0.0246,0.588057,0,0,0,0,0,0
0.0249653,2.17184e-06,-1.10839,8.24955e-07,2.21653,-4.18845e-06,0.611001,4.53629e-06,0.000166941,-0.00777017,6.34321e-05,-0.00264137,-0.000321895,0.0104115,0.000348641,0,0,0,-0.0029236,0,1.33369e-06,0,0,0,0.0702127,-0.0246,0.588057,0,0,0,0,0,0
0.0259654,2.3455e-06,-1.10839,8.90941e-07,2.21653,-4.52328e-06,0.611012,4.89894e-06,0.000173634,-0.00808123,6.59793e-05,-0.00274761,-0.000334792,0.0108288,0.000362613,0,0,0,-0.00304072,0,1.50047e-06,0,0,0,0.0702097,-0.0246,0.588057,0,0,0,0,0,0
0.0269655,2.52584e-06,-1.1084,9.59475e-07,2.21653,-4.871e-06,0.611023,5.27556e-06,0.000180329,-0.00839227,6.85272e-05,-0.0028539,-0.00034769,0.0112462,0.000376584,0,0,0,-0.00315784,0,1.68062e-06,0,0,0,0.0702065,-0.0246,0.588057,0,0,0,0,0,0
0.0279657,2.71291e-06,-1.10841,1.03056e-06,2.21653,-5.23166e-06,0.611034,5.6662e-06,0.000187025,-0.00870331,7.1076e-05,-0.00296026,-0.000360589,0.0116636,0.000390558,0,0,0,-0.00327497,0,1.87465e-06,0,0,0,0.0702032,-0.0246,0.588057,0,0,0,0,0,0
0.0289697,2.90743e-06,-1.10842,1.10449e-06,2.21652,-5.6067e-06,0.611047,6.07241e-06,0.000193747,-0.0090155,7.36354e-05,-0.00306707,-0.000373537,0.0120826,0.000404586,0,0,0,-0.00339254,0,2.08389e-06,0,0,0,0.0701998,-0.0246,0.588057,0,0,0,0,0,0
0.0299698,3.10789e-06,-1.10843,1.18069e-06,2.21652,-5.99317e-06,0.611059,6.49101e-06,0.000200443,-0.00932646,7.61856e-05,-0.00317353,-0.000386435,0.0125,0.000418559,0,0,0,-0.00350966,0,2.30725e-06,0,0,0,0.0701963,-0.0246,0.588057,0,0,0,0,0,0
0.0309699,3.31505e-06,-1.10844,1.25943e-06,2.21652,-6.39254e-06,0.611072,6.92358e-06,0.000207141,-0.00963739,7.87367e-05,-0.00328005,-0.000399333,0.0129174,0.000432533,0,0,0,-0.00362678,0,2.54602e-06,0,0,0,0.0701927,-0.0246,0.588057,0,0,0,0,0,0
0.03197,3.52891e-06,-1.10845,1.34073e-06,2.21651,-6.80482e-06,0.611085,7.37014e-06,0.000213839,-0.00994828,8.12886e-05,-0.00338663,-0.000412232,0.0133349,0.000446508,0,0,0,-0.0037439,0,2.80073e-06,0,0,0,0.0701889,-0.0246,0.588057,0,0,0,0,0,0
0.0329701,3.74947e-06,-1.10846,1.42458e-06,2.21651,-7.22999e-06,0.611099,7.83067e-06,0.000220539,-0.0102592,8.38414e-05,-0.00349327,-0.000425131,0.0137524,0.000460484,0,0,0,-0.00386102,0,3.07188e-06,0,0,0,0.0701851,-0.0246,0.588057,0,0,0,0,0,0
0.0339702,3.97674e-06,-1.10847,1.51098e-06,2.21651,-7.66806e-06,0.611113,8.30517e-06,0.000227239,-0.01057,8.63952e-05,-0.00359997,-0.000438031,0.01417,0.00047446,0,0,0,-0.00397814,0,3.35999e-06,0,0,0,0.0701811,-0.0246,0.588057,0,0,0,0,0,0
0.0349703,4.2107e-06,-1.10848,1.59994e-06,2.2165,-8.11904e-06,0.611128,8.79366e-06,0.00023394,-0.0108808,8.89498e-05,-0.00370674,-0.00045093,0.0145875,0.000488437,0,0,0,-0.00409525,0,3.66557e-06,0,0,0,0.070177,-0.0246,0.588057,0,0,0,0,0,0
0.0359704,4.45137e-06,-1.10849,1.69146e-06,2.2165,-8.58292e-06,0.611143,9.29613e-06,0.000240642,-0.0111916,9.15055e-05,-0.00381358,-0.00046383,0.0150051,0.000502415,0,0,0,-0.00421237,0,3.98914e-06,0,0,0,0.0701728,-0.0246,0.588057,0,0,0,0,0,0
0.0369705,4.69874e-06,-1.1085,1.78553e-06,2.21649,-9.0597e-06,0.611158,9.81257e-06,0.000247346,-0.0115023,9.40622e-05,-0.00392049,-0.000476731,0.0154228,0.000516394,0,0,0,-0.00432949,0,4.33121e-06,0,0,0,0.0701685,-0.0246,0.588057,0,0,0,0,0,0
0.0379706,4.95281e-06,-1.10851,1.88216e-06,2.21649,-9.54938e-06,0.611174,1.0343e-05,0.00025405,-0.011813,9.66199e-05,-0.00402747,-0.000489632,0.0158405,0.000530373,0,0,0,-0.00444661,0,4.6923e-06,0,0,0,0.070164,-0.0246,0.588057,0,0,0,0,0,0
0.0389707,5.21359e-06,-1.10853,1.98135e-06,2.21649,-1.0052e-05,0.61119,1.08874e-05,0.000260755,-0.0121237,9.91786e-05,-0.00413452,-0.000502533,0.0162582,0.000544353,0,0,0,-0.00456373,0,5.07292e-06,0,0,0,0.0701595,-0.0246,0.588057,0,0,0,0,0,0
0.0399708,5.48108e-06,-1.10854,2.08309e-06,2.21648,-1.05674e-05,0.611207,1.14458e-05,0.000267461,-0.0124343,0.000101738,-0.00424166,-0.000515434,0.0166759,0.000558334,0,0,0,-0.00468084,0,5.47358e-06,0,0,0,0.0701548,-0.0246,0.588057,0,0,0,0,0,0
0.0409709,5.75528e-06,-1.10855,2.1874e-06,2.21648,-1.10958e-05,0.611224,1.20182e-05,0.000274169,-0.0127449,0.000104299,-0.00434887,-0.000528336,0.0170937,0.000572316,0,0,0,-0.00479796,0,5.89481e-06,0,0,0,0.07015,-0.0246,0.588057,0,0,0,0,0,0
0.041971,6.03618e-06,-1.10856,2.29428e-06,2.21647,-1.16371e-05,0.611242,1.26045e-05,0.000280877,-0.0130554,0.000106862,-0.00445616,-0.000541238,0.0175116,0.000586299,0,0,0,-0.00491508,0,6.33711e-06,0,0,0,0.0701451,-0.0246,0.588057,0,0,0,0,0,0
0.0429711,6.3238e-06,-1.10858,2.40371e-06,2.21647,-1.21913e-05,0.61126,1.32049e-05,0.000287587,-0.0133659,0.000109425,-0.00456353,-0.000554141,0.0179295,0.000600283,0,0,0,-0.0050322,0,6.801e-06,0,0,0,0.07014,-0.0246,0.588057,0,0,0,0,0,0
0.0439712,6.61813e-06,-1.10859,2.51571e-06,2.21646,-1.27584e-05,0.611278,1.38192e-05,0.000294298,-0.0136764,0.000111989,-0.00467099,-0.000567044,0.0183474,0.000614267,0,0,0,-0.00514932,0,7.28699e-06,0,0,0,0.0701349,-0.0246,0.588057,0,0,0,0,0,0
0.0449714,6.9192e-06,-1.10861,2.63029e-06,2.21646,-1.33385e-05,0.611297,1.44476e-05,0.000301011,-0.0139869,0.000114555,-0.00477854,-0.000579949,0.0187654,0.000628254,0,0,0,-0.00526644,0,7.79565e-06,0,0,0,0.0701296,-0.0246,0.588057,0,0,0,0,0,0
0.0459715,7.22695e-06,-1.10862,2.74742e-06,2.21645,-1.39314e-05,0.611316,1.50899e-05,0.000307724,-0.0142972,0.000117122,-0.00488617,-0.000592853,0.0191834,0.000642241,0,0,0,-0.00538356,0,8.32739e-06,0,0,0,0.0701242,-0.0246,0.588057,0,0,0,0,0,0
0.0469716,7.54142e-06,-1.10863,2.86713e-06,2.21645,-1.45372e-05,0.611336,1.57462e-05,0.000314439,-0.0146076,0.000119691,-0.00499389,-0.000605757,0.0196015,0.000656228,0,0,0,-0.00550068,0,8.88278e-06,0,0,0,0.0701187,-0.0246,0.588057,0,0,0,0,0,0
0.0479717,7.86261e-06,-1.10865,2.9894e-06,2.21644,-1.51559e-05,0.611356,1.64165e-05,0.000321155,-0.0149179,0.00012226,-0.0051017,-0.000618662,0.0200196,0.000670217,0,0,0,-0.0056178,0,9.46234e-06,0,0,0,0.0701131,-0.0246,0.588057,0,0,0,0,0,0
0.0489718,8.19051e-06,-1.10867,3.11424e-06,2.21644,-1.57876e-05,0.611376,1.71007e-05,0.000327872,-0.0152281,0.000124831,-0.00520961,-0.000631567,0.0204377,0.000684206,0,0,0,-0.00573492,0,1.00666e-05,0,0,0,0.0701074,-0.0246,0.588057,0,0,0,0,0,0
0.0499719,8.52514e-06,-1.10868,3.24166e-06,2.21643,-1.64321e-05,0.611397,1.7799e-05,0.000334591,-0.0155383,0.000127403,-0.00531761,-0.000644473,0.0208559,0.000698197,0,0,0,-0.00585203,0,1.0696e-05,0,0,0,0.0701015,-0.0246,0.588057,0,0,0,0,0,0
0.050972,8.86648e-06,-1.1087,3.37165e-06,2.21643,-1.70896e-05,0.611418,1.85113e-05,0.000341311,-0.0158485,0.000129977,-0.00542571,-0.000657379,0.0212742,0.000712188,0,0,0,-0.00596915,0,1.13511e-05,0,0,0,0.0700955,-0.0246,0.588057,0,0,0,0,0,0
0.0519721,9.21455e-06,-1.10871,3.50421e-06,2.21642,-1.77599e-05,0.61144,1.92375e-05,0.000348033,-0.0161586,0.000132552,-0.00553391,-0.000670286,0.0216925,0.000726181,0,0,0,-0.00608627,0,1.20324e-05,0,0,0,0.0700895,-0.0246,0.588057,0,0,0,0,0,0
0.0529722,9.56934e-06,-1.10873,3.63936e-06,2.21642,-1.84432e-05,0.611462,1.99778e-05,0.000354756,-0.0164686,0.000135129,-0.00564221,-0.000683193,0.0221108,0.000740175,0,0,0,-0.00620338,0,1.27405e-05,0,0,0,0.0700833,-0.0246,0.588057,0,0,0,0,0,0
0.0539723,9.93086e-06,-1.10875,3.77708e-06,2.21641,-1.91393e-05,0.611484,2.0732e-05,0.00036148,-0.0167786,0.000137707,-0.00575062,-0.0006961,0.0225292,0.00075417,0,0,0,-0.0063205,0,1.34758e-05,0,0,0,0.0700769,-0.0246,0.588057,0,0,0,0,0,0
0.0549724,1.02991e-05,-1.10876,3.91738e-06,2.2164,-1.98484e-05,0.611507,2.15002e-05,0.000368206,-0.0170886,0.000140286,-0.00585913,-0.000709008,0.0229477,0.000768166,0,0,0,-0.00643762,0,1.42389e-05,0,0,0,0.0700705,-0.0246,0.588057,0,0,0,0,0,0
0.0559725,1.06741e-05,-1.10878,4.06026e-06,2.2164,-2.05704e-05,0.611531,2.22825e-05,0.000374934,-0.0173985,0.000142867,-0.00596774,-0.000721917,0.0233662,0.000782163,0,0,0,-0.00655474,0,1.50303e-05,0,0,0,0.0700639,-0.0246,0.588057,0,0,0,0,0,0
0.0569726,1.10558e-05,-1.1088,4.20572e-06,2.21639,-2.13053e-05,0.611555,2.30787e-05,0.000381663,-0.0177083,0.00014545,-0.00607647,-0.000734826,0.0237848,0.000796162,0,0,0,-0.00667185,0,1.58504e-05,0,0,0,0.0700573,-0.0246,0.588057,0,0,0,0,0,0
0.0579727,1.14442e-05,-1.10882,4.35377e-06,2.21639,-2.20531e-05,0.611579,2.3889e-05,0.000388394,-0.0180181,0.000148034,-0.00618531,-0.000747736,0.0242034,0.000810162,0,0,0,-0.00678897,0,1.66999e-05,0,0,0,0.0700505,-0.0246,0.588057,0,0,0,0,0,0
0.0589728,1.18394e-05,-1.10883,4.50441e-06,2.21638,-2.28138e-05,0.611603,2.47132e-05,0.000395126,-0.0183278,0.00015062,-0.00629426,-0.000760646,0.0246221,0.000824163,0,0,0,-0.00690609,0,1.75792e-05,0,0,0,0.0700436,-0.0246,0.588057,0,0,0,0,0,0
0.0599729,1.22413e-05,-1.10885,4.65763e-06,2.21637,-2.35875e-05,0.611628,2.55515e-05,0.00040186,-0.0186375,0.000153208,-0.00640333,-0.000773557,0.0250409,0.000838165,0,0,0,-0.0070232,0,1.84888e-05,0,0,0,0.0700365,-0.0246,0.588057,0,0,0,0,0,0
0.060973,1.26499e-05,-1.10887,4.81344e-06,2.21637,-2.4374e-05,0.611654,2.64037e-05,0.000408595,-0.0189471,0.000155797,-0.00651251,-0.000786468,0.0254597,0.000852168,0,0,0,-0.00714032,0,1.94292e-05,0,0,0,0.0700294,-0.0246,0.588057,0,0,0,0,0,0
0.0619731,1.30653e-05,-1.10889,4.97185e-06,2.21636,-2.51735e-05,0.61168,2.727e-05,0.000415333,-0.0192567,0.000158388,-0.00662182,-0.00079938,0.0258785,0.000866173,0,0,0,-0.00725743,0,2.0401e-05,0,0,0,0.0700221,-0.0246,0.588057,0,0,0,0,0,0
0.0629732,1.34874e-05,-1.10891,5.13284e-06,2.21635,-2.59859e-05,0.611706,2.81503e-05,0.000422072,-0.0195662,0.000160981,-0.00673124,-0.000812293,0.0262974,0.000880179,0,0,0,-0.00737455,0,2.14047e-05,0,0,0,0.0700148,-0.0246,0.588057,0,0,0,0,0,0
0.0639733,1.39163e-05,-1.10893,5.29644e-06,2.21635,-2.68111e-05,0.611733,2.90445e-05,0.000428812,-0.0198756,0.000163575,-0.00684079,-0.000825206,0.0267164,0.000894187,0,0,0,-0.00749167,0,2.24408e-05,0,0,0,0.0700073,-0.0246,0.588057,0,0,0,0,0,0
0.0649734,1.43519e-05,-1.10895,5.46262e-06,2.21634,-2.76493e-05,0.61176,2.99528e-05,0.000435555,-0.020185,0.000166171,-0.00695046,-0.000838119,0.0271355,0.000908195,0,0,0,-0.00760878,0,2.35098e-05,0,0,0,0.0699997,-0.0246,0.588057,0,0,0,0,0,0
0.0659735,1.47942e-05,-1.10897,5.63141e-06,2.21633,-2.85005e-05,0.611787,3.08751e-05,0.000442299,-0.0204943,0.000168769,-0.00706026,-0.000851033,0.0275546,0.000922206,0,0,0,-0.0077259,0,2.46122e-05,0,0,0,0.0699919,-0.0246,0.588057,0,0,0,0,0,0
0.0669736,1.52433e-05,-1.10899,5.8028e-06,2.21633,-2.93645e-05,0.611815,3.18114e-05,0.000449045,-0.0208036,0.000171369,-0.00717019,-0.000863948,0.0279738,0.000936217,0,0,0,-0.00784301,0,2.57486e-05,0,0,0,0.0699841,-0.0246,0.588057,0,0,0,0,0,0
0.0679737,1.56991e-05,-1.10901,5.97678e-06,2.21632,-3.02414e-05,0.611844,3.27617e-05,0.000455793,-0.0211128,0.000173971,-0.00728025,-0.000876864,0.028393,0.00095023,0,0,0,-0.00796013,0,2.69194e-05,0,0,0,0.0699761,-0.0246,0.588057,0,0,0,0,0,0
0.0689738,1.61617e-05,-1.10903,6.15338e-06,2.21631,-3.11313e-05,0.611873,3.37261e-05,0.000462543,-0.0214219,0.000176575,-0.00739045,-0.00088978,0.0288123,0.000964245,0,0,0,-0.00807724,0,2.81251e-05,0,0,0,0.0699681,-0.0246,0.588057,0,0,0,0,0,0
0.0699739,1.66311e-05,-1.10906,6.33257e-06,2.2163,-3.20341e-05,0.611902,3.47044e-05,0.000469295,-0.0217309,0.00017918,-0.00750077,-0.000902696,0.0292317,0.00097826,0,0,0,-0.00819436,0,2.93664e-05,0,0,0,0.0699599,-0.0246,0.588057,0,0,0,0,0,0
0.070974,1.71072e-05,-1.10908,6.51438e-06,2.2163,-3.29498e-05,0.611932,3.56968e-05,0.000476049,-0.0220399,0.000181788,-0.00761124,-0.000915614,0.0296512,0.000992278,0,0,0,-0.00831147,0,3.06436e-05,0,0,0,0.0699516,-0.0246,0.588057,0,0,0,0,0,0
0.0719741,1.759e-05,-1.1091,6.6988e-06,2.21629,-3.38784e-05,0.611962,3.67032e-05,0.000482805,-0.0223488,0.000184397,-0.00772184,-0.000928532,0.0300707,0.0010063,0,0,0,-0.00842859,0,3.19574e-05,0,0,0,0.0699431,-0.0246,0.588057,0,0,0,0,0,0
0.0729742,1.80796e-05,-1.10912,6.88582e-06,2.21628,-3.482e-05,0.611992,3.77236e-05,0.000489562,-0.0226577,0.000187009,-0.00783258,-0.00094145,0.0304903,0.00102032,0,0,0,-0.0085457,0,3.33081e-05,0,0,0,0.0699346,-0.0246,0.588057,0,0,0,0,0,0
0.0740269,1.86025e-05,-1.10915,7.08558e-06,2.21627,-3.58254e-05,0.612025,3.88133e-05,0.000496676,-0.0229827,0.000189758,-0.00794927,-0.000955049,0.030932,0.00103508,0,0,0,-0.00866897,0,3.47705e-05,0,0,0,0.0699254,-0.0246,0.588057,0,0,0,0,0,0
0.075027,1.9106e-05,-1.10917,7.27798e-06,2.21626,-3.67934e-05,0.612056,3.98625e-05,0.00050344,-0.0232914,0.000192376,-0.00806035,-0.000967969,0.0313518,0.0010491,0,0,0,-0.00878609,0,3.61988e-05,0,0,0,0.0699167,-0.0246,0.588057,0,0,0,0,0,0
0.0760271,1.96162e-05,-1.10919,7.47299e-06,2.21626,-3.77744e-05,0.612088,4.09257e-05,0.000510204,-0.0236,0.000194994,-0.00817153,-0.000980889,0.0317716,0.00106312,0,0,0,-0.0089032,0,3.76658e-05,0,0,0,0.0699078,-0.0246,0.588057,0,0,0,0,0,0
0.0770272,2.01332e-05,-1.10922,7.67063e-06,2.21625,-3.87683e-05,0.61212,4.2003e-05,0.00051697,-0.0239086,0.000197614,-0.00828286,-0.000993811,0.0321915,0.00107715,0,0,0,-0.00902031,0,3.91719e-05,0,0,0,0.0698987,-0.0246,0.588057,0,0,0,0,0,0
0.0780273,2.0657e-05,-1.10924,7.87088e-06,2.21624,-3.97752e-05,0.612153,4.30942e-05,0.000523738,-0.0242171,0.000200236,-0.00839435,-0.00100673,0.0326114,0.00109118,0,0,0,-0.00913743,0,4.07175e-05,0,0,0,0.0698896,-0.0246,0.588058,0,0,0,0,0,0
0.0790274,2.11876e-05,-1.10927,8.07376e-06,2.21623,-4.07949e-05,0.612186,4.41996e-05,0.000530509,-0.0245255,0.000202861,-0.00850599,-0.00101966,0.0330315,0.00110521,0,0,0,-0.00925454,0,4.23034e-05,0,0,0,0.0698803,-0.0246,0.588058,0,0,0,0,0,0
0.0800275,2.17249e-05,-1.10929,8.27927e-06,2.21622,-4.18276e-05,0.612219,4.53189e-05,0.000537281,-0.0248338,0.000205487,-0.00861778,-0.00103258,0.0334516,0.00111924,0,0,0,-0.00937165,0,4.39298e-05,0,0,0,0.069871,-0.0246,0.588058,0,0,0,0,0,0
0.0810276,2.2269e-05,-1.10932,8.48741e-06,2.21621,-4.28732e-05,0.612253,4.64523e-05,0.000544056,-0.025142,0.000208116,-0.00872972,-0.0010455,0.0338718,0.00113327,0,0,0,-0.00948876,0,4.55974e-05,0,0,0,0.0698615,-0.0246,0.588058,0,0,0,0,0,0
0.0820277,2.28199e-05,-1.10934,8.69818e-06,2.2162,-4.39317e-05,0.612287,4.75997e-05,0.000550833,-0.0254502,0.000210747,-0.00884183,-0.00105843,0.0342921,0.00114731,0,0,0,-0.00960587,0,4.73067e-05,0,0,0,0.0698519,-0.0246,0.588058,0,0,0,0,0,0
0.0830278,2.33776e-05,-1.10937,8.91158e-06,2.2162,-4.50032e-05,0.612322,4.87612e-05,0.000557613,-0.0257583,0.000213381,-0.0089541,-0.00107135,0.0347124,0.00116135,0,0,0,-0.00972299,0,4.90582e-05,0,0,0,0.0698422,-0.0246,0.588058,0,0,0,0,0,0
0.084028,2.39421e-05,-1.10939,9.12764e-06,2.21619,-4.60877e-05,0.612357,4.99368e-05,0.000564395,-0.0260663,0.000216017,-0.00906653,-0.00108428,0.0351329,0.00117539,0,0,0,-0.00984011,0,5.08526e-05,0,0,0,0.0698323,-0.0246,0.588058,0,0,0,0,0,0
0.0850281,2.45133e-05,-1.10942,9.34631e-06,2.21618,-4.7185e-05,0.612393,5.11264e-05,0.000571179,-0.0263743,0.000218655,-0.00917913,-0.00109721,0.0355534,0.00118943,0,0,0,-0.00995722,0,5.26901e-05,0,0,0,0.0698223,-0.0246,0.588058,0,0,0,0,0,0
0.0860282,2.50914e-05,-1.10945,9.56763e-06,2.21617,-4.82953e-05,0.612429,5.23299e-05,0.000577965,-0.0266821,0.000221296,-0.00929188,-0.00111013,0.035974,0.00120347,0,0,0,-0.0100743,0,5.45712e-05,0,0,0,0.0698123,-0.0246,0.588058,0,0,0,0,0,0
0.0870283,2.56762e-05,-1.10947,9.79159e-06,2.21616,-4.94184e-05,0.612465,5.35476e-05,0.000584754,-0.0269899,0.000223938,-0.00940481,-0.00112306,0.0363947,0.00121751,0,0,0,-0.0101914,0,5.64966e-05,0,0,0,0.0698021,-0.0246,0.588058,0,0,0,0,0,0
0.0880285,2.62678e-05,-1.1095,1.00182e-05,2.21615,-5.05547e-05,0.612502,5.47794e-05,0.000591546,-0.0272976,0.000226584,-0.00951792,-0.00113599,0.0368155,0.00123156,0,0,0,-0.0103086,0,5.8467e-05,0,0,0,0.0697918,-0.0246,0.588058,0,0,0,0,0,0
0.0890286,2.68662e-05,-1.10953,1.02475e-05,2.21614,-5.17037e-05,0.612539,5.60251e-05,0.00059834,-0.0276052,0.000229232,-0.00963119,-0.00114892,0.0372364,0.00124561,0,0,0,-0.0104257,0,6.04825e-05,0,0,0,0.0697813,-0.0246,0.588058,0,0,0,0,0,0
0.0900287,2.74714e-05,-1.10956,1.04794e-05,2.21613,-5.28657e-05,0.612577,5.72849e-05,0.000605136,-0.0279127,0.000231882,-0.00974463,-0.00116185,0.0376573,0.00125965,0,0,0,-0.0105428,0,6.25437e-05,0,0,0,0.0697708,-0.0246,0.588058,0,0,0,0,0,0
0.0910288,2.80834e-05,-1.10959,1.07139e-05,2.21612,-5.40406e-05,0.612615,5.85587e-05,0.000611934,-0.0282201,0.000234535,-0.00985824,-0.00117479,0.0380784,0.00127371,0,0,0,-0.0106599,0,6.46513e-05,0,0,0,0.0697601,-0.0246,0.588058,0,0,0,0,0,0
0.0920292,2.87024e-05,-1.10961,1.09512e-05,2.21611,-5.52288e-05,0.612653,5.9847e-05,0.000618737,-0.0285275,0.000237191,-0.00997207,-0.00118772,0.0384996,0.00128776,0,0,0,-0.010777,0,6.68063e-05,0,0,0,0.0697494,-0.0246,0.588058,0,0,0,0,0,0
0.0930352,2.93317e-05,-1.10964,1.11925e-05,2.2161,-5.64367e-05,0.612693,6.11567e-05,0.000625581,-0.0288366,0.000239865,-0.0100867,-0.00120073,0.0389233,0.0013019,0,0,0,-0.0108948,0,6.90212e-05,0,0,0,0.0697384,-0.0246,0.588058,0,0,0,0,0,0
0.0940353,2.99642e-05,-1.10967,1.14351e-05,2.21609,-5.76505e-05,0.612732,6.24728e-05,0.000632387,-0.0291437,0.000242526,-0.0102009,-0.00121367,0.0393446,0.00131596,0,0,0,-0.0110119,0,7.1271e-05,0,0,0,0.0697274,-0.0246,0.588058,0,0,0,0,0,0
0.0950354,3.06035e-05,-1.1097,1.16803e-05,2.21608,-5.88772e-05,0.612772,6.3803e-05,0.000639196,-0.0294507,0.000245189,-0.0103152,-0.0012266,0.039766,0.00133001,0,0,0,-0.011129,0,7.35692e-05,0,0,0,0.0697163,-0.0246,0.588058,0,0,0,0,0,0
0.0960355,3.12495e-05,-1.10973,1.19282e-05,2.21607,-6.01169e-05,0.612812,6.51472e-05,0.000646008,-0.0297577,0.000247855,-0.0104297,-0.00123954,0.0401875,0.00134408,0,0,0,-0.0112461,0,7.59164e-05,0,0,0,0.069705,-0.0246,0.588059,0,0,0,0,0,0
0.0970357,3.19025e-05,-1.10976,1.21788e-05,2.21606,-6.13696e-05,0.612852,6.65056e-05,0.000652822,-0.0300646,0.000250524,-0.0105445,-0.00125247,0.0406091,0.00135814,0,0,0,-0.0113633,0,7.83131e-05,0,0,0,0.0696936,-0.0246,0.588059,0,0,0,0,0,0
0.0982954,3.27356e-05,-1.1098,1.24985e-05,2.21604,-6.29679e-05,0.612904,6.82387e-05,0.00066139,-0.0304512,0.000253867,-0.0106889,-0.00126877,0.0411402,0.00137584,0,0,0,-0.0115108,0,8.14028e-05,0,0,0,0.0696791,-0.0246,0.588059,0,0,0,0,0,0
0.0995388,3.35685e-05,-1.10984,1.28183e-05,2.21603,-6.45654e-05,0.612956,6.99712e-05,0.00066987,-0.0308324,0.000257194,-0.0108321,-0.00128485,0.0416646,0.00139333,0,0,0,-0.0116564,0,8.45311e-05,0,0,0,0.0696646,-0.0246,0.588059,0,0,0,0,0,0
0.100831,3.44455e-05,-1.10988,1.31552e-05,2.21602,-6.62473e-05,0.613011,7.17952e-05,0.000678683,-0.0312285,0.000260651,-0.0109812,-0.00130157,0.0422098,0.00141151,0,0,0,-0.0118077,0,8.78661e-05,0,0,0,0.0696494,-0.0246,0.588059,0,0,0,0,0,0
0.102082,3.53053e-05,-1.10992,1.34854e-05,2.216,-6.78959e-05,0.613064,7.3583e-05,0.000687227,-0.0316117,0.000264009,-0.0111259,-0.00131776,0.0427377,0.00142912,0,0,0,-0.0119541,0,9.11773e-05,0,0,0,0.0696344,-0.0246,0.588059,0,0,0,0,0,0
0.103341,3.61814e-05,-1.10996,1.38221e-05,2.21599,-6.95756e-05,0.613119,7.54047e-05,0.000695826,-0.0319973,0.00026739,-0.0112718,-0.00133405,0.0432692,0.00144683,0,0,0,-0.0121016,0,9.45928e-05,0,0,0,0.0696192,-0.0246,0.588059,0,0,0,0,0,0
0.104592,3.70626e-05,-1.11,1.41608e-05,2.21597,-7.12647e-05,0.613173,7.72367e-05,0.000704375,-0.0323802,0.000270754,-0.0114171,-0.00135024,0.0437974,0.00146444,0,0,0,-0.012248,0,9.80698e-05,0,0,0,0.0696039,-0.0246,0.588059,0,0,0,0,0,0
0.105929,3.80167e-05,-1.11004,1.45277e-05,2.21596,-7.30935e-05,0.613233,7.92203e-05,0.000713512,-0.0327895,0.000274347,-0.0115727,-0.00136755,0.0443623,0.00148327,0,0,0,-0.0124046,0,0.00010188,0,0,0,0.0695873,-0.0246,0.588059,0,0,0,0,0,0
0.107149,3.88974e-05,-1.11008,1.48664e-05,2.21595,-7.47812e-05,0.613287,8.10508e-05,0.000721868,-0.0331625,0.000277648,-0.0117152,-0.00138334,0.0448778,0.00150045,0,0,0,-0.0125475,0,0.00010544,0,0,0,0.069572,-0.0246,0.58806,0,0,0,0,0,0
0.108437,3.98385e-05,-1.11013,1.52285e-05,2.21593,-7.65844e-05,0.613346,8.30068e-05,0.000730678,-0.0335563,0.000281119,-0.0118657,-0.00140001,0.0454221,0.00151859,0,0,0,-0.0126983,0,0.000109289,0,0,0,0.0695556,-0.0246,0.58806,0,0,0,0,0,0
0.109718,4.07857e-05,-1.11017,1.5593e-05,2.21591,-7.83989e-05,0.613405,8.4975e-05,0.000739451,-0.0339477,0.000284584,-0.0120159,-0.00141659,0.0459636,0.00153663,0,0,0,-0.0128482,0,0.000113207,0,0,0,0.0695392,-0.0246,0.58806,0,0,0,0,0,0
0.110906,4.1674e-05,-1.11021,1.5935e-05,2.2159,-8.01004e-05,0.61346,8.68208e-05,0.000747602,-0.0343105,0.000287811,-0.0121556,-0.00143198,0.0464662,0.00155338,0,0,0,-0.0129874,0,0.000116925,0,0,0,0.0695237,-0.0246,0.58806,0,0,0,0,0,0
0.112151,4.26152e-05,-1.11025,1.62975e-05,2.21588,-8.1903e-05,0.613519,8.87763e-05,0.000756131,-0.0346906,0.000291181,-0.0123021,-0.00144809,0.0469928,0.00157092,0,0,0,-0.0131331,0,0.000120907,0,0,0,0.0695074,-0.0246,0.58806,0,0,0,0,0,0
0.113377,4.35521e-05,-1.1103,1.66584e-05,2.21587,-8.36969e-05,0.613577,9.07224e-05,0.000764539,-0.0350645,0.000294511,-0.0124467,-0.00146396,0.0475113,0.00158819,0,0,0,-0.0132766,0,0.000124913,0,0,0,0.0694911,-0.0246,0.58806,0,0,0,0,0,0
0.11459,4.44895e-05,-1.11034,1.70196e-05,2.21585,-8.54916e-05,0.613635,9.26695e-05,0.000772865,-0.0354345,0.000297811,-0.0125902,-0.00147967,0.0480247,0.00160529,0,0,0,-0.0134186,0,0.000128965,0,0,0,0.0694748,-0.0246,0.58806,0,0,0,0,0,0
0.116321,4.58478e-05,-1.1104,1.75432e-05,2.21583,-8.80917e-05,0.613719,9.54904e-05,0.0007847,-0.0359628,0.000302466,-0.0127946,-0.00150209,0.0487576,0.00162967,0,0,0,-0.0136212,0,0.000134898,0,0,0,0.0694513,-0.0246,0.588061,0,0,0,0,0,0
0.117321,4.66395e-05,-1.11044,1.78485e-05,2.21582,-8.96069e-05,0.613769,9.71344e-05,0.00079165,-0.0362666,0.000305282,-0.0129148,-0.00151504,0.0491815,0.00164382,0,0,0,-0.0137383,0,0.000138408,0,0,0,0.0694375,-0.0246,0.588061,0,0,0,0,0,0
0.118321,4.74382e-05,-1.11047,1.81565e-05,2.21581,-9.11352e-05,0.613818,9.87927e-05,0.000798528,-0.0365713,0.000308015,-0.0130339,-0.001528,0.0496053,0.00165793,0,0,0,-0.0138554,0,0.000141978,0,0,0,0.0694237,-0.0246,0.588061,0,0,0,0,0,0
0.119321,4.82438e-05,-1.11051,1.84674e-05,2.21579,-9.26765e-05,0.613868,0.000100465,0.000805409,-0.0368758,0.000310752,-0.0131533,-0.00154095,0.0500292,0.00167204,0,0,0,-0.0139725,0,0.000145609,0,0,0,0.0694097,-0.0246,0.588061,0,0,0,0,0,0
0.120321,4.90564e-05,-1.11055,1.8781e-05,2.21578,-9.4231e-05,0.613919,0.000102152,0.000812294,-0.0371802,0.000313492,-0.013273,-0.00155391,0.0504533,0.00168615,0,0,0,-0.0140897,0,0.000149302,0,0,0,0.0693956,-0.0246,0.588061,0,0,0,0,0,0
0.121322,4.98757e-05,-1.11059,1.90972e-05,2.21577,-9.5798e-05,0.61397,0.000103852,0.000819181,-0.0374845,0.000316235,-0.0133928,-0.00156687,0.0508774,0.00170027,0,0,0,-0.0142067,0,0.000153056,0,0,0,0.0693814,-0.0246,0.588061,0,0,0,0,0,0
0.122322,5.07019e-05,-1.11062,1.94163e-05,2.21575,-9.73782e-05,0.614021,0.000105567,0.000826072,-0.0377886,0.000318981,-0.0135129,-0.00157983,0.0513017,0.00171439,0,0,0,-0.0143238,0,0.000156872,0,0,0,0.0693671,-0.0246,0.588062,0,0,0,0,0,0
0.123322,5.1535e-05,-1.11066,1.97381e-05,2.21574,-9.89713e-05,0.614073,0.000107296,0.000832966,-0.0380927,0.000321731,-0.0136333,-0.00159279,0.0517261,0.00172851,0,0,0,-0.0144409,0,0.000160752,0,0,0,0.0693526,-0.0246,0.588062,0,0,0,0,0,0
0.124322,5.2375e-05,-1.1107,2.00626e-05,2.21573,-0.000100577,0.614125,0.000109039,0.000839862,-0.0383966,0.000324484,-0.0137539,-0.00160575,0.0521505,0.00174263,0,0,0,-0.014558,0,0.000164694,0,0,0,0.0693381,-0.0246,0.588062,0,0,0,0,0,0
0.125349,5.32446e-05,-1.11074,2.03987e-05,2.21571,-0.00010224,0.614179,0.000110843,0.000846944,-0.0387085,0.000327311,-0.0138778,-0.00161906,0.0525864,0.00175713,0,0,0,-0.0146782,0,0.000168809,0,0,0,0.069323,-0.0246,0.588062,0,0,0,0,0,0
0.126375,5.41207e-05,-1.11078,2.07373e-05,2.2157,-0.000103914,0.614233,0.00011266,0.000854025,-0.0390199,0.000330142,-0.014002,-0.00163235,0.053022,0.00177162,0,0,0,-0.0147983,0,0.000172987,0,0,0,0.0693078,-0.0246,0.588062,0,0,0,0,0,0
0.127375,5.49817e-05,-1.11082,2.10703e-05,2.21568,-0.00010556,0.614287,0.000114446,0.000860935,-0.0393234,0.000332909,-0.0141234,-0.00164531,0.0534469,0.00178575,0,0,0,-0.0149154,0,0.000177127,0,0,0,0.0692929,-0.0246,0.588062,0,0,0,0,0,0
0.128387,5.58605e-05,-1.11086,2.14102e-05,2.21567,-0.000107239,0.614341,0.000116269,0.00086793,-0.0396305,0.000335709,-0.0142464,-0.00165844,0.0538771,0.00180006,0,0,0,-0.0150339,0,0.000181384,0,0,0,0.0692777,-0.0246,0.588063,0,0,0,0,0,0
0.129387,5.67355e-05,-1.1109,2.17487e-05,2.21565,-0.000108911,0.614396,0.000118083,0.000874846,-0.0399338,0.000338483,-0.0143683,-0.00167141,0.0543022,0.00181419,0,0,0,-0.015151,0,0.000185656,0,0,0,0.0692625,-0.0246,0.588063,0,0,0,0,0,0
0.130388,5.76175e-05,-1.11094,2.20901e-05,2.21564,-0.000110595,0.61445,0.000119912,0.000881765,-0.0402369,0.000341258,-0.0144904,-0.00168437,0.0547274,0.00182833,0,0,0,-0.0152681,0,0.000189995,0,0,0,0.0692472,-0.0246,0.588063,0,0,0,0,0,0
0.131388,5.85063e-05,-1.11098,2.24342e-05,2.21562,-0.000112293,0.614505,0.000121755,0.000888687,-0.0405399,0.000344036,-0.0146127,-0.00169734,0.0551527,0.00184247,0,0,0,-0.0153852,0,0.000194401,0,0,0,0.0692319,-0.0246,0.588063,0,0,0,0,0,0
0.132388,5.9402e-05,-1.11102,2.2781e-05,2.21561,-0.000114003,0.614561,0.000123612,0.000895612,-0.0408428,0.000346818,-0.0147353,-0.00171031,0.0555782,0.00185662,0,0,0,-0.0155022,0,0.000198874,0,0,0,0.0692163,-0.0246,0.588063,0,0,0,0,0,0
0.133388,6.03047e-05,-1.11106,2.31307e-05,2.2156,-0.000115727,0.614617,0.000125483,0.000902541,-0.0411455,0.000349604,-0.0148581,-0.00172328,0.0560037,0.00187076,0,0,0,-0.0156193,0,0.000203415,0,0,0,0.0692007,-0.0246,0.588064,0,0,0,0,0,0
0.134388,6.12143e-05,-1.1111,2.34831e-05,2.21558,-0.000117463,0.614673,0.000127368,0.000909473,-0.0414481,0.000352394,-0.0149812,-0.00173625,0.0564294,0.00188491,0,0,0,-0.0157364,0,0.000208025,0,0,0,0.069185,-0.0246,0.588064,0,0,0,0,0,0
0.135388,6.21308e-05,-1.11115,2.38383e-05,2.21557,-0.000119213,0.61473,0.000129267,0.000916409,-0.0417505,0.000355187,-0.0151045,-0.00174922,0.0568552,0.00189906,0,0,0,-0.0158535,0,0.000212703,0,0,0,0.0691691,-0.0246,0.588064,0,0,0,0,0,0
0.136402,6.30666e-05,-1.11119,2.42012e-05,2.21555,-0.000120999,0.614788,0.000131206,0.000923439,-0.0420569,0.000358019,-0.0152298,-0.00176236,0.0572868,0.0019134,0,0,0,-0.0159721,0,0.000217515,0,0,0,0.0691529,-0.0246,0.588064,0,0,0,0,0,0
0.137402,6.39971e-05,-1.11123,2.4562e-05,2.21553,-0.000122774,0.614846,0.000133134,0.000930384,-0.042359,0.000360822,-0.0153537,-0.00177533,0.0577128,0.00192755,0,0,0,-0.0160891,0,0.000222335,0,0,0,0.0691369,-0.0246,0.588064,0,0,0,0,0,0
0.138404,6.49359e-05,-1.11127,2.49262e-05,2.21552,-0.000124565,0.614904,0.000135079,0.000937341,-0.0426615,0.000363631,-0.015478,-0.00178833,0.0581397,0.00194173,0,0,0,-0.0162064,0,0.000227232,0,0,0,0.0691206,-0.0246,0.588065,0,0,0,0,0,0
0.139404,6.58803e-05,-1.11132,2.52927e-05,2.2155,-0.000126367,0.614963,0.000137035,0.000944292,-0.0429634,0.00036644,-0.0156024,-0.0018013,0.058566,0.00195589,0,0,0,-0.0163234,0,0.000232194,0,0,0,0.0691043,-0.0246,0.588065,0,0,0,0,0,0
0.140434,6.68604e-05,-1.11136,2.56732e-05,2.21549,-0.000128236,0.615024,0.000139065,0.000951451,-0.0432742,0.000369332,-0.0157308,-0.00181467,0.0590052,0.00197048,0,0,0,-0.016444,0,0.000237379,0,0,0,0.0690874,-0.0246,0.588065,0,0,0,0,0,0
0.141603,6.79823e-05,-1.11141,2.61088e-05,2.21547,-0.000130376,0.615093,0.000141388,0.000959565,-0.0436271,0.000372601,-0.0158766,-0.00182984,0.0595038,0.00198703,0,0,0,-0.0165809,0,0.000243357,0,0,0,0.069068,-0.0246,0.588065,0,0,0,0,0,0
0.142603,6.8949e-05,-1.11146,2.64843e-05,2.21545,-0.000132219,0.615153,0.000143389,0.000966554,-0.0439282,0.000375452,-0.0160023,-0.00184281,0.0599306,0.00200121,0,0,0,-0.0166979,0,0.00024855,0,0,0,0.0690513,-0.0246,0.588066,0,0,0,0,0,0
0.143612,6.99315e-05,-1.1115,2.68661e-05,2.21544,-0.000134092,0.615214,0.000145423,0.000973582,-0.0442322,0.000378301,-0.016129,-0.00185591,0.0603614,0.00201551,0,0,0,-0.016816,0,0.000253864,0,0,0,0.0690343,-0.0246,0.588066,0,0,0,0,0,0
0.144961,7.12576e-05,-1.11156,2.73815e-05,2.21541,-0.000136619,0.615296,0.000148168,0.000982932,-0.0446391,0.000382056,-0.0162979,-0.00187342,0.0609372,0.0020346,0,0,0,-0.0169739,0,0.000261085,0,0,0,0.0690114,-0.0246,0.588066,0,0,0,0,0,0
0.145972,7.22586e-05,-1.11161,2.77708e-05,2.2154,-0.000138527,0.615358,0.00015024,0.000990039,-0.0449427,0.000384985,-0.0164264,-0.00188654,0.0613693,0.00204896,0,0,0,-0.0170923,0,0.000266586,0,0,0,0.0689941,-0.0246,0.588067,0,0,0,0,0,0
0.146973,7.32558e-05,-1.11165,2.81587e-05,2.21538,-0.000140427,0.61542,0.000152303,0.000997022,-0.0452435,0.000387827,-0.016553,-0.00189952,0.0617966,0.00206314,0,0,0,-0.0172093,0,0.000272104,0,0,0,0.0689769,-0.0246,0.588067,0,0,0,0,0,0
0.147973,7.42601e-05,-1.1117,2.85494e-05,2.21536,-0.000142339,0.615482,0.000154381,0.00100401,-0.0455441,0.00039067,-0.0166798,-0.00191251,0.0622241,0.00207733,0,0,0,-0.0173264,0,0.000277696,0,0,0,0.0689596,-0.0246,0.588067,0,0,0,0,0,0
0.148973,7.52713e-05,-1.11174,2.8943e-05,2.21535,-0.000144265,0.615545,0.000156473,0.001011,-0.0458446,0.000393518,-0.0168069,-0.00192549,0.0626517,0.00209151,0,0,0,-0.0174434,0,0.000283365,0,0,0,0.0689421,-0.0246,0.588067,0,0,0,0,0,0
0.149973,7.62894e-05,-1.11179,2.93395e-05,2.21533,-0.000146204,0.615608,0.000158579,0.00101799,-0.046145,0.000396369,-0.0169343,-0.00193848,0.0630795,0.0021057,0,0,0,-0.0175605,0,0.000289111,0,0,0,0.0689246,-0.0246,0.588068,0,0,0,0,0,0
0.15102,7.73626e-05,-1.11184,2.97575e-05,2.21531,-0.000148247,0.615675,0.000160799,0.0010253,-0.0464593,0.000399349,-0.0170678,-0.00195207,0.0635272,0.00212055,0,0,0,-0.017683,0,0.000295206,0,0,0,0.0689061,-0.0246,0.588068,0,0,0,0,0,0
0.15202,7.8395e-05,-1.11188,3.01597e-05,2.2153,-0.000150213,0.615739,0.000162934,0.00103231,-0.0467592,0.000402219,-0.0171959,-0.00196506,0.0639553,0.00213475,0,0,0,-0.0178,0,0.00030111,0,0,0,0.0688883,-0.0246,0.588068,0,0,0,0,0,0
0.15302,7.94346e-05,-1.11193,3.05649e-05,2.21528,-0.000152191,0.615803,0.000165083,0.00103932,-0.0470591,0.000405083,-0.0173241,-0.00197804,0.0643834,0.00214894,0,0,0,-0.0179171,0,0.000307092,0,0,0,0.0688703,-0.0246,0.588069,0,0,0,0,0,0
0.154026,8.04866e-05,-1.11198,3.09751e-05,2.21526,-0.000154193,0.615868,0.000167258,0.00104636,-0.0473604,0.000407966,-0.0174534,-0.0019911,0.064814,0.00216322,0,0,0,-0.0180347,0,0.000313184,0,0,0,0.0688522,-0.0246,0.588069,0,0,0,0,0,0
0.155026,8.15402e-05,-1.11203,3.1386e-05,2.21524,-0.000156197,0.615933,0.000169436,0.00105337,-0.04766,0.00041084,-0.0175822,-0.00200409,0.0652424,0.00217742,0,0,0,-0.0181517,0,0.000319325,0,0,0,0.068834,-0.0246,0.588069,0,0,0,0,0,0
0.156026,8.26008e-05,-1.11208,3.17998e-05,2.21523,-0.000158215,0.615999,0.000171628,0.00106039,-0.0479594,0.000413718,-0.0177114,-0.00201708,0.065671,0.00219163,0,0,0,-0.0182688,0,0.000325545,0,0,0,0.0688158,-0.0246,0.58807,0,0,0,0,0,0
0.157228,8.38855e-05,-1.11213,3.23012e-05,2.2152,-0.000160658,0.616079,0.000174283,0.00106879,-0.0483195,0.000417138,-0.0178665,-0.0020327,0.0661862,0.00220869,0,0,0,-0.0184094,0,0.000333127,0,0,0,0.0687936,-0.0246,0.58807,0,0,0,0,0,0
0.158228,8.49614e-05,-1.11218,3.27213e-05,2.21519,-0.000162704,0.616145,0.000176506,0.00107586,-0.048618,0.00042007,-0.0179969,-0.00204569,0.0666152,0.00222291,0,0,0,-0.0185265,0,0.000339523,0,0,0,0.0687751,-0.0246,0.58807,0,0,0,0,0,0
0.159229,8.60451e-05,-1.11223,3.31445e-05,2.21517,-0.000164764,0.616212,0.000178745,0.00108289,-0.0489171,0.000422963,-0.0181271,-0.00205869,0.0670444,0.00223714,0,0,0,-0.0186435,0,0.000346006,0,0,0,0.0687565,-0.0246,0.588071,0,0,0,0,0,0
0.160229,8.71351e-05,-1.11228,3.35705e-05,2.21515,-0.000166836,0.61628,0.000180996,0.00108993,-0.0492158,0.000425859,-0.0182575,-0.00207169,0.0674736,0.00225135,0,0,0,-0.0187606,0,0.000352566,0,0,0,0.0687377,-0.0246,0.588071,0,0,0,0,0,0
0.161235,8.82385e-05,-1.11233,3.40017e-05,2.21513,-0.000168933,0.616348,0.000183275,0.001097,-0.049516,0.000428775,-0.018389,-0.00208475,0.0679053,0.00226565,0,0,0,-0.0188782,0,0.000359247,0,0,0,0.0687187,-0.0246,0.588071,0,0,0,0,0,0
0.162235,8.93426e-05,-1.11238,3.44334e-05,2.21511,-0.000171031,0.616417,0.000185555,0.00110405,-0.0498144,0.000431681,-0.0185201,-0.00209775,0.0683348,0.00227988,0,0,0,-0.0189953,0,0.000365972,0,0,0,0.0686997,-0.0246,0.588072,0,0,0,0,0,0
0.163235,9.04538e-05,-1.11243,3.48681e-05,2.21509,-0.000173142,0.616485,0.000187849,0.0011111,-0.0501126,0.00043459,-0.0186515,-0.00211075,0.0687644,0.0022941,0,0,0,-0.0191123,0,0.000372782,0,0,0,0.0686806,-0.0246,0.588072,0,0,0,0,0,0
0.164235,9.15721e-05,-1.11248,3.53056e-05,2.21507,-0.000175266,0.616554,0.000190158,0.00111815,-0.0504106,0.000437505,-0.0187832,-0.00212375,0.0691941,0.00230833,0,0,0,-0.0192293,0,0.000379675,0,0,0,0.0686614,-0.0246,0.588072,0,0,0,0,0,0
0.165242,9.27056e-05,-1.11253,3.57493e-05,2.21506,-0.000177418,0.616625,0.000192498,0.00112525,-0.0507107,0.000440443,-0.0189161,-0.00213684,0.0696271,0.00232266,0,0,0,-0.0193471,0,0.000386703,0,0,0,0.0686419,-0.0246,0.588073,0,0,0,0,0,0
0.166242,9.3838e-05,-1.11258,3.61927e-05,2.21504,-0.000179568,0.616695,0.000194835,0.00113232,-0.0510083,0.000443368,-0.0190485,-0.00214984,0.0700571,0.0023369,0,0,0,-0.0194641,0,0.000393767,0,0,0,0.0686224,-0.0246,0.588073,0,0,0,0,0,0
0.167243,9.49775e-05,-1.11263,3.6639e-05,2.21502,-0.000181731,0.616765,0.000197186,0.00113938,-0.0513059,0.000446296,-0.0191811,-0.00216284,0.0704873,0.00235113,0,0,0,-0.0195811,0,0.000400916,0,0,0,0.0686028,-0.0246,0.588074,0,0,0,0,0,0
0.168243,9.61241e-05,-1.11269,3.70883e-05,2.215,-0.000183907,0.616836,0.000199552,0.00114645,-0.0516032,0.000449229,-0.0193141,-0.00217584,0.0709176,0.00236537,0,0,0,-0.0196981,0,0.00040815,0,0,0,0.0685831,-0.0246,0.588074,0,0,0,0,0,0
0.169243,9.72777e-05,-1.11274,3.75405e-05,2.21498,-0.000186097,0.616907,0.000201932,0.00115353,-0.0519004,0.000452166,-0.0194474,-0.00218884,0.0713481,0.00237961,0,0,0,-0.0198151,0,0.000415472,0,0,0,0.0685633,-0.0246,0.588074,0,0,0,0,0,0
0.170248,9.84443e-05,-1.11279,3.7998e-05,2.21496,-0.00018831,0.61698,0.000204338,0.00116064,-0.0521989,0.000455122,-0.0195817,-0.00220191,0.0717809,0.00239393,0,0,0,-0.0199327,0,0.000422917,0,0,0,0.0685433,-0.0246,0.588075,0,0,0,0,0,0
0.171248,9.96121e-05,-1.11284,3.84561e-05,2.21494,-0.000190525,0.617052,0.000206746,0.00116772,-0.0524957,0.00045807,-0.0197157,-0.00221492,0.0722117,0.00240818,0,0,0,-0.0200497,0,0.000430413,0,0,0,0.0685232,-0.0246,0.588075,0,0,0,0,0,0
0.172398,0.000100964,-1.1129,3.89867e-05,2.21492,-0.000193089,0.617135,0.000209534,0.00117584,-0.0528372,0.000461425,-0.0198696,-0.00222987,0.0727071,0.00242455,0,0,0,-0.0201842,0,0.000439141,0,0,0,0.0685,-0.0246,0.588076,0,0,0,0,0,0
0.173561,0.000102342,-1.11296,3.95276e-05,2.21489,-0.000195701,0.617221,0.000212375,0.00118409,-0.0531821,0.000464863,-0.0200262,-0.00224501,0.0732086,0.00244113,0,0,0,-0.0203203,0,0.000448092,0,0,0,0.0684764,-0.0246,0.588076,0,0,0,0,0,0
0.174662,0.000103654,-1.11302,4.00431e-05,2.21487,-0.000198189,0.617302,0.00021508,0.00119192,-0.053508,0.000468142,-0.0201752,-0.00225933,0.0736835,0.00245684,0,0,0,-0.020449,0,0.000456674,0,0,0,0.0684539,-0.0246,0.588077,0,0,0,0,0,0
0.175663,0.000104854,-1.11308,4.05143e-05,2.21485,-0.000200462,0.617376,0.000217551,0.00119905,-0.0538038,0.000471138,-0.020311,-0.00227234,0.0741151,0.00247111,0,0,0,-0.020566,0,0.000464563,0,0,0,0.0684333,-0.0246,0.588077,0,0,0,0,0,0
0.176663,0.00010606,-1.11313,4.09885e-05,2.21483,-0.000202748,0.61745,0.000220037,0.00120616,-0.0540996,0.000474111,-0.0204468,-0.00228535,0.0745468,0.00248537,0,0,0,-0.020683,0,0.000472543,0,0,0,0.0684126,-0.0246,0.588078,0,0,0,0,0,0
0.177663,0.000107274,-1.11319,4.14657e-05,2.21481,-0.000205046,0.617525,0.000222537,0.00121327,-0.0543953,0.00047709,-0.0205829,-0.00229836,0.0749786,0.00249964,0,0,0,-0.0208,0,0.000480614,0,0,0,0.0683918,-0.0246,0.588078,0,0,0,0,0,0
0.178663,0.000108494,-1.11324,4.19458e-05,2.21479,-0.000207358,0.617601,0.000225052,0.00122039,-0.0546908,0.000480073,-0.0207194,-0.00231137,0.0754105,0.00251391,0,0,0,-0.0209169,0,0.000488775,0,0,0,0.0683709,-0.0246,0.588079,0,0,0,0,0,0
0.179663,0.000109722,-1.1133,4.2429e-05,2.21477,-0.000209683,0.617677,0.00022758,0.00122751,-0.0549861,0.000483062,-0.0208562,-0.00232438,0.0758426,0.00252819,0,0,0,-0.0210339,0,0.000497029,0,0,0,0.0683498,-0.0246,0.588079,0,0,0,0,0,0
0.18067,0.000110965,-1.11335,4.29183e-05,2.21475,-0.000212036,0.617754,0.00023014,0.00123469,-0.0552832,0.000486074,-0.0209942,-0.00233748,0.0762778,0.00254256,0,0,0,-0.0211516,0,0.000505431,0,0,0,0.0683285,-0.0246,0.58808,0,0,0,0,0,0
0.18167,0.000112207,-1.11341,4.34075e-05,2.21473,-0.000214387,0.61783,0.000232697,0.00124182,-0.055578,0.000489074,-0.0211318,-0.0023505,0.0767102,0.00255684,0,0,0,-0.0212686,0,0.000513869,0,0,0,0.0683073,-0.0246,0.58808,0,0,0,0,0,0
0.18267,0.000113456,-1.11346,4.38996e-05,2.2147,-0.000216751,0.617907,0.000235269,0.00124896,-0.0558727,0.000492077,-0.0212696,-0.00236351,0.0771427,0.00257112,0,0,0,-0.0213855,0,0.000522402,0,0,0,0.0682859,-0.0246,0.588081,0,0,0,0,0,0
0.183671,0.000114712,-1.11352,4.43947e-05,2.21468,-0.000219127,0.617985,0.000237854,0.0012561,-0.0561672,0.000495086,-0.0214078,-0.00237653,0.0775754,0.0025854,0,0,0,-0.0215025,0,0.000531028,0,0,0,0.0682644,-0.0246,0.588081,0,0,0,0,0,0
0.184678,0.000115985,-1.11358,4.48966e-05,2.21466,-0.000221535,0.618064,0.000240474,0.0012633,-0.0564638,0.00049812,-0.0215474,-0.00238964,0.0780115,0.0025998,0,0,0,-0.0216203,0,0.000539813,0,0,0,0.0682426,-0.0246,0.588082,0,0,0,0,0,0
0.185678,0.000117256,-1.11363,4.53978e-05,2.21464,-0.000223938,0.618142,0.000243088,0.00127045,-0.0567578,0.000501141,-0.0216863,-0.00240266,0.0784445,0.00261409,0,0,0,-0.0217372,0,0.00054863,0,0,0,0.0682208,-0.0246,0.588082,0,0,0,0,0,0
0.186678,0.000118533,-1.11369,4.5902e-05,2.21462,-0.000226354,0.618221,0.000245717,0.00127761,-0.0570518,0.000504165,-0.0218256,-0.00241568,0.0788777,0.00262838,0,0,0,-0.0218542,0,0.000557541,0,0,0,0.068199,-0.0246,0.588083,0,0,0,0,0,0
0.187678,0.000119818,-1.11375,4.64093e-05,2.2146,-0.000228783,0.6183,0.00024836,0.00128477,-0.0573455,0.000507195,-0.0219652,-0.0024287,0.0793111,0.00264268,0,0,0,-0.0219711,0,0.00056655,0,0,0,0.068177,-0.0246,0.588084,0,0,0,0,0,0
0.18869,0.000121126,-1.11381,4.69257e-05,2.21457,-0.000231254,0.618381,0.000251049,0.00129202,-0.0576426,0.000510262,-0.0221068,-0.00244187,0.0797498,0.00265715,0,0,0,-0.0220894,0,0.000575764,0,0,0,0.0681547,-0.0246,0.588084,0,0,0,0,0,0
0.189696,0.000122432,-1.11386,4.74417e-05,2.21455,-0.000233722,0.618462,0.000253735,0.00129923,-0.0579374,0.00051332,-0.0222479,-0.00245496,0.0801857,0.00267153,0,0,0,-0.0222069,0,0.000585013,0,0,0,0.0681323,-0.0246,0.588085,0,0,0,0,0,0
0.190707,0.000123753,-1.11392,4.79639e-05,2.21453,-0.000236218,0.618543,0.000256451,0.00130648,-0.0582338,0.000516397,-0.0223902,-0.00246813,0.0806244,0.00268599,0,0,0,-0.0223251,0,0.000594417,0,0,0,0.0681098,-0.0246,0.588085,0,0,0,0,0,0
0.191713,0.000125075,-1.11398,4.84867e-05,2.21451,-0.000238715,0.618625,0.000259169,0.00131371,-0.0585286,0.000519469,-0.0225322,-0.00248123,0.0810612,0.00270039,0,0,0,-0.0224428,0,0.000603877,0,0,0,0.0680872,-0.0246,0.588086,0,0,0,0,0,0
0.192714,0.000126397,-1.11404,4.90094e-05,2.21448,-0.00024121,0.618706,0.000261884,0.0013209,-0.0588213,0.000522528,-0.0226737,-0.00249426,0.0814955,0.00271471,0,0,0,-0.0225597,0,0.000613377,0,0,0,0.0680646,-0.0246,0.588087,0,0,0,0,0,0
0.193714,0.000127725,-1.1141,4.95351e-05,2.21446,-0.000243718,0.618788,0.000264613,0.00132809,-0.0591138,0.00052559,-0.0228156,-0.00250728,0.0819298,0.00272902,0,0,0,-0.0226766,0,0.000622975,0,0,0,0.0680419,-0.0246,0.588087,0,0,0,0,0,0
0.194714,0.00012906,-1.11416,5.00638e-05,2.21444,-0.000246238,0.61887,0.000267357,0.00133529,-0.0594061,0.000528657,-0.0229578,-0.00252031,0.0823643,0.00274334,0,0,0,-0.0227935,0,0.000632672,0,0,0,0.0680191,-0.0246,0.588088,0,0,0,0,0,0
0.195714,0.000130403,-1.11422,5.05956e-05,2.21441,-0.000248772,0.618953,0.000270115,0.00134249,-0.0596982,0.000531729,-0.0231004,-0.00253334,0.082799,0.00275766,0,0,0,-0.0229104,0,0.000642469,0,0,0,0.0679962,-0.0246,0.588088,0,0,0,0,0,0
0.196714,0.000131753,-1.11428,5.11304e-05,2.21439,-0.000251319,0.619037,0.000272887,0.00134969,-0.05999,0.000534807,-0.0232433,-0.00254636,0.0832338,0.00277199,0,0,0,-0.0230273,0,0.000652367,0,0,0,0.0679732,-0.0246,0.588089,0,0,0,0,0,0
0.197714,0.00013311,-1.11434,5.16684e-05,2.21437,-0.000253878,0.61912,0.000275674,0.00135691,-0.0602817,0.00053789,-0.0233867,-0.00255939,0.0836688,0.00278631,0,0,0,-0.0231442,0,0.000662365,0,0,0,0.06795,-0.0246,0.58809,0,0,0,0,0,0
0.198714,0.000134474,-1.1144,5.22094e-05,2.21434,-0.000256451,0.619204,0.000278475,0.00136412,-0.0605732,0.000540979,-0.0235304,-0.00257242,0.084104,0.00280064,0,0,0,-0.0232611,0,0.000672466,0,0,0,0.0679268,-0.0246,0.58809,0,0,0,0,0,0
0.199714,0.000135845,-1.11446,5.27535e-05,2.21432,-0.000259037,0.619289,0.00028129,0.00137135,-0.0608644,0.000544074,-0.0236745,-0.00258545,0.0845394,0.00281498,0,0,0,-0.0233779,0,0.000682668,0,0,0,0.0679034,-0.0246,0.588091,0,0,0,0,0,0
0.200714,0.000137224,-1.11452,5.33007e-05,2.2143,-0.000261635,0.619374,0.00028412,0.00137857,-0.0611554,0.000547174,-0.023819,-0.00259848,0.0849749,0.00282931,0,0,0,-0.0234948,0,0.000692973,0,0,0,0.0678799,-0.0246,0.588092,0,0,0,0,0,0
0.201715,0.00013861,-1.11458,5.38511e-05,2.21427,-0.000264247,0.619459,0.000286963,0.00138581,-0.0614462,0.00055028,-0.0239638,-0.00261151,0.0854105,0.00284365,0,0,0,-0.0236117,0,0.000703382,0,0,0,0.0678563,-0.0246,0.588092,0,0,0,0,0,0
0.202816,0.000140146,-1.11465,5.4461e-05,2.21425,-0.00026714,0.619554,0.000290113,0.00139375,-0.0617667,0.00055367,-0.0241233,-0.00262586,0.0858906,0.00285944,0,0,0,-0.0237404,0,0.000714966,0,0,0,0.0678301,-0.0246,0.588093,0,0,0,0,0,0
0.204012,0.000141822,-1.11472,5.51272e-05,2.21422,-0.000270297,0.619657,0.000293552,0.00140238,-0.0621141,0.000557362,-0.024297,-0.00264144,0.0864116,0.00287657,0,0,0,-0.02388,0,0.000727679,0,0,0,0.0678016,-0.0246,0.588094,0,0,0,0,0,0
0.205118,0.000143382,-1.11479,5.57476e-05,2.21419,-0.000273235,0.619753,0.000296751,0.00141042,-0.0624345,0.00056085,-0.0244591,-0.00265585,0.0868942,0.00289245,0,0,0,-0.0240093,0,0.000739577,0,0,0,0.067775,-0.0246,0.588095,0,0,0,0,0,0
0.206124,0.000144809,-1.11486,5.63152e-05,2.21417,-0.000275921,0.619841,0.000299677,0.00141776,-0.0627258,0.000564038,-0.0246071,-0.00266897,0.0873335,0.00290691,0,0,0,-0.0241268,0,0.000750514,0,0,0,0.0677507,-0.0246,0.588096,0,0,0,0,0,0
0.207267,0.000146438,-1.11493,5.69639e-05,2.21414,-0.000278988,0.619942,0.000303018,0.00142601,-0.0630573,0.000567571,-0.0247744,-0.00268387,0.0878323,0.0029233,0,0,0,-0.0242603,0,0.000763065,0,0,0,0.067723,-0.0246,0.588097,0,0,0,0,0,0
0.208267,0.000147872,-1.11499,5.75347e-05,2.21411,-0.000281685,0.62003,0.000305956,0.00143332,-0.0633461,0.000570769,-0.0249226,-0.0026969,0.0882692,0.00293768,0,0,0,-0.0243772,0,0.000774162,0,0,0,0.0676986,-0.0246,0.588097,0,0,0,0,0,0
0.209267,0.000149313,-1.11506,5.81087e-05,2.21409,-0.000284396,0.620119,0.000308908,0.0014406,-0.0636352,0.000573917,-0.0250704,-0.00270993,0.0887062,0.00295204,0,0,0,-0.024494,0,0.000785365,0,0,0,0.0676741,-0.0246,0.588098,0,0,0,0,0,0
0.210267,0.000150761,-1.11512,5.86858e-05,2.21406,-0.000287119,0.620208,0.000311875,0.00144788,-0.0639241,0.000577072,-0.0252187,-0.00272297,0.0891433,0.0029664,0,0,0,-0.0246108,0,0.000796677,0,0,0,0.0676495,-0.0246,0.588099,0,0,0,0,0,0
0.211267,0.000152216,-1.11518,5.92661e-05,2.21404,-0.000289855,0.620297,0.000314856,0.00145516,-0.0642128,0.000580233,-0.0253673,-0.00273601,0.0895807,0.00298077,0,0,0,-0.0247276,0,0.000808096,0,0,0,0.0676248,-0.0246,0.5881,0,0,0,0,0,0
0.212267,0.000153679,-1.11525,5.98496e-05,2.21401,-0.000292604,0.620387,0.000317851,0.00146245,-0.0645012,0.000583399,-0.0255164,-0.00274905,0.0900182,0.00299514,0,0,0,-0.0248444,0,0.000819624,0,0,0,0.0676,-0.0246,0.588101,0,0,0,0,0,0
0.213268,0.000155148,-1.11531,6.04362e-05,2.21399,-0.000295367,0.620478,0.000320861,0.00146974,-0.0647894,0.000586572,-0.0256658,-0.00276208,0.0904558,0.00300952,0,0,0,-0.0249612,0,0.00083126,0,0,0,0.067575,-0.0246,0.588101,0,0,0,0,0,0
0.214268,0.000156626,-1.11538,6.10261e-05,2.21396,-0.000298142,0.620569,0.000323886,0.00147704,-0.0650774,0.000589751,-0.0258157,-0.00277513,0.0908937,0.0030239,0,0,0,-0.025078,0,0.000843008,0,0,0,0.0675499,-0.0246,0.588102,0,0,0,0,0,0
0.215268,0.00015811,-1.11544,6.16191e-05,2.21393,-0.000300931,0.62066,0.000326924,0.00148435,-0.0653652,0.000592935,-0.0259659,-0.00278817,0.0913317,0.00303828,0,0,0,-0.0251948,0,0.000854864,0,0,0,0.0675247,-0.0246,0.588103,0,0,0,0,0,0
0.216268,0.000159602,-1.11551,6.22153e-05,2.21391,-0.000303733,0.620752,0.000329977,0.00149166,-0.0656527,0.000596126,-0.0261166,-0.00280121,0.09177,0.00305266,0,0,0,-0.0253116,0,0.000866833,0,0,0,0.0674994,-0.0246,0.588104,0,0,0,0,0,0
0.217268,0.000161101,-1.11558,6.28147e-05,2.21388,-0.000306547,0.620844,0.000333045,0.00149898,-0.06594,0.000599322,-0.0262677,-0.00281425,0.0922083,0.00306705,0,0,0,-0.0254284,0,0.000878911,0,0,0,0.067474,-0.0246,0.588105,0,0,0,0,0,0
0.218268,0.000162608,-1.11564,6.34173e-05,2.21385,-0.000309375,0.620937,0.000336126,0.0015063,-0.066227,0.000602525,-0.0264192,-0.00282729,0.0926469,0.00308144,0,0,0,-0.0255451,0,0.0008911,0,0,0,0.0674484,-0.0246,0.588106,0,0,0,0,0,0
0.219268,0.000164122,-1.11571,6.40231e-05,2.21383,-0.000312215,0.62103,0.000339223,0.00151363,-0.0665138,0.000605733,-0.0265711,-0.00284033,0.0930856,0.00309583,0,0,0,-0.0256619,0,0.000903402,0,0,0,0.0674227,-0.0246,0.588107,0,0,0,0,0,0
0.220269,0.000165643,-1.11578,6.46323e-05,2.2138,-0.00031507,0.621123,0.000342334,0.00152096,-0.0668004,0.000608949,-0.0267235,-0.00285338,0.0935246,0.00311024,0,0,0,-0.0257787,0,0.00091582,0,0,0,0.067397,-0.0246,0.588108,0,0,0,0,0,0
0.221296,0.000167213,-1.11584,6.52612e-05,2.21377,-0.000318015,0.62122,0.000345544,0.00152849,-0.0670947,0.000612246,-0.0268803,-0.00286678,0.0939756,0.00312502,0,0,0,-0.0258986,0,0.00092869,0,0,0,0.0673704,-0.0246,0.588109,0,0,0,0,0,0
0.222296,0.000168749,-1.11591,6.58768e-05,2.21375,-0.000320895,0.621314,0.000348684,0.00153585,-0.0673806,0.000615485,-0.0270337,-0.00287982,0.0944149,0.00313943,0,0,0,-0.0260153,0,0.000941335,0,0,0,0.0673443,-0.0246,0.588109,0,0,0,0,0,0
0.223296,0.000170293,-1.11598,6.64956e-05,2.21372,-0.000323788,0.621409,0.000351838,0.0015432,-0.0676664,0.000618718,-0.0271873,-0.00289287,0.0948544,0.00315383,0,0,0,-0.0261321,0,0.000954093,0,0,0,0.0673182,-0.0246,0.58811,0,0,0,0,0,0
0.224305,0.000171858,-1.11605,6.71233e-05,2.21369,-0.000326721,0.621505,0.000355036,0.00155062,-0.0679546,0.000621983,-0.0273427,-0.00290603,0.095298,0.00316837,0,0,0,-0.0262498,0,0.000967084,0,0,0,0.0672917,-0.0246,0.588111,0,0,0,0,0,0
0.225356,0.000173495,-1.11612,6.77802e-05,2.21366,-0.000329788,0.621606,0.00035838,0.00155834,-0.0682545,0.000625374,-0.0275047,-0.00291973,0.0957599,0.0031835,0,0,0,-0.0263724,0,0.00098073,0,0,0,0.067264,-0.0246,0.588112,0,0,0,0,0,0
0.226356,0.000175061,-1.11619,6.84089e-05,2.21364,-0.000332721,0.621702,0.000361578,0.00156572,-0.0685393,0.000628649,-0.0276599,-0.00293278,0.0962,0.00319793,0,0,0,-0.0264892,0,0.000993842,0,0,0,0.0672375,-0.0246,0.588113,0,0,0,0,0,0
0.227387,0.000176682,-1.11626,6.90602e-05,2.21361,-0.000335757,0.621802,0.000364889,0.00157331,-0.0688329,0.000631993,-0.0278198,-0.00294622,0.0966535,0.00321278,0,0,0,-0.0266094,0,0.00100747,0,0,0,0.0672101,-0.0246,0.588114,0,0,0,0,0,0
0.228398,0.00017828,-1.11633,6.97025e-05,2.21358,-0.000338749,0.6219,0.000368152,0.00158078,-0.0691205,0.000635303,-0.0279775,-0.00295941,0.0970987,0.00322736,0,0,0,-0.0267274,0,0.00102097,0,0,0,0.0671831,-0.0246,0.588115,0,0,0,0,0,0
0.229398,0.000179868,-1.1164,7.03411e-05,2.21355,-0.000341722,0.621997,0.000371394,0.00158817,-0.0694047,0.00063858,-0.0281338,-0.00297246,0.0975392,0.00324178,0,0,0,-0.0268441,0,0.00103443,0,0,0,0.0671562,-0.0246,0.588116,0,0,0,0,0,0
0.230398,0.000181464,-1.11647,7.09831e-05,2.21352,-0.000344708,0.622095,0.000374651,0.00159556,-0.0696887,0.000641858,-0.0282905,-0.00298551,0.0979799,0.00325621,0,0,0,-0.0269607,0,0.00104802,0,0,0,0.0671293,-0.0246,0.588118,0,0,0,0,0,0
0.231398,0.000183067,-1.11654,7.16283e-05,2.21349,-0.000347707,0.622194,0.000377922,0.00160296,-0.0699725,0.000645143,-0.0284476,-0.00299856,0.0984208,0.00327064,0,0,0,-0.0270774,0,0.00106172,0,0,0,0.0671022,-0.0246,0.588119,0,0,0,0,0,0
0.232398,0.000184678,-1.11661,7.22768e-05,2.21346,-0.000350719,0.622293,0.000381207,0.00161036,-0.070256,0.000648434,-0.0286052,-0.00301161,0.098862,0.00328507,0,0,0,-0.0271941,0,0.00107554,0,0,0,0.067075,-0.0246,0.58812,0,0,0,0,0,0
0.233398,0.000186296,-1.11668,7.29286e-05,2.21344,-0.000353744,0.622392,0.000384507,0.00161777,-0.0705393,0.000651731,-0.0287632,-0.00302465,0.0993032,0.00329951,0,0,0,-0.0273108,0,0.00108948,0,0,0,0.0670477,-0.0246,0.588121,0,0,0,0,0,0
0.234398,0.000187921,-1.11675,7.35837e-05,2.21341,-0.000356782,0.622492,0.000387821,0.00162519,-0.0708223,0.000655035,-0.0289216,-0.0030377,0.0997447,0.00331395,0,0,0,-0.0274274,0,0.00110354,0,0,0,0.0670202,-0.0246,0.588122,0,0,0,0,0,0
0.235399,0.000189554,-1.11682,7.42423e-05,2.21338,-0.000359834,0.622592,0.000391151,0.00163261,-0.0711051,0.000658346,-0.0290805,-0.00305076,0.100186,0.00332839,0,0,0,-0.0275441,0,0.00111773,0,0,0,0.0669927,-0.0246,0.588123,0,0,0,0,0,0
0.236419,0.000191228,-1.11689,7.49176e-05,2.21335,-0.00036296,0.622695,0.000394563,0.00164018,-0.0713934,0.000661721,-0.029243,-0.00306407,0.100637,0.00334313,0,0,0,-0.0276631,0,0.00113232,0,0,0,0.0669644,-0.0246,0.588124,0,0,0,0,0,0
0.237419,0.000192876,-1.11697,7.55827e-05,2.21332,-0.000366038,0.622796,0.00039792,0.00164762,-0.0716755,0.000665055,-0.0294029,-0.00307712,0.101079,0.00335758,0,0,0,-0.0277797,0,0.00114675,0,0,0,0.0669367,-0.0246,0.588125,0,0,0,0,0,0
0.238419,0.000194531,-1.11704,7.62512e-05,2.21329,-0.000369129,0.622897,0.000401293,0.00165506,-0.0719574,0.000668385,-0.0295632,-0.00309018,0.101521,0.00337203,0,0,0,-0.0278963,0,0.00116129,0,0,0,0.0669088,-0.0246,0.588126,0,0,0,0,0,0
0.239419,0.000196194,-1.11711,7.6923e-05,2.21326,-0.000372232,0.622999,0.00040468,0.0016625,-0.0722391,0.000671722,-0.0297239,-0.00310323,0.101964,0.00338649,0,0,0,-0.0280129,0,0.00117596,0,0,0,0.0668807,-0.0246,0.588128,0,0,0,0,0,0
0.24042,0.000197864,-1.11718,7.75981e-05,2.21323,-0.000375349,0.623102,0.000408081,0.00166996,-0.0725205,0.000675066,-0.0298851,-0.00311628,0.102406,0.00340094,0,0,0,-0.0281295,0,0.00119076,0,0,0,0.0668526,-0.0246,0.588129,0,0,0,0,0,0
0.24142,0.000199542,-1.11725,7.82767e-05,2.2132,-0.000378479,0.623205,0.000411497,0.00167741,-0.0728016,0.000678416,-0.0300467,-0.00312933,0.102849,0.0034154,0,0,0,-0.0282461,0,0.00120567,0,0,0,0.0668244,-0.0246,0.58813,0,0,0,0,0,0
0.24242,0.000201227,-1.11733,7.89585e-05,2.21317,-0.000381621,0.623308,0.000414928,0.00168488,-0.0730825,0.000681773,-0.0302088,-0.00314238,0.103292,0.00342987,0,0,0,-0.0283627,0,0.00122071,0,0,0,0.066796,-0.0246,0.588131,0,0,0,0,0,0
0.24342,0.000202919,-1.1174,7.96437e-05,2.21314,-0.000384777,0.623412,0.000418372,0.00169235,-0.073363,0.000685137,-0.0303713,-0.00315544,0.103735,0.00344433,0,0,0,-0.0284793,0,0.00123588,0,0,0,0.0667675,-0.0246,0.588132,0,0,0,0,0,0
0.244422,0.000204623,-1.11748,8.03337e-05,2.21311,-0.000387952,0.623516,0.000421838,0.00169983,-0.0736439,0.000688513,-0.0305346,-0.00316852,0.104179,0.00345883,0,0,0,-0.0285961,0,0.0012512,0,0,0,0.0667389,-0.0246,0.588134,0,0,0,0,0,0
0.245422,0.00020633,-1.11755,8.10256e-05,2.21308,-0.000391134,0.623621,0.000425312,0.00170732,-0.0739239,0.000691891,-0.0306981,-0.00318157,0.104623,0.0034733,0,0,0,-0.0287126,0,0.00126661,0,0,0,0.0667101,-0.0246,0.588135,0,0,0,0,0,0
0.246422,0.000208045,-1.11762,8.1721e-05,2.21305,-0.000394329,0.623726,0.0004288,0.0017148,-0.0742036,0.000695275,-0.0308621,-0.00319462,0.105067,0.00348778,0,0,0,-0.0288292,0,0.00128215,0,0,0,0.0666813,-0.0246,0.588136,0,0,0,0,0,0
0.247422,0.000209768,-1.1177,8.24197e-05,2.21302,-0.000397537,0.623831,0.000432303,0.0017223,-0.0744831,0.000698666,-0.0310264,-0.00320768,0.10551,0.00350225,0,0,0,-0.0289457,0,0.00129782,0,0,0,0.0666524,-0.0246,0.588138,0,0,0,0,0,0
0.248422,0.000211498,-1.11777,8.31219e-05,2.21298,-0.000400758,0.623937,0.00043582,0.0017298,-0.0747622,0.000702064,-0.0311913,-0.00322073,0.105955,0.00351673,0,0,0,-0.0290622,0,0.00131361,0,0,0,0.0666233,-0.0246,0.588139,0,0,0,0,0,0
0.249428,0.000213244,-1.11785,8.38311e-05,2.21295,-0.00040401,0.624044,0.00043937,0.00173734,-0.0750426,0.000705484,-0.0313575,-0.00323385,0.106401,0.00353129,0,0,0,-0.0291794,0,0.00132962,0,0,0,0.066594,-0.0246,0.58814,0,0,0,0,0,0
0.250428,0.000214989,-1.11792,8.45401e-05,2.21292,-0.000407257,0.624151,0.000442916,0.00174485,-0.0753212,0.000708898,-0.0315233,-0.00324691,0.106846,0.00354578,0,0,0,-0.0292959,0,0.00134567,0,0,0,0.0665647,-0.0246,0.588142,0,0,0,0,0,0
0.251661,0.000217153,-1.11802,8.54197e-05,2.21288,-0.000411282,0.624284,0.000447312,0.00175402,-0.075666,0.000712984,-0.0317268,-0.00326302,0.107394,0.0035636,0,0,0,-0.0294396,0,0.00136565,0,0,0,0.0665283,-0.0246,0.588143,0,0,0,0,0,0
0.252662,0.000218915,-1.11809,8.61363e-05,2.21285,-0.000414558,0.624391,0.000450891,0.00176165,-0.0759424,0.000716543,-0.0318954,-0.00327606,0.107839,0.00357814,0,0,0,-0.0295561,0,0.00138198,0,0,0,0.0664988,-0.0246,0.588145,0,0,0,0,0,0
0.253662,0.000220684,-1.11817,8.68563e-05,2.21282,-0.000417848,0.6245,0.000454484,0.00176919,-0.0762201,0.000719977,-0.0320627,-0.00328911,0.108284,0.00359264,0,0,0,-0.0296725,0,0.00139845,0,0,0,0.0664691,-0.0246,0.588146,0,0,0,0,0,0
0.254662,0.000222461,-1.11825,8.75798e-05,2.21279,-0.00042115,0.624609,0.000458091,0.00177673,-0.0764975,0.000723418,-0.0322306,-0.00330217,0.108729,0.00360713,0,0,0,-0.029789,0,0.00141505,0,0,0,0.0664393,-0.0246,0.588147,0,0,0,0,0,0
0.255662,0.000224246,-1.11832,8.83067e-05,2.21275,-0.000424466,0.624718,0.000461713,0.00178427,-0.0767746,0.000726866,-0.0323989,-0.00331522,0.109174,0.00362163,0,0,0,-0.0299055,0,0.00143178,0,0,0,0.0664094,-0.0246,0.588149,0,0,0,0,0,0
0.256662,0.000226038,-1.1184,8.90371e-05,2.21272,-0.000427795,0.624827,0.00046535,0.00179182,-0.0770514,0.000730321,-0.0325677,-0.00332828,0.10962,0.00363614,0,0,0,-0.0300219,0,0.00144864,0,0,0,0.0663794,-0.0246,0.58815,0,0,0,0,0,0
0.257662,0.000227837,-1.11848,8.9771e-05,2.21269,-0.000431136,0.624937,0.000469001,0.00179938,-0.0773279,0.000733783,-0.0327369,-0.00334133,0.110066,0.00365064,0,0,0,-0.0301383,0,0.00146563,0,0,0,0.0663492,-0.0246,0.588152,0,0,0,0,0,0
0.258662,0.000229644,-1.11855,9.05083e-05,2.21266,-0.000434491,0.625048,0.000472666,0.00180694,-0.0776041,0.000737253,-0.0329067,-0.00335438,0.110512,0.00366515,0,0,0,-0.0302548,0,0.00148275,0,0,0,0.066319,-0.0246,0.588153,0,0,0,0,0,0
0.259662,0.000231459,-1.11863,9.12491e-05,2.21262,-0.000437859,0.625159,0.000476346,0.00181451,-0.07788,0.000740729,-0.033077,-0.00336744,0.110958,0.00367967,0,0,0,-0.0303712,0,0.00150001,0,0,0,0.0662886,-0.0246,0.588155,0,0,0,0,0,0
0.260662,0.000233281,-1.11871,9.19934e-05,2.21259,-0.000441239,0.62527,0.000480041,0.00182209,-0.0781555,0.000744213,-0.0332477,-0.00338049,0.111404,0.00369418,0,0,0,-0.0304876,0,0.0015174,0,0,0,0.0662581,-0.0246,0.588156,0,0,0,0,0,0
0.261808,0.000235378,-1.1188,9.28502e-05,2.21255,-0.000445128,0.625398,0.000484291,0.0018307,-0.0784718,0.000748123,-0.0334427,-0.00339545,0.111916,0.00371078,0,0,0,-0.0306209,0,0.00153748,0,0,0,0.066223,-0.0246,0.588158,0,0,0,0,0,0
0.262808,0.000237217,-1.11888,9.3602e-05,2.21252,-0.000448537,0.625511,0.000488017,0.00183836,-0.0787457,0.000751711,-0.0336156,-0.0034085,0.112363,0.00372532,0,0,0,-0.0307372,0,0.00155515,0,0,0,0.0661923,-0.0246,0.58816,0,0,0,0,0,0
0.263827,0.000239097,-1.11896,9.43715e-05,2.21248,-0.000452023,0.625626,0.000491827,0.00184609,-0.0790256,0.000755271,-0.033791,-0.00342179,0.112818,0.00374012,0,0,0,-0.0308558,0,0.0015733,0,0,0,0.0661609,-0.0246,0.588161,0,0,0,0,0,0
0.264827,0.000240951,-1.11904,9.51304e-05,2.21245,-0.000455458,0.625739,0.000495582,0.0018537,-0.0792998,0.000758797,-0.033964,-0.00343485,0.113265,0.00375465,0,0,0,-0.0309721,0,0.00159125,0,0,0,0.0661299,-0.0246,0.588163,0,0,0,0,0,0
0.265827,0.000242813,-1.11912,9.58928e-05,2.21241,-0.000458907,0.625853,0.000499352,0.00186131,-0.0795739,0.000762318,-0.0341373,-0.0034479,0.113712,0.00376917,0,0,0,-0.0310885,0,0.00160933,0,0,0,0.0660988,-0.0246,0.588164,0,0,0,0,0,0
0.266985,0.000244979,-1.11921,9.67805e-05,2.21238,-0.000462919,0.625985,0.000503738,0.00187005,-0.0798921,0.000766305,-0.0343373,-0.00346303,0.114231,0.00378597,0,0,0,-0.0312232,0,0.00163045,0,0,0,0.0660626,-0.0246,0.588166,0,0,0,0,0,0
0.267985,0.000246857,-1.11929,9.75505e-05,2.21234,-0.000466395,0.6261,0.000507539,0.00187776,-0.0801642,0.000769943,-0.034513,-0.00347607,0.114678,0.00380054,0,0,0,-0.0313395,0,0.00164883,0,0,0,0.0660313,-0.0246,0.588168,0,0,0,0,0,0
0.268985,0.000248743,-1.11937,9.83241e-05,2.21231,-0.000469885,0.626215,0.000511354,0.00188539,-0.0804373,0.000773487,-0.0346879,-0.00348913,0.115126,0.00381508,0,0,0,-0.0314558,0,0.00166735,0,0,0,0.0659998,-0.0246,0.58817,0,0,0,0,0,0
0.269986,0.000250636,-1.11945,9.91012e-05,2.21227,-0.000473387,0.626331,0.000515184,0.00189302,-0.08071,0.000777039,-0.0348633,-0.00350218,0.115575,0.00382962,0,0,0,-0.0315721,0,0.00168601,0,0,0,0.0659682,-0.0246,0.588171,0,0,0,0,0,0
0.270986,0.000252537,-1.11953,9.9882e-05,2.21224,-0.000476903,0.626447,0.000519029,0.00190067,-0.0809824,0.000780598,-0.0350392,-0.00351523,0.116023,0.00384416,0,0,0,-0.0316884,0,0.0017048,0,0,0,0.0659365,-0.0246,0.588173,0,0,0,0,0,0
0.272209,0.000254874,-1.11963,0.000100842,2.21219,-0.000481223,0.626589,0.000523754,0.0019099,-0.081317,0.000784816,-0.0352532,-0.00353121,0.116571,0.00386191,0,0,0,-0.0318307,0,0.00172798,0,0,0,0.0658976,-0.0246,0.588175,0,0,0,0,0,0
0.273348,0.000257058,-1.11973,0.00010174,2.21215,-0.00048526,0.626722,0.000528168,0.00191866,-0.0816255,0.000788941,-0.0354555,-0.00354606,0.117082,0.00387848,0,0,0,-0.031963,0,0.00174973,0,0,0,0.0658612,-0.0246,0.588177,0,0,0,0,0,0
0.274348,0.000258984,-1.11981,0.000102533,2.21212,-0.000488819,0.62684,0.000532062,0.00192641,-0.0818958,0.000792618,-0.0356343,-0.0035591,0.117531,0.00389306,0,0,0,-0.0320792,0,0.001769,0,0,0,0.0658291,-0.0246,0.588179,0,0,0,0,0,0
0.275348,0.000260919,-1.11989,0.000103329,2.21208,-0.000492392,0.626958,0.000535971,0.00193408,-0.0821668,0.00079621,-0.0358125,-0.00357216,0.117981,0.00390762,0,0,0,-0.0321954,0,0.0017884,0,0,0,0.0657969,-0.0246,0.588181,0,0,0,0,0,0
0.276985,0.000264106,-1.12002,0.000104642,2.21202,-0.000498277,0.627152,0.000542409,0.00194629,-0.082615,0.000801673,-0.0360996,-0.00359357,0.118716,0.00393132,0,0,0,-0.0323857,0,0.00182048,0,0,0,0.0657439,-0.0246,0.588184,0,0,0,0,0,0
0.278059,0.000266205,-1.12011,0.000105507,2.21198,-0.00050215,0.62728,0.000546647,0.00195487,-0.0829005,0.000805937,-0.0362974,-0.00360754,0.119199,0.00394707,0,0,0,-0.0325105,0,0.00184172,0,0,0,0.065709,-0.0246,0.588186,0,0,0,0,0,0
0.279059,0.000268168,-1.1202,0.000106317,2.21195,-0.000505772,0.6274,0.000550609,0.00196261,-0.0831697,0.000809608,-0.0364781,-0.00362058,0.119649,0.00396165,0,0,0,-0.0326266,0,0.00186165,0,0,0,0.0656764,-0.0246,0.588187,0,0,0,0,0,0
0.28006,0.000270139,-1.12028,0.000107131,2.21191,-0.000509406,0.62752,0.000554586,0.00197031,-0.0834392,0.000813236,-0.0366587,-0.00363363,0.120099,0.00397622,0,0,0,-0.0327428,0,0.00188172,0,0,0,0.0656436,-0.0246,0.588189,0,0,0,0,0,0
0.28106,0.000272117,-1.12036,0.000107948,2.21187,-0.000513053,0.627641,0.000558577,0.00197802,-0.0837083,0.000816872,-0.0368398,-0.00364668,0.12055,0.00399078,0,0,0,-0.032859,0,0.00190194,0,0,0,0.0656107,-0.0246,0.588191,0,0,0,0,0,0
0.28206,0.000274103,-1.12045,0.000108768,2.21184,-0.000516713,0.627762,0.000562583,0.00198573,-0.0839771,0.000820515,-0.0370215,-0.00365973,0.121,0.00400535,0,0,0,-0.0329751,0,0.0019223,0,0,0,0.0655778,-0.0246,0.588193,0,0,0,0,0,0
0.28306,0.000276097,-1.12053,0.000109592,2.2118,-0.000520386,0.627883,0.000566603,0.00199346,-0.0842455,0.000824166,-0.0372036,-0.00367277,0.121451,0.00401993,0,0,0,-0.0330912,0,0.00194281,0,0,0,0.0655447,-0.0246,0.588195,0,0,0,0,0,0
0.28406,0.000278098,-1.12062,0.00011042,2.21176,-0.000524073,0.628005,0.000570638,0.00200118,-0.0845136,0.000827824,-0.0373863,-0.00368582,0.121901,0.0040345,0,0,0,-0.0332073,0,0.00196346,0,0,0,0.0655115,-0.0246,0.588197,0,0,0,0,0,0
0.28506,0.000280107,-1.1207,0.000111252,2.21172,-0.000527772,0.628128,0.000574688,0.00200892,-0.0847814,0.000831491,-0.0375696,-0.00369887,0.122352,0.00404908,0,0,0,-0.0333234,0,0.00198425,0,0,0,0.0654781,-0.0246,0.588199,0,0,0,0,0,0
0.28606,0.000282124,-1.12079,0.000112087,2.21169,-0.000531485,0.62825,0.000578753,0.00201666,-0.0850489,0.000835165,-0.0377534,-0.00371191,0.122804,0.00406366,0,0,0,-0.0334395,0,0.0020052,0,0,0,0.0654447,-0.0246,0.588201,0,0,0,0,0,0
0.287255,0.000284544,-1.12089,0.00011309,2.21164,-0.000535936,0.628398,0.000583626,0.0020258,-0.0853695,0.000839421,-0.0379716,-0.0037275,0.123343,0.00408103,0,0,0,-0.0335781,0,0.00203039,0,0,0,0.0654046,-0.0246,0.588203,0,0,0,0,0,0
0.289054,0.000288213,-1.12104,0.000114611,2.21157,-0.000542686,0.628621,0.000591017,0.00203938,-0.0858544,0.000845616,-0.0382989,-0.00375102,0.124155,0.00410713,0,0,0,-0.0337869,0,0.00206876,0,0,0,0.0653438,-0.0246,0.588207,0,0,0,0,0,0
0.291074,0.000292364,-1.12122,0.000116334,2.21149,-0.000550317,0.628874,0.000599373,0.00205494,-0.0863936,0.000852937,-0.0386728,-0.00377738,0.125068,0.00413655,0,0,0,-0.0340212,0,0.0021124,0,0,0,0.065275,-0.0246,0.588211,0,0,0,0,0,0
0.292526,0.000295365,-1.12134,0.000117581,2.21144,-0.000555828,0.629056,0.00060541,0.0020666,-0.0867735,0.000858769,-0.03895,-0.00379627,0.125725,0.00415787,0,0,0,-0.0341896,0,0.00214414,0,0,0,0.0652254,-0.0246,0.588215,0,0,0,0,0,0
0.293848,0.00029811,-1.12146,0.000118723,2.21139,-0.000560868,0.629223,0.00061093,0.00207698,-0.0871223,0.000863802,-0.0391995,-0.00381349,0.126323,0.00417719,0,0,0,-0.0343428,0,0.0021733,0,0,0,0.06518,-0.0246,0.588217,0,0,0,0,0,0
0.295799,0.000302192,-1.12163,0.000120422,2.21131,-0.00056836,0.629471,0.000619138,0.0020918,-0.0876437,0.000870622,-0.0395615,-0.00383899,0.127207,0.00420553,0,0,0,-0.034569,0,0.00221686,0,0,0,0.0651125,-0.0246,0.588222,0,0,0,0,0,0
0.29735,0.000305455,-1.12177,0.000121782,2.21125,-0.000574345,0.62967,0.000625695,0.00210418,-0.0880487,0.000876765,-0.0398598,-0.00385916,0.12791,0.00422827,0,0,0,-0.0347488,0,0.00225187,0,0,0,0.0650587,-0.0246,0.588225,0,0,0,0,0,0
0.298815,0.000308555,-1.1219,0.000123074,2.21119,-0.000580026,0.629858,0.00063192,0.0021157,-0.0884332,0.000882358,-0.0401398,-0.00387825,0.128575,0.00424968,0,0,0,-0.0349185,0,0.00228529,0,0,0,0.0650075,-0.0246,0.588229,0,0,0,0,0,0
0.299866,0.000310787,-1.12199,0.000124006,2.21114,-0.000584116,0.629994,0.000636402,0.00212421,-0.0887051,0.000886664,-0.040345,-0.00389191,0.129052,0.00426513,0,0,0,-0.0350403,0,0.00230946,0,0,0,0.0649707,-0.0246,0.588231,0,0,0,0,0,0
0.300866,0.000312919,-1.12208,0.000124897,2.2111,-0.000588022,0.630123,0.000640683,0.00213209,-0.0889668,0.000890498,-0.0405374,-0.00390493,0.129506,0.00427975,0,0,0,-0.0351561,0,0.00233262,0,0,0,0.0649355,-0.0246,0.588233,0,0,0,0,0,0
0.301912,0.000315158,-1.12217,0.000125832,2.21106,-0.000592121,0.630259,0.000645176,0.00214027,-0.0892411,0.000894436,-0.0407382,-0.00391857,0.129981,0.00429503,0,0,0,-0.0352773,0,0.00235701,0,0,0,0.0648986,-0.0246,0.588236,0,0,0,0,0,0
0.303067,0.00031764,-1.12228,0.00012687,2.21101,-0.000596663,0.63041,0.000650155,0.00214927,-0.089544,0.000898746,-0.0409599,-0.00393362,0.130506,0.00431188,0,0,0,-0.035411,0,0.00238413,0,0,0,0.0648577,-0.0246,0.588239,0,0,0,0,0,0
0.304365,0.000320444,-1.12239,0.000128043,2.21096,-0.000601793,0.63058,0.000655779,0.00215938,-0.0898842,0.000903586,-0.04121,-0.00395055,0.131096,0.00433083,0,0,0,-0.0355613,0,0.00241488,0,0,0,0.0648115,-0.0246,0.588242,0,0,0,0,0,0
0.305694,0.000323328,-1.12251,0.000129251,2.21091,-0.000607067,0.630755,0.00066156,0.00216982,-0.0902307,0.00090865,-0.041468,-0.00396787,0.131701,0.00435025,0,0,0,-0.0357151,0,0.00244662,0,0,0,0.0647641,-0.0246,0.588245,0,0,0,0,0,0
0.306694,0.000325506,-1.1226,0.000130164,2.21086,-0.000611048,0.630887,0.000665925,0.00217794,-0.0904873,0.000912765,-0.0416667,-0.00398086,0.132156,0.00436495,0,0,0,-0.0358309,0,0.00247069,0,0,0,0.0647282,-0.0246,0.588247,0,0,0,0,0,0
0.307695,0.000327692,-1.12269,0.000131081,2.21082,-0.000615043,0.63102,0.000670306,0.00218583,-0.090747,0.000916614,-0.0418624,-0.00399388,0.132611,0.00437957,0,0,0,-0.0359466,0,0.00249491,0,0,0,0.0646923,-0.0246,0.58825,0,0,0,0,0,0
0.308695,0.000329886,-1.12278,0.000132001,2.21078,-0.00061905,0.631153,0.000674701,0.00219373,-0.0910063,0.000920472,-0.0420587,-0.00400691,0.133067,0.0043942,0,0,0,-0.0360623,0,0.0025193,0,0,0,0.0646562,-0.0246,0.588252,0,0,0,0,0,0
0.309695,0.000332088,-1.12288,0.000132926,2.21074,-0.000623071,0.631287,0.00067911,0.00220163,-0.0912651,0.000924337,-0.0422556,-0.00401993,0.133523,0.00440883,0,0,0,-0.036178,0,0.00254383,0,0,0,0.06462,-0.0246,0.588255,0,0,0,0,0,0
0.310695,0.000334298,-1.12297,0.000133854,2.2107,-0.000627104,0.631421,0.000683534,0.00220954,-0.0915236,0.000928211,-0.042453,-0.00403295,0.133979,0.00442346,0,0,0,-0.0362937,0,0.00256853,0,0,0,0.0645837,-0.0246,0.588257,0,0,0,0,0,0
0.311695,0.000336516,-1.12306,0.000134786,2.21065,-0.000631151,0.631555,0.000687973,0.00221746,-0.0917817,0.000932094,-0.042651,-0.00404597,0.134435,0.00443809,0,0,0,-0.0364093,0,0.00259339,0,0,0,0.0645473,-0.0246,0.58826,0,0,0,0,0,0
0.312695,0.000338742,-1.12315,0.000135722,2.21061,-0.00063521,0.63169,0.000692426,0.00222539,-0.0920395,0.000935984,-0.0428496,-0.00405898,0.134891,0.00445273,0,0,0,-0.036525,0,0.0026184,0,0,0,0.0645108,-0.0246,0.588263,0,0,0,0,0,0
0.313695,0.000340975,-1.12324,0.000136663,2.21057,-0.000639283,0.631825,0.000696895,0.00223332,-0.0922968,0.000939884,-0.0430487,-0.004072,0.135348,0.00446736,0,0,0,-0.0366406,0,0.00264358,0,0,0,0.0644741,-0.0246,0.588265,0,0,0,0,0,0
0.314696,0.000343217,-1.12334,0.000137606,2.21052,-0.000643368,0.631961,0.000701377,0.00224126,-0.0925537,0.000943792,-0.0432485,-0.00408501,0.135804,0.004482,0,0,0,-0.0367562,0,0.00266892,0,0,0,0.0644374,-0.0246,0.588268,0,0,0,0,0,0
0.315774,0.000345643,-1.12344,0.000138629,2.21048,-0.00064779,0.632108,0.000706228,0.00224977,-0.0928313,0.000947946,-0.0434636,-0.00409906,0.136297,0.00449777,0,0,0,-0.0368808,0,0.00269642,0,0,0,0.0643976,-0.0246,0.588271,0,0,0,0,0,0
0.317058,0.000348545,-1.12356,0.000139852,2.21042,-0.000653074,0.632284,0.000712027,0.00225983,-0.0931622,0.000952802,-0.0437193,-0.00411578,0.136884,0.00451651,0,0,0,-0.0370292,0,0.0027294,0,0,0,0.0643501,-0.0246,0.588274,0,0,0,0,0,0
0.318288,0.000351336,-1.12367,0.00014103,2.21037,-0.000658154,0.632453,0.000717603,0.00226966,-0.0934759,0.00095769,-0.043968,-0.00413177,0.137446,0.00453453,0,0,0,-0.0371712,0,0.00276124,0,0,0,0.0643043,-0.0246,0.588278,0,0,0,0,0,0
0.319306,0.000353656,-1.12377,0.00014201,2.21032,-0.000662376,0.632593,0.000722237,0.00227794,-0.0937333,0.000961901,-0.0441766,-0.00414499,0.137912,0.00454949,0,0,0,-0.0372888,0,0.00278781,0,0,0,0.0642664,-0.0246,0.588281,0,0,0,0,0,0
0.320433,0.000356232,-1.12387,0.000143098,2.21027,-0.000667063,0.632749,0.000727381,0.00228685,-0.0940215,0.000966259,-0.0444041,-0.00415966,0.138428,0.00456597,0,0,0,-0.0374189,0,0.00281738,0,0,0,0.0642242,-0.0246,0.588284,0,0,0,0,0,0
0.321433,0.000358528,-1.12397,0.000144069,2.21023,-0.000671236,0.632888,0.000731962,0.00229493,-0.0942743,0.00097034,-0.0446093,-0.00417264,0.138886,0.00458064,0,0,0,-0.0375344,0,0.00284381,0,0,0,0.0641867,-0.0246,0.588287,0,0,0,0,0,0
0.322547,0.000361094,-1.12407,0.000145155,2.21018,-0.000675901,0.633044,0.000737084,0.00230375,-0.0945584,0.000974662,-0.0448355,-0.00418714,0.139396,0.00459694,0,0,0,-0.037663,0,0.00287345,0,0,0,0.0641447,-0.0246,0.58829,0,0,0,0,0,0
0.32394,0.000364318,-1.1242,0.000146519,2.21011,-0.000681758,0.633239,0.000743514,0.00231468,-0.0949144,0.00097995,-0.0451177,-0.00420528,0.140034,0.00461727,0,0,0,-0.0378237,0,0.00291078,0,0,0,0.064092,-0.0246,0.588294,0,0,0,0,0,0
0.325223,0.0003673,-1.12433,0.000147783,2.21006,-0.000687173,0.633419,0.000749461,0.00232504,-0.0952373,0.000985178,-0.045383,-0.00422194,0.140623,0.00463609,0,0,0,-0.0379717,0,0.00294545,0,0,0,0.0640433,-0.0246,0.588298,0,0,0,0,0,0
0.327088,0.000371665,-1.1245,0.000149634,2.20997,-0.000695096,0.633683,0.000758162,0.00233955,-0.0957146,0.000992102,-0.0457616,-0.00424626,0.141478,0.00466328,0,0,0,-0.0381869,0,0.00299637,0,0,0,0.0639721,-0.0246,0.588303,0,0,0,0,0,0
0.328138,0.000374131,-1.1246,0.000150681,2.20992,-0.000699568,0.633832,0.000763074,0.00234863,-0.0959689,0.000997105,-0.0459896,-0.00425978,0.141961,0.00467887,0,0,0,-0.0383079,0,0.00302527,0,0,0,0.0639318,-0.0246,0.588306,0,0,0,0,0,0
0.329138,0.000376488,-1.1247,0.000151682,2.20988,-0.000703841,0.633975,0.000767768,0.00235671,-0.0962194,0.00100119,-0.0461985,-0.00427276,0.14242,0.00469354,0,0,0,-0.0384232,0,0.00305298,0,0,0,0.0638934,-0.0246,0.588309,0,0,0,0,0,0
0.332438,0.000384347,-1.12502,0.000155023,2.20972,-0.000718084,0.63445,0.000783415,0.00238144,-0.0970732,0.00101229,-0.0468612,-0.00431594,0.143937,0.00474133,0,0,0,-0.0388035,0,0.0031456,0,0,0,0.0637653,-0.0246,0.58832,0,0,0,0,0,0
0.333793,0.000387591,-1.12515,0.000156404,2.20966,-0.000723956,0.634645,0.000789867,0.00239396,-0.0973868,0.00101973,-0.0471716,-0.00433324,0.144561,0.00476169,0,0,0,-0.0389595,0,0.00318416,0,0,0,0.0637126,-0.0246,0.588324,0,0,0,0,0,0
0.335119,0.000390779,-1.12528,0.000157764,2.20959,-0.000729724,0.634838,0.000796206,0.0024047,-0.0977161,0.00102517,-0.0474528,-0.00435044,0.145171,0.00478113,0,0,0,-0.0391122,0,0.0032222,0,0,0,0.0636607,-0.0246,0.588328,0,0,0,0,0,0
0.33648,0.000394067,-1.12542,0.000159167,2.20953,-0.000735669,0.635036,0.00080274,0.00241568,-0.0980541,0.00103071,-0.0477417,-0.0043681,0.145798,0.00480108,0,0,0,-0.0392689,0,0.00326156,0,0,0,0.0636073,-0.0246,0.588333,0,0,0,0,0,0
0.337814,0.000397303,-1.12555,0.000160548,2.20947,-0.000741517,0.635232,0.000809169,0.00242651,-0.0983838,0.00103621,-0.0480266,-0.00438539,0.146413,0.00482064,0,0,0,-0.0394223,0,0.00330043,0,0,0,0.0635547,-0.0246,0.588337,0,0,0,0,0,0
0.339386,0.000401136,-1.1257,0.000162187,2.20939,-0.000748442,0.635463,0.000816782,0.00243905,-0.0987748,0.00104244,-0.0483604,-0.00440581,0.147138,0.00484363,0,0,0,-0.0396032,0,0.00334664,0,0,0,0.0634924,-0.0246,0.588343,0,0,0,0,0,0
0.340887,0.000404816,-1.12585,0.000163761,2.20932,-0.000755084,0.635685,0.000824085,0.00245131,-0.0991433,0.00104871,-0.0486844,-0.00442525,0.14783,0.00486566,0,0,0,-0.0397758,0,0.00339117,0,0,0,0.0634327,-0.0246,0.588348,0,0,0,0,0,0
0.342413,0.000408576,-1.126,0.000165371,2.20924,-0.000761868,0.635911,0.000831545,0.0024637,-0.0995183,0.00105501,-0.0490141,-0.00444503,0.148535,0.00488804,0,0,0,-0.0399513,0,0.00343684,0,0,0,0.0633717,-0.0246,0.588353,0,0,0,0,0,0
0.343874,0.000412193,-1.12615,0.000166922,2.20917,-0.000768391,0.636129,0.000838719,0.00247565,-0.0998752,0.00106116,-0.0493322,-0.00446395,0.14921,0.00490949,0,0,0,-0.0401192,0,0.00348096,0,0,0,0.0633131,-0.0246,0.588358,0,0,0,0,0,0
0.345537,0.000416332,-1.12632,0.000168698,2.20909,-0.00077585,0.636379,0.000846924,0.00248904,-0.100284,0.00106789,-0.0496923,-0.00448552,0.149979,0.00493384,0,0,0,-0.0403103,0,0.00353162,0,0,0,0.0632461,-0.0246,0.588364,0,0,0,0,0,0
0.346625,0.000419051,-1.12643,0.000169865,2.20903,-0.000780746,0.636543,0.000852309,0.00249842,-0.100541,0.00107306,-0.0499383,-0.0044995,0.150482,0.00494995,0,0,0,-0.0404352,0,0.00356503,0,0,0,0.0632021,-0.0246,0.588368,0,0,0,0,0,0
0.347625,0.000421558,-1.12653,0.000170943,2.20898,-0.000785259,0.636694,0.000857275,0.00250667,-0.100783,0.00107735,-0.0501592,-0.00451243,0.150945,0.00496464,0,0,0,-0.0405501,0,0.00359592,0,0,0,0.0631615,-0.0246,0.588371,0,0,0,0,0,0
0.348625,0.000424073,-1.12663,0.000172024,2.20893,-0.000789785,0.636845,0.000862255,0.00251486,-0.101025,0.00108156,-0.0503796,-0.00452537,0.151408,0.00497932,0,0,0,-0.0406649,0,0.003627,0,0,0,0.0631209,-0.0246,0.588375,0,0,0,0,0,0
0.349625,0.000426597,-1.12673,0.00017311,2.20888,-0.000794324,0.636997,0.00086725,0.00252305,-0.101268,0.00108577,-0.0506006,-0.00453831,0.151871,0.00499399,0,0,0,-0.0407797,0,0.00365825,0,0,0,0.0630801,-0.0246,0.588379,0,0,0,0,0,0
0.350626,0.000429128,-1.12683,0.000174201,2.20883,-0.000798876,0.637149,0.00087226,0.00253124,-0.101509,0.00109,-0.0508222,-0.00455125,0.152334,0.00500867,0,0,0,-0.0408945,0,0.00368968,0,0,0,0.0630392,-0.0246,0.588382,0,0,0,0,0,0
0.351626,0.000431668,-1.12693,0.000175295,2.20878,-0.000803441,0.637302,0.000877283,0.00253945,-0.101751,0.00109424,-0.0510444,-0.00456418,0.152798,0.00502334,0,0,0,-0.0410092,0,0.00372128,0,0,0,0.0629981,-0.0246,0.588386,0,0,0,0,0,0
0.352626,0.000434216,-1.12703,0.000176393,2.20873,-0.000808018,0.637455,0.000882322,0.00254766,-0.101991,0.00109848,-0.0512673,-0.00457711,0.153261,0.00503801,0,0,0,-0.0411239,0,0.00375307,0,0,0,0.062957,-0.0246,0.58839,0,0,0,0,0,0
0.353626,0.000436772,-1.12714,0.000177496,2.20868,-0.000812609,0.637609,0.000887375,0.00255588,-0.102232,0.00110273,-0.0514908,-0.00459004,0.153725,0.00505269,0,0,0,-0.0412386,0,0.00378503,0,0,0,0.0629158,-0.0246,0.588393,0,0,0,0,0,0
0.354626,0.000439336,-1.12724,0.000178603,2.20863,-0.000817212,0.637763,0.000892443,0.0025641,-0.102471,0.001107,-0.0517149,-0.00460296,0.154189,0.00506736,0,0,0,-0.0413533,0,0.00381717,0,0,0,0.0628744,-0.0246,0.588397,0,0,0,0,0,0
0.355626,0.000441909,-1.12734,0.000179715,2.20857,-0.000821829,0.637918,0.000897526,0.00257233,-0.102711,0.00111127,-0.0519397,-0.00461588,0.154653,0.00508204,0,0,0,-0.0414679,0,0.0038495,0,0,0,0.0628329,-0.0246,0.588401,0,0,0,0,0,0
0.356626,0.00044449,-1.12744,0.000180831,2.20852,-0.000826458,0.638073,0.000902623,0.00258057,-0.10295,0.00111555,-0.0521652,-0.0046288,0.155118,0.00509672,0,0,0,-0.0415825,0,0.00388201,0,0,0,0.0627914,-0.0246,0.588405,0,0,0,0,0,0
0.357627,0.000447079,-1.12755,0.000181951,2.20847,-0.000831101,0.638229,0.000907736,0.00258882,-0.103188,0.00111984,-0.0523913,-0.00464172,0.155582,0.00511139,0,0,0,-0.0416971,0,0.0039147,0,0,0,0.0627496,-0.0246,0.588409,0,0,0,0,0,0
0.358976,0.000450587,-1.12769,0.000183469,2.2084,-0.000837387,0.638439,0.000914658,0.00259963,-0.103514,0.00112525,-0.0526922,-0.0046592,0.156209,0.0051311,0,0,0,-0.0418516,0,0.00395908,0,0,0,0.0626932,-0.0246,0.588414,0,0,0,0,0,0
0.3604,0.000454306,-1.12784,0.00018508,2.20832,-0.00084405,0.638663,0.000921997,0.00261133,-0.103853,0.0011313,-0.0530155,-0.0046776,0.156871,0.00515198,0,0,0,-0.0420147,0,0.0040063,0,0,0,0.0626333,-0.0246,0.58842,0,0,0,0,0,0
0.361595,0.000457439,-1.12796,0.000186439,2.20826,-0.000849659,0.638851,0.000928175,0.00262144,-0.104132,0.00113674,-0.053292,-0.00469297,0.157427,0.00516958,0,0,0,-0.0421515,0,0.00404621,0,0,0,0.062583,-0.0246,0.588425,0,0,0,0,0,0
0.362775,0.000460543,-1.12808,0.000187786,2.2082,-0.000855212,0.639037,0.000934293,0.00263122,-0.10441,0.00114187,-0.0535627,-0.00470818,0.157976,0.00518689,0,0,0,-0.0422864,0,0.00408585,0,0,0,0.0625331,-0.0246,0.58843,0,0,0,0,0,0
0.363775,0.000463183,-1.12819,0.000188932,2.20814,-0.000859934,0.639196,0.000939496,0.00263968,-0.104643,0.00114643,-0.0537955,-0.00472103,0.158442,0.00520161,0,0,0,-0.0424008,0,0.00411967,0,0,0,0.0624907,-0.0246,0.588434,0,0,0,0,0,0
0.364827,0.00046597,-1.1283,0.000190144,2.20808,-0.000864917,0.639363,0.000944986,0.00264837,-0.104891,0.00115096,-0.0540375,-0.00473461,0.158932,0.00521704,0,0,0,-0.0425212,0,0.00415545,0,0,0,0.0624459,-0.0246,0.588438,0,0,0,0,0,0
0.366389,0.000470126,-1.12846,0.000191951,2.208,-0.000872343,0.639612,0.00095317,0.00266085,-0.105265,0.00115717,-0.0543916,-0.00475484,0.15966,0.00523982,0,0,0,-0.0426997,0,0.00420894,0,0,0,0.0623792,-0.0246,0.588445,0,0,0,0,0,0
0.367389,0.000472796,-1.12857,0.000193113,2.20794,-0.000877111,0.639773,0.000958425,0.00266971,-0.10549,0.00116223,-0.0546325,-0.0047676,0.160126,0.00525464,0,0,0,-0.042814,0,0.00424342,0,0,0,0.0623364,-0.0246,0.588449,0,0,0,0,0,0
0.368389,0.000475474,-1.12867,0.00019428,2.20789,-0.000881892,0.639933,0.000963695,0.00267803,-0.105723,0.00116662,-0.0548656,-0.00478048,0.160592,0.00526931,0,0,0,-0.0429282,0,0.00427809,0,0,0,0.0622935,-0.0246,0.588453,0,0,0,0,0,0
0.36939,0.000478161,-1.12878,0.000195451,2.20783,-0.000886686,0.640094,0.00096898,0.00268637,-0.105956,0.00117102,-0.0550994,-0.00479335,0.161058,0.00528399,0,0,0,-0.0430424,0,0.00431296,0,0,0,0.0622504,-0.0246,0.588457,0,0,0,0,0,0
0.37039,0.000480856,-1.12889,0.000196627,2.20778,-0.000891493,0.640256,0.000974279,0.00269471,-0.106188,0.00117543,-0.0553339,-0.00480622,0.161525,0.00529866,0,0,0,-0.0431566,0,0.004348,0,0,0,0.0622072,-0.0246,0.588462,0,0,0,0,0,0
0.37139,0.000483559,-1.12899,0.000197807,2.20772,-0.000896312,0.640418,0.000979593,0.00270305,-0.10642,0.00117986,-0.055569,-0.00481908,0.161992,0.00531333,0,0,0,-0.0432708,0,0.00438324,0,0,0,0.062164,-0.0246,0.588466,0,0,0,0,0,0
0.37239,0.000486271,-1.1291,0.000198991,2.20767,-0.000901145,0.64058,0.000984921,0.00271141,-0.106651,0.00118429,-0.0558048,-0.00483194,0.162459,0.005328,0,0,0,-0.0433849,0,0.00441866,0,0,0,0.0621206,-0.0246,0.588471,0,0,0,0,0,0
0.37339,0.000488991,-1.12921,0.00020018,2.20761,-0.00090599,0.640743,0.000990265,0.00271977,-0.106881,0.00118873,-0.0560412,-0.0048448,0.162926,0.00534267,0,0,0,-0.043499,0,0.00445428,0,0,0,0.0620771,-0.0246,0.588475,0,0,0,0,0,0
0.37439,0.00049172,-1.12931,0.000201373,2.20756,-0.000910849,0.640907,0.000995623,0.00272814,-0.107112,0.00119318,-0.0562783,-0.00485766,0.163393,0.00535734,0,0,0,-0.0436131,0,0.00449009,0,0,0,0.0620335,-0.0246,0.58848,0,0,0,0,0,0
0.37539,0.000494457,-1.12942,0.000202571,2.2075,-0.00091572,0.641071,0.001001,0.00273651,-0.107341,0.00119764,-0.0565161,-0.00487051,0.163861,0.00537201,0,0,0,-0.0437271,0,0.00452608,0,0,0,0.0619897,-0.0246,0.588484,0,0,0,0,0,0
0.37639,0.000497202,-1.12953,0.000203773,2.20744,-0.000920603,0.641235,0.00100638,0.00274489,-0.10757,0.00120211,-0.0567546,-0.00488335,0.164329,0.00538668,0,0,0,-0.0438411,0,0.00456226,0,0,0,0.0619459,-0.0246,0.588489,0,0,0,0,0,0
0.377391,0.000499958,-1.12964,0.000204981,2.20739,-0.000925505,0.6414,0.00101179,0.00275329,-0.107799,0.00120659,-0.0569939,-0.00489621,0.164797,0.00540136,0,0,0,-0.0439552,0,0.00459868,0,0,0,0.0619019,-0.0246,0.588493,0,0,0,0,0,0
0.378392,0.00050272,-1.12974,0.000206193,2.20733,-0.000930415,0.641565,0.00101721,0.00276169,-0.108027,0.00121108,-0.0572338,-0.00490904,0.165265,0.00541603,0,0,0,-0.0440691,0,0.00463525,0,0,0,0.0618578,-0.0246,0.588498,0,0,0,0,0,0
0.379392,0.000505491,-1.12985,0.000207408,2.20727,-0.000935337,0.641731,0.00102264,0.00277009,-0.108255,0.00121558,-0.0574743,-0.00492188,0.165733,0.0054307,0,0,0,-0.044183,0,0.00467201,0,0,0,0.0618136,-0.0246,0.588503,0,0,0,0,0,0
0.380392,0.00050827,-1.12996,0.000208628,2.20721,-0.000940273,0.641897,0.00102808,0.00277851,-0.108482,0.00122009,-0.0577154,-0.0049347,0.166201,0.00544536,0,0,0,-0.0442968,0,0.00470896,0,0,0,0.0617693,-0.0246,0.588507,0,0,0,0,0,0
0.381392,0.000511057,-1.13007,0.000209853,2.20716,-0.000945221,0.642064,0.00103354,0.00278692,-0.108709,0.0012246,-0.0579573,-0.00494753,0.16667,0.00546002,0,0,0,-0.0444107,0,0.0047461,0,0,0,0.0617249,-0.0246,0.588512,0,0,0,0,0,0
0.382392,0.000513852,-1.13018,0.000211082,2.2071,-0.000950181,0.642231,0.00103902,0.00279535,-0.108935,0.00122913,-0.0581998,-0.00496035,0.167138,0.00547468,0,0,0,-0.0445244,0,0.00478344,0,0,0,0.0616804,-0.0246,0.588517,0,0,0,0,0,0
0.383392,0.000516656,-1.13029,0.000212316,2.20704,-0.000955155,0.642399,0.00104451,0.00280378,-0.10916,0.00123367,-0.058443,-0.00497316,0.167607,0.00548934,0,0,0,-0.0446382,0,0.00482098,0,0,0,0.0616357,-0.0246,0.588522,0,0,0,0,0,0
0.384392,0.000519469,-1.1304,0.000213555,2.20698,-0.000960142,0.642567,0.00105001,0.00281222,-0.109385,0.00123822,-0.0586869,-0.00498597,0.168076,0.005504,0,0,0,-0.0447519,0,0.0048587,0,0,0,0.0615909,-0.0246,0.588526,0,0,0,0,0,0
0.385392,0.00052229,-1.13051,0.000214798,2.20692,-0.000965141,0.642735,0.00105553,0.00282067,-0.10961,0.00124277,-0.0589314,-0.00499878,0.168545,0.00551866,0,0,0,-0.0448656,0,0.00489663,0,0,0,0.0615461,-0.0246,0.588531,0,0,0,0,0,0
0.386393,0.00052512,-1.13062,0.000216045,2.20686,-0.000970154,0.642904,0.00106107,0.00282913,-0.109834,0.00124734,-0.0591767,-0.00501158,0.169014,0.00553332,0,0,0,-0.0449793,0,0.00493475,0,0,0,0.0615011,-0.0246,0.588536,0,0,0,0,0,0
0.387393,0.000527958,-1.13073,0.000217297,2.2068,-0.000975179,0.643074,0.00106662,0.00283759,-0.110057,0.00125192,-0.0594227,-0.00502438,0.169484,0.00554798,0,0,0,-0.0450929,0,0.00497307,0,0,0,0.061456,-0.0246,0.588541,0,0,0,0,0,0
0.388393,0.000530804,-1.13084,0.000218554,2.20674,-0.000980217,0.643244,0.00107218,0.00284606,-0.11028,0.0012565,-0.0596693,-0.00503717,0.169953,0.00556263,0,0,0,-0.0452065,0,0.00501158,0,0,0,0.0614108,-0.0246,0.588546,0,0,0,0,0,0
0.389393,0.00053366,-1.13095,0.000219816,2.20668,-0.000985269,0.643414,0.00107776,0.00285454,-0.110502,0.0012611,-0.0599167,-0.00504996,0.170423,0.00557729,0,0,0,-0.04532,0,0.0050503,0,0,0,0.0613654,-0.0246,0.588551,0,0,0,0,0,0
0.390574,0.000537043,-1.13108,0.000221311,2.20661,-0.00099125,0.643616,0.00108437,0.00286436,-0.110767,0.0012663,-0.0602066,-0.00506511,0.170978,0.00559454,0,0,0,-0.0454541,0,0.00509626,0,0,0,0.0613117,-0.0246,0.588557,0,0,0,0,0,0
0.391711,0.000540311,-1.1312,0.000222757,2.20654,-0.000997026,0.643811,0.00109075,0.00287406,-0.111018,0.00127161,-0.0604903,-0.00507962,0.171512,0.00561121,0,0,0,-0.045583,0,0.00514078,0,0,0,0.0612599,-0.0246,0.588563,0,0,0,0,0,0
0.392891,0.000543712,-1.13134,0.000224263,2.20647,-0.00100303,0.644014,0.00109739,0.00288404,-0.111279,0.00127701,-0.0607839,-0.0050947,0.172067,0.00562847,0,0,0,-0.0457168,0,0.00518721,0,0,0,0.061206,-0.0246,0.588569,0,0,0,0,0,0
0.394207,0.000547523,-1.13148,0.000225952,2.20639,-0.00100976,0.644241,0.00110482,0.00289508,-0.111571,0.00128293,-0.0611113,-0.00511154,0.172686,0.00564771,0,0,0,-0.045866,0,0.00523937,0,0,0,0.0611456,-0.0246,0.588576,0,0,0,0,0,0
0.395479,0.000551218,-1.13162,0.000227591,2.20631,-0.00101628,0.644462,0.00111203,0.00290596,-0.111848,0.00128891,-0.0614318,-0.00512775,0.173284,0.00566634,0,0,0,-0.0460101,0,0.0052901,0,0,0,0.0610871,-0.0246,0.588583,0,0,0,0,0,0
0.396667,0.000554683,-1.13176,0.000229129,2.20624,-0.00102239,0.644668,0.00111878,0.00291619,-0.112106,0.00129457,-0.061733,-0.00514287,0.173843,0.00568376,0,0,0,-0.0461446,0,0.00533778,0,0,0,0.0610323,-0.0246,0.588589,0,0,0,0,0,0
0.397857,0.000558167,-1.13189,0.000230677,2.20617,-0.00102854,0.644876,0.00112557,0.00292634,-0.112365,0.00130013,-0.0620343,-0.00515804,0.174404,0.00570118,0,0,0,-0.0462794,0,0.00538584,0,0,0,0.0609772,-0.0246,0.588596,0,0,0,0,0,0
0.39902,0.000561579,-1.13202,0.000232194,2.20609,-0.00103455,0.645079,0.00113221,0.0029363,-0.112617,0.00130562,-0.0623299,-0.00517284,0.174951,0.00571819,0,0,0,-0.0464109,0,0.00543304,0,0,0,0.0609232,-0.0246,0.588602,0,0,0,0,0,0
0.40019,0.000565029,-1.13215,0.000233729,2.20602,-0.00104062,0.645285,0.00113893,0.0029463,-0.112871,0.00131111,-0.062628,-0.00518775,0.175503,0.00573532,0,0,0,-0.0465434,0,0.00548085,0,0,0,0.0608687,-0.0246,0.588608,0,0,0,0,0,0
0.401365,0.000568503,-1.13229,0.000235276,2.20595,-0.00104673,0.645492,0.00114569,0.00295636,-0.113124,0.00131665,-0.0629282,-0.0052027,0.176057,0.00575251,0,0,0,-0.0466762,0,0.00552912,0,0,0,0.0608139,-0.0246,0.588615,0,0,0,0,0,0
0.402626,0.000572242,-1.13243,0.000236943,2.20587,-0.00105331,0.645714,0.00115296,0.00296706,-0.113397,0.00132248,-0.0632499,-0.00521876,0.176651,0.00577092,0,0,0,-0.0468187,0,0.00558121,0,0,0,0.0607549,-0.0246,0.588622,0,0,0,0,0,0
0.403856,0.000575905,-1.13257,0.000238577,2.20579,-0.00105975,0.645932,0.00116008,0.00297764,-0.11366,0.00132835,-0.063567,-0.00523439,0.177232,0.00578892,0,0,0,-0.0469576,0,0.00563237,0,0,0,0.0606971,-0.0246,0.588629,0,0,0,0,0,0
0.404868,0.000578927,-1.13269,0.000239926,2.20572,-0.00106506,0.646112,0.00116595,0.00298658,-0.113872,0.00133347,-0.0638321,-0.00524717,0.177709,0.00580376,0,0,0,-0.0470719,0,0.00567467,0,0,0,0.0606495,-0.0246,0.588635,0,0,0,0,0,0
0.405868,0.000581923,-1.1328,0.000241265,2.20566,-0.00107032,0.64629,0.00117177,0.00299518,-0.114085,0.00133825,-0.0640912,-0.00525987,0.178181,0.00581838,0,0,0,-0.0471848,0,0.00571669,0,0,0,0.0606023,-0.0246,0.58864,0,0,0,0,0,0
0.406868,0.000584927,-1.13291,0.000242608,2.20559,-0.00107559,0.646469,0.00117761,0.00300378,-0.114297,0.00134302,-0.0643508,-0.00527256,0.178653,0.005833,0,0,0,-0.0472976,0,0.00575892,0,0,0,0.060555,-0.0246,0.588646,0,0,0,0,0,0
0.407868,0.00058794,-1.13303,0.000243956,2.20553,-0.00108088,0.646648,0.00118345,0.00301239,-0.114509,0.0013478,-0.0646111,-0.00528525,0.179125,0.00584761,0,0,0,-0.0474105,0,0.00580135,0,0,0,0.0605076,-0.0246,0.588652,0,0,0,0,0,0
0.408868,0.000590961,-1.13314,0.000245309,2.20547,-0.00108618,0.646828,0.00118932,0.003021,-0.114721,0.00135259,-0.0648721,-0.00529793,0.179598,0.00586222,0,0,0,-0.0475232,0,0.00584398,0,0,0,0.06046,-0.0246,0.588658,0,0,0,0,0,0
0.409868,0.000593991,-1.13326,0.000246666,2.2054,-0.00109149,0.647008,0.00119519,0.00302962,-0.114932,0.00135739,-0.0651338,-0.00531061,0.18007,0.00587683,0,0,0,-0.047636,0,0.00588683,0,0,0,0.0604124,-0.0246,0.588664,0,0,0,0,0,0
0.410869,0.00059703,-1.13337,0.000248029,2.20533,-0.00109681,0.647189,0.00120109,0.00303825,-0.115142,0.00136221,-0.0653963,-0.00532329,0.180543,0.00589144,0,0,0,-0.0477486,0,0.00592989,0,0,0,0.0603646,-0.0246,0.588669,0,0,0,0,0,0
0.411869,0.000600077,-1.13349,0.000249396,2.20527,-0.00110215,0.64737,0.00120699,0.00304689,-0.115352,0.00136703,-0.0656595,-0.00533595,0.181016,0.00590604,0,0,0,-0.0478613,0,0.00597315,0,0,0,0.0603168,-0.0246,0.588675,0,0,0,0,0,0
0.412869,0.000603133,-1.1336,0.000250768,2.2052,-0.0011075,0.647551,0.00121292,0.00305553,-0.115561,0.00137186,-0.0659233,-0.00534861,0.181489,0.00592064,0,0,0,-0.0479739,0,0.00601662,0,0,0,0.0602688,-0.0246,0.588681,0,0,0,0,0,0
0.413869,0.000606198,-1.13372,0.000252145,2.20514,-0.00111286,0.647733,0.00121885,0.00306418,-0.115769,0.0013767,-0.0661879,-0.00536126,0.181962,0.00593524,0,0,0,-0.0480864,0,0.00606029,0,0,0,0.0602207,-0.0246,0.588688,0,0,0,0,0,0
0.414869,0.000609271,-1.13384,0.000253527,2.20507,-0.00111824,0.647916,0.0012248,0.00307283,-0.115977,0.00138155,-0.0664533,-0.00537391,0.182435,0.00594983,0,0,0,-0.0481989,0,0.00610418,0,0,0,0.0601725,-0.0246,0.588694,0,0,0,0,0,0
0.415869,0.000612353,-1.13395,0.000254913,2.205,-0.00112362,0.648098,0.00123077,0.00308149,-0.116184,0.00138641,-0.0667193,-0.00538655,0.182908,0.00596442,0,0,0,-0.0483114,0,0.00614827,0,0,0,0.0601242,-0.0246,0.5887,0,0,0,0,0,0
0.416869,0.000615443,-1.13407,0.000256305,2.20494,-0.00112902,0.648282,0.00123675,0.00309016,-0.116391,0.00139128,-0.0669861,-0.00539918,0.183382,0.00597901,0,0,0,-0.0484238,0,0.00619258,0,0,0,0.0600757,-0.0246,0.588706,0,0,0,0,0,0
0.417869,0.000618542,-1.13419,0.000257701,2.20487,-0.00113444,0.648466,0.00124274,0.00309884,-0.116597,0.00139617,-0.0672536,-0.00541181,0.183855,0.00599359,0,0,0,-0.0485362,0,0.00623709,0,0,0,0.0600272,-0.0246,0.588712,0,0,0,0,0,0
0.41887,0.00062165,-1.1343,0.000259102,2.2048,-0.00113986,0.64865,0.00124875,0.00310752,-0.116802,0.00140106,-0.0675218,-0.00542443,0.184329,0.00600817,0,0,0,-0.0486485,0,0.00628182,0,0,0,0.0599785,-0.0246,0.588718,0,0,0,0,0,0
0.41987,0.000624767,-1.13442,0.000260508,2.20473,-0.0011453,0.648835,0.00125477,0.00311621,-0.117007,0.00140596,-0.0677907,-0.00543705,0.184803,0.00602275,0,0,0,-0.0487608,0,0.00632676,0,0,0,0.0599298,-0.0246,0.588725,0,0,0,0,0,0
0.420962,0.000628182,-1.13455,0.00026205,2.20466,-0.00115125,0.649037,0.00126137,0.0031256,-0.117232,0.00141118,-0.0680836,-0.00545086,0.185321,0.00603865,0,0,0,-0.0488834,0,0.0063761,0,0,0,0.0598763,-0.0246,0.588732,0,0,0,0,0,0
0.421962,0.000631317,-1.13466,0.000263467,2.20459,-0.00115672,0.649223,0.00126743,0.00313441,-0.117434,0.00141625,-0.0683559,-0.00546342,0.185795,0.00605324,0,0,0,-0.0489956,0,0.00642148,0,0,0,0.0598273,-0.0246,0.588738,0,0,0,0,0,0
0.422963,0.00063446,-1.13478,0.000264888,2.20452,-0.0011622,0.649409,0.00127349,0.00314312,-0.117637,0.00142119,-0.0686271,-0.00547601,0.186269,0.00606781,0,0,0,-0.0491077,0,0.00646707,0,0,0,0.0597782,-0.0246,0.588745,0,0,0,0,0,0
0.423963,0.000637613,-1.1349,0.000266314,2.20445,-0.00116768,0.649596,0.00127958,0.00315184,-0.117839,0.00142613,-0.0688991,-0.0054886,0.186743,0.00608237,0,0,0,-0.0492198,0,0.00651287,0,0,0,0.059729,-0.0246,0.588751,0,0,0,0,0,0
0.424963,0.000640774,-1.13502,0.000267746,2.20438,-0.00117319,0.649783,0.00128567,0.00316057,-0.118041,0.00143109,-0.0691717,-0.00550118,0.187218,0.00609692,0,0,0,-0.0493319,0,0.00655889,0,0,0,0.0596797,-0.0246,0.588758,0,0,0,0,0,0
0.425963,0.000643943,-1.13514,0.000269182,2.20432,-0.0011787,0.649971,0.00129179,0.0031693,-0.118242,0.00143605,-0.0694451,-0.00551375,0.187692,0.00611148,0,0,0,-0.0494439,0,0.00660513,0,0,0,0.0596302,-0.0246,0.588764,0,0,0,0,0,0
0.426963,0.000647121,-1.13525,0.000270623,2.20425,-0.00118423,0.650159,0.00129791,0.00317803,-0.118442,0.00144103,-0.0697193,-0.00552632,0.188167,0.00612603,0,0,0,-0.0495558,0,0.00665158,0,0,0,0.0595806,-0.0246,0.588771,0,0,0,0,0,0
0.427963,0.000650309,-1.13537,0.000272069,2.20418,-0.00118977,0.650348,0.00130405,0.00318678,-0.118642,0.00144601,-0.0699942,-0.00553888,0.188642,0.00614057,0,0,0,-0.0496677,0,0.00669824,0,0,0,0.059531,-0.0246,0.588778,0,0,0,0,0,0
0.428963,0.000653504,-1.13549,0.00027352,2.20411,-0.00119532,0.650537,0.00131021,0.00319553,-0.118842,0.00145101,-0.0702698,-0.00555143,0.189117,0.00615512,0,0,0,-0.0497795,0,0.00674512,0,0,0,0.0594812,-0.0246,0.588784,0,0,0,0,0,0
0.429963,0.000656709,-1.13561,0.000274976,2.20403,-0.00120088,0.650727,0.00131638,0.00320429,-0.11904,0.00145601,-0.0705461,-0.00556397,0.189592,0.00616965,0,0,0,-0.0498913,0,0.00679221,0,0,0,0.0594313,-0.0245999,0.588791,0,0,0,0,0,0
0.430963,0.000659922,-1.13573,0.000276438,2.20396,-0.00120646,0.650917,0.00132257,0.00321305,-0.119238,0.00146103,-0.0708232,-0.00557651,0.190067,0.00618419,0,0,0,-0.0500031,0,0.00683953,0,0,0,0.0593813,-0.0245999,0.588798,0,0,0,0,0,0
0.431964,0.000663145,-1.13585,0.000277904,2.20389,-0.00121205,0.651107,0.00132876,0.00322182,-0.119435,0.00146606,-0.0711011,-0.00558904,0.190542,0.00619872,0,0,0,-0.0501148,0,0.00688705,0,0,0,0.0593311,-0.0245999,0.588805,0,0,0,0,0,0
0.432964,0.000666376,-1.13597,0.000279375,2.20382,-0.00121765,0.651298,0.00133498,0.0032306,-0.119632,0.00147109,-0.0713797,-0.00560156,0.191017,0.00621324,0,0,0,-0.0502264,0,0.00693481,0,0,0,0.0592809,-0.0245999,0.588812,0,0,0,0,0,0
0.433964,0.000669616,-1.13609,0.000280852,2.20375,-0.00122327,0.65149,0.00134121,0.00323938,-0.119828,0.00147614,-0.0716591,-0.00561408,0.191493,0.00622776,0,0,0,-0.0503381,0,0.00698277,0,0,0,0.0592306,-0.0245999,0.588819,0,0,0,0,0,0
0.434964,0.000672864,-1.13621,0.000282333,2.20368,-0.0012289,0.651682,0.00134745,0.00324817,-0.120024,0.0014812,-0.0719391,-0.00562658,0.191968,0.00624228,0,0,0,-0.0504496,0,0.00703096,0,0,0,0.0591801,-0.0245999,0.588826,0,0,0,0,0,0
0.43625,0.000677056,-1.13636,0.000284246,2.20358,-0.00123615,0.65193,0.0013555,0.00325912,-0.120281,0.00148724,-0.0722946,-0.00564279,0.192581,0.00626089,0,0,0,-0.050593,0,0.00709324,0,0,0,0.059115,-0.0245999,0.588835,0,0,0,0,0,0
0.437358,0.000680677,-1.1365,0.000285899,2.2035,-0.00124242,0.652144,0.00136246,0.0032691,-0.120491,0.00149316,-0.0726103,-0.00565654,0.193107,0.00627698,0,0,0,-0.0507164,0,0.00714717,0,0,0,0.0590589,-0.0245999,0.588843,0,0,0,0,0,0
0.438553,0.000684598,-1.13664,0.000287692,2.20342,-0.0012492,0.652375,0.00136998,0.00327952,-0.120724,0.0014991,-0.0729465,-0.0056715,0.193676,0.0062943,0,0,0,-0.0508495,0,0.00720569,0,0,0,0.0589981,-0.0245999,0.588851,0,0,0,0,0,0
0.439553,0.000687887,-1.13676,0.000289197,2.20334,-0.00125488,0.652569,0.00137629,0.0032886,-0.120912,0.00150454,-0.073234,-0.00568388,0.194152,0.00630883,0,0,0,-0.0509608,0,0.00725488,0,0,0,0.0589471,-0.0245999,0.588859,0,0,0,0,0,0
0.440554,0.000691185,-1.13688,0.000290707,2.20327,-0.00126058,0.652764,0.00138262,0.00329743,-0.121104,0.00150966,-0.0735183,-0.00569635,0.194628,0.00632332,0,0,0,-0.0510721,0,0.00730429,0,0,0,0.058896,-0.0245999,0.588866,0,0,0,0,0,0
0.441557,0.000694503,-1.13701,0.000292227,2.2032,-0.00126631,0.65296,0.00138898,0.00330629,-0.121296,0.00151479,-0.0738042,-0.00570884,0.195106,0.00633786,0,0,0,-0.0511837,0,0.00735409,0,0,0,0.0588446,-0.0245999,0.588873,0,0,0,0,0,0
0.442557,0.000697818,-1.13713,0.000293747,2.20312,-0.00127203,0.653155,0.00139533,0.00331513,-0.121486,0.00151993,-0.0740901,-0.00572129,0.195582,0.00635233,0,0,0,-0.0512948,0,0.00740395,0,0,0,0.0587933,-0.0245999,0.588881,0,0,0,0,0,0
0.443557,0.000701143,-1.13725,0.000295272,2.20305,-0.00127777,0.653351,0.0014017,0.00332398,-0.121676,0.00152508,-0.0743766,-0.00573373,0.196058,0.00636681,0,0,0,-0.0514059,0,0.00745402,0,0,0,0.0587419,-0.0245999,0.588888,0,0,0,0,0,0
0.444557,0.000704476,-1.13737,0.000296802,2.20297,-0.00128351,0.653548,0.00140808,0.00333283,-0.121865,0.00153024,-0.0746639,-0.00574616,0.196535,0.00638128,0,0,0,-0.0515169,0,0.00750432,0,0,0,0.0586904,-0.0245999,0.588896,0,0,0,0,0,0
0.445558,0.000707818,-1.13749,0.000298338,2.2029,-0.00128927,0.653745,0.00141447,0.00334169,-0.122053,0.0015354,-0.0749519,-0.00575858,0.197011,0.00639574,0,0,0,-0.0516279,0,0.00755485,0,0,0,0.0586388,-0.0245999,0.588903,0,0,0,0,0,0
0.446558,0.000711169,-1.13762,0.000299879,2.20282,-0.00129504,0.653943,0.00142089,0.00335056,-0.122241,0.00154058,-0.0752408,-0.005771,0.197488,0.0064102,0,0,0,-0.0517389,0,0.0076056,0,0,0,0.058587,-0.0245999,0.588911,0,0,0,0,0,0
0.447558,0.000714529,-1.13774,0.000301425,2.20275,-0.00130083,0.654141,0.00142731,0.00335943,-0.122428,0.00154577,-0.0755304,-0.00578341,0.197965,0.00642465,0,0,0,-0.0518498,0,0.00765657,0,0,0,0.0585351,-0.0245999,0.588919,0,0,0,0,0,0
0.448558,0.000717898,-1.13786,0.000302976,2.20267,-0.00130662,0.654339,0.00143375,0.00336831,-0.122615,0.00155097,-0.0758207,-0.0057958,0.198442,0.0064391,0,0,0,-0.0519606,0,0.00770777,0,0,0,0.0584832,-0.0245999,0.588926,0,0,0,0,0,0
0.449566,0.000721302,-1.13798,0.000304545,2.20259,-0.00131248,0.65454,0.00144026,0.00337725,-0.122802,0.0015562,-0.0761139,-0.00580829,0.198922,0.00645365,0,0,0,-0.0520722,0,0.00775959,0,0,0,0.0584307,-0.0245999,0.588934,0,0,0,0,0,0
0.450566,0.000724688,-1.13811,0.000306106,2.20252,-0.0013183,0.654739,0.00144673,0.00338615,-0.122987,0.00156144,-0.0764059,-0.00582067,0.199399,0.00646808,0,0,0,-0.0521829,0,0.00781123,0,0,0,0.0583785,-0.0245999,0.588942,0,0,0,0,0,0
