Kcygt/SemiCircleKinovaTest_Cpp/x64/Debug/data.csv
t,q1,q2,q3,q4,q5,q6,q7,qp1,qp2,qp3,qp4,qp5,qp6,qp7,xd,yd,zd,vxd,vyd,vzd,wxd,wyd,wzd,x,y,z,vx,vy,vz,wx,wy,wz
2.61e-05,7.18952e-05,-1.10828,-0.000126175,2.21657,-5.59914e-05,0.610859,-6.35069e-05,2.7546,0.0333943,-4.83428,0.208194,-2.14526,-0.241588,-2.43322,0.0702507,0.0246,0.588057,-2.70233e-06,0,1.90597e-15,0,0,0,0.0702507,-0.0246,0.588057,0.000105485,1.47599,-0.000247911,1.58452e-05,0.000389185,-1.66941e-05,-9.25596e+61,-9.25596e+61
0.0025709,0.00707637,-1.1082,-0.0124189,2.2171,-0.0055111,0.610248,-0.00625061,2.75247,0.03249,-4.83051,0.207246,-2.14363,-0.240125,-2.43127,0.0702504,0.0246,0.588057,-0.000266185,0,1.82159e-09,0,0,0,0.0702507,-0.0245615,0.588057,0.0102507,1.47359,-0.0241206,0.00165708,0.037859,-0.00185803,-9.25596e+61,-9.25596e+61
0.0041008,0.0109663,-1.10818,-0.0192482,2.21732,-0.00854221,0.609955,-0.00968542,2.5426,0.0158556,-4.46388,0.140182,-1.98125,-0.191386,-2.24512,0.0702499,0.0246,0.588057,-0.000424587,0,7.39267e-09,0,0,0,0.0702643,-0.0208096,0.588032,0.00454974,1.36184,-0.0116216,0.000727202,0.019423,-0.000719087,-9.25596e+61,-9.25596e+61
0.005363,0.0140283,-1.10817,-0.0246244,2.21745,-0.0109286,0.609744,-0.0123885,2.42595,0.00749419,-4.25941,0.107129,-1.89069,-0.166891,-2.14157,0.0702493,0.0246,0.588057,-0.000555272,0,1.65356e-08,0,0,0,0.0702674,-0.0187257,0.588025,0.00296406,1.2995,-0.00834361,0.00050168,0.0145868,-0.000456762,-9.25596e+61,-9.25596e+61
0.0070343,0.0179293,-1.10816,-0.0314736,2.21759,-0.0139692,0.609496,-0.0158314,2.33408,0.00118438,-4.09811,0.0829395,-1.81926,-0.148453,-2.06,0.0702482,0.0246,0.588057,-0.000728314,0,3.73128e-08,0,0,0,0.0702687,-0.0170853,0.588022,0.00363763,1.25028,-0.0103313,0.000583104,0.0178772,-0.000504514,-9.25596e+61,-9.25596e+61
0.0086928,0.0216062,-1.10817,-0.0379289,2.21768,-0.0168352,0.609287,-0.0190755,2.21701,-0.00608782,-3.89229,0.0542346,-1.72811,-0.126235,-1.95605,0.0702468,0.0246,0.588057,-0.000900031,0,7.04165e-08,0,0,0,0.0702709,-0.0149954,0.588016,0.00284053,1.18768,-0.00895863,0.000475782,0.0160046,-0.000368967,-9.25596e+61,-9.25596e+61
0.0104266,0.0252586,-1.1082,-0.0443404,2.21773,-0.0196822,0.609102,-0.0222969,2.10661,-0.0123582,-3.69796,0.0295181,-1.64204,-0.10657,-1.85802,0.0702451,0.0246,0.588057,-0.00107954,0,1.21513e-07,0,0,0,0.0702722,-0.0130254,0.588011,0.00232367,1.12865,-0.00824118,0.000408324,0.0151063,-0.000277661,-9.25596e+61,-9.25596e+61
0.0122083,0.0288165,-1.10823,-0.0505847,2.21774,-0.0224553,0.608945,-0.0254338,1.99691,-0.017989,-3.50465,0.00718861,-1.55643,-0.0882706,-1.76062,0.070243,0.0246,0.588057,-0.00126402,0,1.95057e-07,0,0,0,0.0702728,-0.0110684,0.588006,0.00173723,1.07001,-0.0073723,0.000338355,0.0139494,-0.000190995,-9.25596e+61,-9.25596e+61
0.013944,0.032097,-1.10827,-0.0563405,2.21772,-0.0250119,0.60882,-0.028325,1.89002,-0.0228745,-3.31614,-0.0124075,-1.47293,-0.071681,-1.66573,0.0702407,0.0246,0.588057,-0.00144373,0,2.90641e-07,0,0,0,0.0702726,-0.00916194,0.588003,0.00099737,1.01287,-0.00612926,0.000260708,0.0121741,-0.000109319,-9.25596e+61,-9.25596e+61
0.0157518,0.0353356,-1.10832,-0.0620209,2.21767,-0.0275353,0.608717,-0.0311781,1.79143,-0.0269319,-3.14217,-0.028581,-1.39588,-0.057398,-1.57823,0.0702379,0.0246,0.588057,-0.0016309,0,4.18973e-07,0,0,0,0.0702716,-0.0074039,0.588,0.000540487,0.96017,-0.00555174,0.000214239,0.0113924,-5.56133e-05,-9.25596e+61,-9.25596e+61
0.0176462,0.0385448,-1.10837,-0.0676479,2.21759,-0.0300355,0.608633,-0.0340043,1.69407,-0.0304843,-2.97032,-0.042794,-1.31975,-0.0442536,-1.49186,0.0702346,0.0246,0.588057,-0.00182704,0,5.89046e-07,0,0,0,0.0702699,-0.00566814,0.587998,9.85806e-05,0.908132,-0.00502853,0.000172367,0.0106772,-9.45065e-06,-9.25596e+61,-9.25596e+61
0.0193603,0.0412832,-1.10843,-0.0724473,2.21749,-0.0321683,0.608577,-0.0364149,1.59758,-0.0334403,-2.79997,-0.0551197,-1.24427,-0.0323258,-1.40629,0.0702313,0.0246,0.588057,-0.00200452,0,7.77914e-07,0,0,0,0.0702674,-0.00394785,0.587996,-0.000685344,0.85654,-0.0036448,0.000114079,0.00859295,2.97696e-05,-9.25596e+61,-9.25596e+61
0.0205807,0.0431324,-1.10848,-0.075687,2.21742,-0.0336081,0.608549,-0.038042,1.51523,-0.0354552,-2.65458,-0.0641616,-1.17985,-0.0231662,-1.33331,0.0702288,0.0246,0.588057,-0.00213087,0,9.34492e-07,0,0,0,0.0702643,-0.00247975,0.587995,-0.00165714,0.812479,-0.0016574,5.8597e-05,0.00550421,4.18268e-05,-9.25596e+61,-9.25596e+61
0.0216593,0.0447067,-1.10851,-0.0784443,2.21734,-0.0348338,0.60853,-0.039427,1.45961,-0.0367172,-2.55639,-0.0695022,-1.13633,-0.0173424,-1.28403,0.0702265,0.0246,0.588057,-0.00224255,0,1.08925e-06,0,0,0,0.0702614,-0.00148825,0.587996,-0.00202898,0.782729,-0.00104255,4.03389e-05,0.00451454,4.51758e-05,-9.25596e+61,-9.25596e+61
0.0228487,0.0463864,-1.10856,-0.0813854,2.21725,-0.0361413,0.608516,-0.0409043,1.41225,-0.0377833,-2.4728,-0.0736179,-1.09929,-0.0125044,-1.24209,0.0702237,0.0246,0.588057,-0.0023657,0,1.27873e-06,0,0,0,0.0702586,-0.000644049,0.587996,-0.00210854,0.757413,-0.00115714,3.50526e-05,0.00466099,5.44497e-05,-9.25596e+61,-9.25596e+61
0.0238491,0.0477487,-1.1086,-0.08377,2.21718,-0.0372015,0.608508,-0.0421022,1.36171,-0.0386609,-2.38362,-0.0775216,-1.05976,-0.00776677,-1.19735,0.0702213,0.0246,0.588057,-0.00246928,0,1.45416e-06,0,0,0,0.0702553,0.000256761,0.587997,-0.00247152,0.730376,-0.000531671,2.14329e-05,0.0036452,5.06456e-05,-9.25596e+61,-9.25596e+61
0.0248494,0.0490698,-1.10864,-0.086082,2.2171,-0.0382295,0.608504,-0.0432636,1.32073,-0.0393582,-2.3113,-0.080348,-1.02771,-0.00403325,-1.16108,0.0702188,0.0246,0.588057,-0.00257284,0,1.64491e-06,0,0,0,0.0702524,0.000987387,0.587998,-0.00262261,0.708458,-0.00041926,1.56308e-05,0.00342909,5.29231e-05,-9.25596e+61,-9.25596e+61
0.0262592,0.0508757,-1.10869,-0.0892416,2.21698,-0.0396345,0.608503,-0.0448509,1.28096,-0.0401617,-2.24115,-0.082864,-0.996625,-0.000300189,-1.12591,0.070215,0.0246,0.588057,-0.00271881,0,1.94106e-06,0,0,0,0.0702493,0.00169601,0.587999,-0.00247578,0.68723,-0.00115728,1.50101e-05,0.00454694,7.43293e-05,-9.25596e+61,-9.25596e+61
0.0272593,0.0521025,-1.10874,-0.0913871,2.21689,-0.0405888,0.608507,-0.0459288,1.22663,-0.0406617,-2.14532,-0.0857261,-0.954134,0.0039601,-1.07785,0.0702123,0.0246,0.588057,-0.00282236,0,2.1714e-06,0,0,0,0.070245,0.00266479,0.588,-0.00297669,0.658136,-0.000168842,4.03316e-06,0.0029581,5.59603e-05,-9.25596e+61,-9.25596e+61
0.0282595,0.0532924,-1.10878,-0.0934678,2.21681,-0.0415142,0.608514,-0.0469743,1.1897,-0.0410656,-2.08023,-0.0873731,-0.925277,0.0068413,-1.04521,0.0702094,0.0246,0.588057,-0.00292592,0,2.41929e-06,0,0,0,0.0702416,0.00332295,0.588001,-0.00311441,0.63839,-8.57593e-05,1.29428e-07,0.00278333,5.63184e-05,-9.25596e+61,-9.25596e+61
0.0292596,0.0544464,-1.10882,-0.0954851,2.21672,-0.0424116,0.608524,-0.0479879,1.15389,-0.0413988,-2.0171,-0.0887332,-0.897289,0.00951007,-1.01356,0.0702064,0.0246,0.588057,-0.00302946,0,2.68535e-06,0,0,0,0.0702381,0.00396142,0.588002,-0.00324903,0.619235,-9.39346e-06,-3.33363e-06,0.00261834,5.62645e-05,-9.25596e+61,-9.25596e+61
0.0305251,0.0558627,-1.10887,-0.0979602,2.2166,-0.0435128,0.608539,-0.0492318,1.11914,-0.0418073,-1.95588,-0.0898768,-0.870153,0.0121681,-0.982875,0.0702025,0.0246,0.588057,-0.00316049,0,3.04906e-06,0,0,0,0.0702346,0.00458068,0.588003,-0.00325034,0.600675,-0.000356214,-8.13007e-06,0.00311717,6.96412e-05,-9.25596e+61,-9.25596e+61
0.0315253,0.0569394,-1.10891,-0.0998414,2.21651,-0.0443498,0.608554,-0.0501772,1.07651,-0.0419207,-1.8808,-0.0908967,-0.83685,0.0148731,-0.94523,0.0701993,0.0246,0.588057,-0.00326405,0,3.35871e-06,0,0,0,0.0702299,0.00534077,0.588004,-0.00354547,0.577851,0.000146287,-9.78371e-06,0.00227991,5.50073e-05,-9.25596e+61,-9.25596e+61
0.0327285,0.0581957,-1.10896,-0.102036,2.2164,-0.0453262,0.608575,-0.05128,1.04409,-0.0421739,-1.82371,-0.0915073,-0.81154,0.0170909,-0.916615,0.0701953,0.0246,0.588057,-0.00338862,0,3.75815e-06,0,0,0,0.0702261,0.00591869,0.588005,-0.00359079,0.560526,-7.49554e-05,-1.46073e-05,0.00258036,6.43282e-05,-9.25596e+61,-9.25596e+61
0.0340929,0.0595686,-1.10902,-0.104433,2.21628,-0.0463932,0.608601,-0.0524851,1.00625,-0.0423717,-1.75712,-0.0919798,-0.782015,0.0195138,-0.883239,0.0701906,0.0246,0.588057,-0.00352989,0,4.24803e-06,0,0,0,0.0702214,0.00659306,0.588006,-0.00369327,0.540303,-0.000194905,-1.99463e-05,0.00271841,7.05242e-05,-9.25596e+61,-9.25596e+61
0.0362714,0.0616706,-1.10911,-0.108102,2.21608,-0.0480266,0.60865,-0.0543298,0.964875,-0.0428842,-1.68433,-0.0923358,-0.74976,0.0225119,-0.846768,0.0701826,0.0246,0.588057,-0.00375545,0,5.1155e-06,0,0,0,0.0702158,0.00733018,0.588007,-0.00363516,0.518239,-0.00103975,-3.77693e-05,0.00399216,0.000104735,-9.25596e+61,-9.25596e+61
0.0372929,0.0625916,-1.10916,-0.109709,2.21598,-0.048742,0.608676,-0.0551378,0.901608,-0.0421282,-1.57307,-0.0918926,-0.700372,0.0250002,-0.790978,0.0701787,0.0246,0.588057,-0.00386121,0,5.55999e-06,0,0,0,0.0702068,0.008459,0.588008,-0.00424488,0.484295,0.000432341,-2.00241e-05,0.00163482,4.83779e-05,-9.25596e+61,-9.25596e+61
0.0383047,0.0634757,-1.1092,-0.111252,2.21589,-0.0494288,0.608702,-0.0559134,0.873864,-0.0420456,-1.52432,-0.0915108,-0.678746,0.0263165,-0.766541,0.0701748,0.0246,0.588057,-0.00396597,0,6.02492e-06,0,0,0,0.0702022,0.00895367,0.588009,-0.00436351,0.469452,0.000472976,-2.08469e-05,0.00152145,4.61705e-05,-9.25596e+61,-9.25596e+61
0.0393049,0.0643231,-1.10924,-0.112729,2.2158,-0.0500869,0.60873,-0.0566566,0.847227,-0.0419363,-1.47753,-0.0910129,-0.657988,0.027513,-0.743086,0.0701708,0.0246,0.588057,-0.00406953,0,6.50931e-06,0,0,0,0.0701976,0.00942863,0.58801,-0.00447919,0.4552,0.000510265,-2.14382e-05,0.00141397,4.38876e-05,-9.25596e+61,-9.25596e+61
0.0403104,0.0651494,-1.10928,-0.11417,2.21571,-0.0507285,0.608759,-0.0573812,0.821694,-0.0418157,-1.43269,-0.0904189,-0.638098,0.0286136,-0.720613,0.0701666,0.0246,0.588057,-0.00417363,0,7.02177e-06,0,0,0,0.0701929,0.00988389,0.588011,-0.00458911,0.441541,0.000528412,-2.22476e-05,0.00133733,4.23225e-05,-9.25596e+61,-9.25596e+61
0.0413105,0.0659462,-1.10933,-0.115559,2.21562,-0.0513473,0.608788,-0.05808,0.796798,-0.0416677,-1.38899,-0.0897251,-0.61871,0.0296232,-0.698707,0.0701624,0.0246,0.588057,-0.00427718,0,7.55747e-06,0,0,0,0.0701881,0.0103278,0.588012,-0.00469987,0.42822,0.000552934,-2.26909e-05,0.00125101,4.03037e-05,-9.25596e+61,-9.25596e+61
0.0423107,0.0667192,-1.10937,-0.116906,2.21553,-0.0519474,0.608819,-0.0587577,0.772782,-0.0415064,-1.34686,-0.0889517,-0.600013,0.0305505,-0.677583,0.0701581,0.0246,0.588057,-0.00438074,0,8.11981e-06,0,0,0,0.0701833,0.0107561,0.588013,-0.00480809,0.415371,0.00057001,-2.31451e-05,0.00117709,3.85176e-05,-9.25596e+61,-9.25596e+61
0.0433109,0.0674688,-1.10941,-0.118213,2.21544,-0.0525294,0.60885,-0.0594149,0.749485,-0.0413299,-1.30599,-0.0881029,-0.581882,0.0314029,-0.657099,0.0701536,0.0246,0.588057,-0.00448429,0,8.70937e-06,0,0,0,0.0701783,0.0111715,0.588014,-0.00491525,0.402906,0.000584749,-2.34973e-05,0.00110742,3.67384e-05,-9.25596e+61,-9.25596e+61
0.044311,0.0681958,-1.10945,-0.119479,2.21535,-0.0530937,0.608882,-0.0600522,0.726888,-0.0411403,-1.26637,-0.0871872,-0.5643,0.032186,-0.637236,0.0701491,0.0246,0.588057,-0.00458784,0,9.32674e-06,0,0,0,0.0701733,0.0115744,0.588015,-0.00502143,0.390816,0.000597324,-2.3758e-05,0.00104177,3.49754e-05,-9.25596e+61,-9.25596e+61
0.0453111,0.0689008,-1.10949,-0.120707,2.21527,-0.0536411,0.608915,-0.0606703,0.704972,-0.0409397,-1.22796,-0.0862124,-0.547254,0.0329051,-0.617978,0.0701445,0.0246,0.588057,-0.00469139,0,9.97261e-06,0,0,0,0.0701681,0.0119653,0.588016,-0.00512668,0.379089,0.000607773,-2.39416e-05,0.000980109,3.32429e-05,-9.25596e+61,-9.25596e+61
0.0464583,0.0696852,-1.10954,-0.122073,2.21517,-0.0542499,0.608954,-0.0613578,0.683705,-0.0408265,-1.1907,-0.0852185,-0.530726,0.0336955,-0.599303,0.070139,0.0246,0.588057,-0.00481016,0,1.07494e-05,0,0,0,0.0701628,0.0123444,0.588017,-0.00522965,0.36772,0.000529956,-2.77293e-05,0.00105773,3.59947e-05,-9.25596e+61,-9.25596e+61
0.0474584,0.0703453,-1.10958,-0.123222,2.21509,-0.0547623,0.608988,-0.0619364,0.66006,-0.0404763,-1.14929,-0.0839522,-0.51234,0.0342579,-0.578534,0.0701341,0.0246,0.588057,-0.00491371,0,1.14587e-05,0,0,0,0.0701567,0.0127662,0.588018,-0.00534968,0.355057,0.000625291,-2.41037e-05,0.000859635,2.96435e-05,-9.25596e+61,-9.25596e+61
0.0484585,0.0709855,-1.10962,-0.124337,2.215,-0.0552592,0.609023,-0.0624975,0.64015,-0.0402521,-1.11443,-0.0828346,-0.496869,0.0348067,-0.561057,0.0701292,0.0246,0.588057,-0.00501726,0,1.21985e-05,0,0,0,0.0701512,0.0131213,0.588019,-0.00545257,0.344403,0.000630267,-2.409e-05,0.000808754,2.80303e-05,-9.25596e+61,-9.25596e+61
0.0494587,0.0716065,-1.10966,-0.125418,2.21492,-0.0557412,0.609058,-0.0630417,0.620837,-0.0400235,-1.08063,-0.0816841,-0.481868,0.0353103,-0.54411,0.0701241,0.0246,0.588057,-0.00512081,0,1.29695e-05,0,0,0,0.0701457,0.0134657,0.58802,-0.00555483,0.334069,0.00063376,-2.40301e-05,0.000760959,2.64656e-05,-9.25596e+61,-9.25596e+61
0.0504643,0.0722119,-1.1097,-0.126472,2.21484,-0.0562111,0.609094,-0.0635723,0.602102,-0.0397954,-1.04785,-0.0805067,-0.46732,0.0357772,-0.527675,0.0701189,0.0246,0.588057,-0.00522493,0,1.37768e-05,0,0,0,0.07014,0.0137998,0.588021,-0.00565686,0.324044,0.000633533,-2.40585e-05,0.000719777,2.50761e-05,-9.25596e+61,-9.25596e+61
0.0517269,0.0729491,-1.10975,-0.127754,2.21474,-0.0567832,0.60914,-0.0642184,0.583815,-0.0397398,-1.01588,-0.0793602,-0.453139,0.0364454,-0.51165,0.0701122,0.0246,0.588057,-0.00535565,0,1.48369e-05,0,0,0,0.0701342,0.0141256,0.588022,-0.00577818,0.314277,0.000524637,-3.02934e-05,0.000849953,2.9343e-05,-9.25596e+61,-9.25596e+61
0.0529559,0.0736392,-1.1098,-0.128955,2.21464,-0.0573189,0.609186,-0.0648232,0.561569,-0.0394143,-0.976991,-0.077807,-0.435874,0.0369014,-0.492147,0.0701056,0.0246,0.588057,-0.0054829,0,1.59198e-05,0,0,0,0.0701268,0.0145224,0.588023,-0.0059057,0.30237,0.000547889,-2.91626e-05,0.000765751,2.64269e-05,-9.25596e+61,-9.25596e+61
0.0541808,0.0743016,-1.10984,-0.130107,2.21455,-0.057833,0.609231,-0.0654037,0.540734,-0.039119,-0.940582,-0.0762804,-0.419711,0.0373237,-0.473888,0.0700988,0.0246,0.588057,-0.00560972,0,1.70503e-05,0,0,0,0.0701194,0.014894,0.588024,-0.00603109,0.29122,0.000555606,-2.87276e-05,0.000707869,2.43328e-05,-9.25596e+61,-9.25596e+61
0.0555013,0.0749892,-1.1099,-0.131303,2.21445,-0.0583668,0.609281,-0.0660063,0.520727,-0.0388996,-0.905639,-0.0747692,-0.404203,0.0378004,-0.456367,0.0700913,0.0246,0.588057,-0.00574644,0,1.83275e-05,0,0,0,0.0701119,0.0152507,0.588025,-0.00616774,0.28052,0.000527156,-3.0667e-05,0.000707975,2.40843e-05,-9.25596e+61,-9.25596e+61
0.0568498,0.0756634,-1.10995,-0.132475,2.21435,-0.0588901,0.609333,-0.0665972,0.499956,-0.0386104,-0.869374,-0.0731106,-0.388104,0.038199,-0.43818,0.0700834,0.0246,0.588057,-0.00588605,0,1.96962e-05,0,0,0,0.0701036,0.0156211,0.588026,-0.00630621,0.269407,0.000524024,-3.08511e-05,0.000666747,2.24292e-05,-9.25596e+61,-9.25596e+61
0.0580738,0.0762504,-1.10999,-0.133496,2.21427,-0.0593459,0.60938,-0.0671117,0.479595,-0.0382057,-0.833835,-0.071373,-0.372321,0.0384111,-0.420352,0.0700762,0.0246,0.588057,-0.00601278,0,2.09959e-05,0,0,0,0.070095,0.0159843,0.588027,-0.00642336,0.258503,0.0005646,-2.73843e-05,0.000557131,1.85869e-05,-9.25596e+61,-9.25596e+61
0.0593743,0.076851,-1.11004,-0.13454,2.21417,-0.0598122,0.60943,-0.0676382,0.461849,-0.0379905,-0.80288,-0.069849,-0.358581,0.0387668,-0.404828,0.0700682,0.0246,0.588057,-0.00614743,0,2.24383e-05,0,0,0,0.0700871,0.0163007,0.588028,-0.00655894,0.249011,0.000543386,-2.86746e-05,0.000549203,1.7982e-05,-9.25596e+61,-9.25596e+61
0.0605569,0.0773758,-1.11009,-0.135452,2.21409,-0.0602196,0.609476,-0.0680981,0.443699,-0.0376151,-0.771226,-0.0681829,-0.344522,0.0389103,-0.388947,0.0700609,0.0246,0.588057,-0.00626986,0,2.38059e-05,0,0,0,0.0700784,0.0166245,0.588029,-0.00666754,0.239292,0.00057247,-2.54609e-05,0.000461135,1.48838e-05,-9.25596e+61,-9.25596e+61
0.0615571,0.0778037,-1.11013,-0.136196,2.21403,-0.0605519,0.609515,-0.0684733,0.427845,-0.0372244,-0.743583,-0.0666589,-0.332241,0.0389395,-0.375075,0.0700546,0.0246,0.588057,-0.00637342,0,2.50051e-05,0,0,0,0.0700705,0.0169075,0.58803,-0.00674953,0.230797,0.000610718,-2.09993e-05,0.000362778,1.15647e-05,-9.25596e+61,-9.25596e+61
0.0625573,0.0782187,-1.11016,-0.136917,2.21396,-0.0608742,0.609554,-0.0688371,0.4149,-0.0370239,-0.721026,-0.0654241,-0.322226,0.0391143,-0.36376,0.0700482,0.0246,0.588057,-0.00647697,0,2.62439e-05,0,0,0,0.0700637,0.0171383,0.588031,-0.00684794,0.223871,0.000603963,-2.06642e-05,0.000341293,1.06604e-05,-9.25596e+61,-9.25596e+61
0.0635574,0.0786211,-1.1102,-0.137616,2.2139,-0.0611868,0.609594,-0.0691899,0.402344,-0.0368292,-0.699153,-0.0642001,-0.312514,0.0392781,-0.352788,0.0700416,0.0246,0.588057,-0.00658052,0,2.75228e-05,0,0,0,0.0700568,0.0173623,0.588031,-0.00694622,0.217153,0.000596944,-2.03223e-05,0.000321047,9.8009e-06,-9.25596e+61,-9.25596e+61
0.0645576,0.0790113,-1.11024,-0.138294,2.21384,-0.0614899,0.609633,-0.0695322,0.390165,-0.036641,-0.677943,-0.0629884,-0.303096,0.0394324,-0.342149,0.070035,0.0246,0.588057,-0.00668407,0,2.88427e-05,0,0,0,0.0700498,0.0175794,0.588032,-0.00704442,0.210637,0.000589643,-1.9981e-05,0.000302063,8.98768e-06,-9.25596e+61,-9.25596e+61
0.0655579,0.0793898,-1.11027,-0.138952,2.21377,-0.061784,0.609673,-0.0698641,0.37835,-0.0364593,-0.657374,-0.0617902,-0.293963,0.0395783,-0.331831,0.0700283,0.0246,0.588057,-0.00678763,0,3.02043e-05,0,0,0,0.0700427,0.0177901,0.588033,-0.00714256,0.204316,0.000582143,-1.96372e-05,0.000284199,8.21712e-06,-9.25596e+61,-9.25596e+61
0.0665582,0.0797568,-1.11031,-0.13959,2.21371,-0.0620692,0.609712,-0.070186,0.366888,-0.0362843,-0.637424,-0.0606065,-0.285105,0.0397169,-0.321823,0.0700214,0.0246,0.588057,-0.0068912,0,3.16081e-05,0,0,0,0.0700355,0.0179945,0.588033,-0.00724063,0.198184,0.000574498,-1.92899e-05,0.000267362,7.48704e-06,-9.25596e+61,-9.25596e+61
0.0675584,0.0801126,-1.11035,-0.140208,2.21365,-0.0623457,0.609752,-0.0704982,0.35577,-0.0361162,-0.618078,-0.0594384,-0.276515,0.0398492,-0.312119,0.0700145,0.0246,0.588057,-0.00699475,0,3.30546e-05,0,0,0,0.0700283,0.0181927,0.588034,-0.00733862,0.192237,0.000566741,-1.89399e-05,0.000251496,6.79625e-06,-9.25596e+61,-9.25596e+61
0.0685586,0.0804577,-1.11038,-0.140807,2.21359,-0.062614,0.609792,-0.070801,0.344986,-0.0359554,-0.599318,-0.058287,-0.268186,0.0399763,-0.302708,0.0700074,0.0246,0.588057,-0.0070983,0,3.45445e-05,0,0,0,0.0700209,0.018385,0.588035,-0.00743659,0.186468,0.000558871,-1.85922e-05,0.000236596,6.14464e-06,-9.25596e+61,-9.25596e+61
0.0695589,0.0807923,-1.11042,-0.141388,2.21354,-0.0628742,0.609832,-0.0710946,0.334525,-0.0358019,-0.581126,-0.057153,-0.260108,0.0400993,-0.293582,0.0700003,0.0246,0.588057,-0.00720186,0,3.60788e-05,0,0,0,0.0700134,0.0185715,0.588035,-0.00753457,0.180872,0.00055092,-1.82473e-05,0.000222601,5.53044e-06,-9.25596e+61,-9.25596e+61
0.0705591,0.0811167,-1.11045,-0.141952,2.21348,-0.0631265,0.609873,-0.0713794,0.324376,-0.0356556,-0.563482,-0.0560368,-0.252274,0.0402185,-0.284731,0.069993,0.0246,0.588057,-0.00730542,0,3.76576e-05,0,0,0,0.0700059,0.0187524,0.588036,-0.00763249,0.175444,0.000542956,-1.79e-05,0.000209389,4.95057e-06,-9.25596e+61,-9.25596e+61
0.0715592,0.0814313,-1.11049,-0.142499,2.21343,-0.0633712,0.609913,-0.0716556,0.314532,-0.0355167,-0.546372,-0.0549394,-0.244677,0.0403349,-0.276148,0.0699857,0.0246,0.588057,-0.00740896,0,3.92817e-05,0,0,0,0.0699982,0.0189278,0.588037,-0.00773041,0.170179,0.000534977,-1.75548e-05,0.000196961,4.4048e-06,-9.25596e+61,-9.25596e+61
0.0725594,0.0817363,-1.11052,-0.143028,2.21337,-0.0636086,0.609953,-0.0719235,0.304985,-0.0353856,-0.529781,-0.0538614,-0.23731,0.0404496,-0.267825,0.0699782,0.0246,0.588057,-0.00751251,0,4.09519e-05,0,0,0,0.0699904,0.019098,0.588037,-0.00782838,0.165073,0.000526982,-1.72157e-05,0.000185308,3.89236e-06,-9.25596e+61,-9.25596e+61
0.0735595,0.0820321,-1.11056,-0.143542,2.21332,-0.0638387,0.609994,-0.0721833,0.295722,-0.035262,-0.513689,-0.0528027,-0.230165,0.0405626,-0.259753,0.0699706,0.0246,0.588058,-0.00761605,0,4.26687e-05,0,0,0,0.0699826,0.0192631,0.588038,-0.00792632,0.160119,0.000519039,-1.68759e-05,0.000174308,3.41023e-06,-9.25596e+61,-9.25596e+61
0.0745596,0.0823188,-1.11059,-0.14404,2.21327,-0.064062,0.610035,-0.0724352,0.286737,-0.035146,-0.498085,-0.0517641,-0.223237,0.040675,-0.251926,0.069963,0.0246,0.588058,-0.00771959,0,4.44328e-05,0,0,0,0.0699746,0.0194233,0.588038,-0.00802432,0.155315,0.000511134,-1.65411e-05,0.000163978,2.95814e-06,-9.25596e+61,-9.25596e+61
0.0755598,0.0825969,-1.11063,-0.144523,2.21322,-0.0642786,0.610075,-0.0726796,0.278022,-0.0350378,-0.482951,-0.0507458,-0.216517,0.0407872,-0.244334,0.0699552,0.0246,0.588058,-0.00782314,0,4.6245e-05,0,0,0,0.0699666,0.0195786,0.588039,-0.00812237,0.150654,0.000503286,-1.62116e-05,0.000154274,2.53457e-06,-9.25596e+61,-9.25596e+61
0.07656,0.0828665,-1.11066,-0.144992,2.21317,-0.0644886,0.610116,-0.0729166,0.269566,-0.034937,-0.468273,-0.0497478,-0.21,0.0408995,-0.236971,0.0699473,0.0246,0.588058,-0.00792669,0,4.81059e-05,0,0,0,0.0699584,0.0197293,0.58804,-0.00822045,0.146134,0.00049553,-1.5884e-05,0.000145128,2.13767e-06,-9.25596e+61,-9.25596e+61
0.0775602,0.083128,-1.1107,-0.145446,2.21312,-0.0646923,0.610157,-0.0731465,0.261364,-0.0348439,-0.454037,-0.0487705,-0.20368,0.0410125,-0.229831,0.0699393,0.0246,0.588058,-0.00803023,0,5.0016e-05,0,0,0,0.0699502,0.0198754,0.58804,-0.00831858,0.141748,0.000487871,-1.55605e-05,0.000136524,1.76646e-06,-9.25596e+61,-9.25596e+61
0.0785605,0.0833814,-1.11073,-0.145886,2.21307,-0.0648899,0.610199,-0.0733695,0.253407,-0.0347585,-0.44023,-0.047814,-0.19755,0.0411267,-0.222906,0.0699312,0.0246,0.588058,-0.00813379,0,5.19763e-05,0,0,0,0.0699419,0.0200172,0.588041,-0.00841679,0.137495,0.000480316,-1.52427e-05,0.000128442,1.4198e-06,-9.25596e+61,-9.25596e+61
0.0795606,0.0836272,-1.11077,-0.146313,2.21302,-0.0650816,0.61024,-0.0735857,0.245687,-0.0346804,-0.426839,-0.0468781,-0.191605,0.041242,-0.216189,0.0699231,0.0246,0.588058,-0.00823733,0,5.39867e-05,0,0,0,0.0699334,0.0201547,0.588041,-0.00851498,0.133368,0.000472906,-1.49245e-05,0.0001208,1.09604e-06,-9.25596e+61,-9.25596e+61
0.0805607,0.0838654,-1.1108,-0.146727,2.21298,-0.0652674,0.610281,-0.0737954,0.2382,-0.03461,-0.413853,-0.0459634,-0.18584,0.0413593,-0.209676,0.0699148,0.0246,0.588058,-0.00834087,0,5.60482e-05,0,0,0,0.0699249,0.0202881,0.588042,-0.00861327,0.129367,0.000465616,-1.46141e-05,0.000113636,7.94637e-07,-9.25596e+61,-9.25596e+61
0.0815608,0.0840963,-1.11084,-0.147128,2.21293,-0.0654477,0.610323,-0.0739987,0.230937,-0.034547,-0.401259,-0.0450696,-0.18025,0.0414788,-0.20336,0.0699064,0.0246,0.588058,-0.0084444,0,5.81616e-05,0,0,0,0.0699163,0.0204175,0.588042,-0.00871163,0.125485,0.00045847,-1.43082e-05,0.000106897,5.14169e-07,-9.25596e+61,-9.25596e+61
0.0825609,0.0843203,-1.11087,-0.147517,2.21289,-0.0656225,0.610364,-0.074196,0.223891,-0.0344914,-0.389045,-0.0441966,-0.174827,0.0416006,-0.197234,0.0698979,0.0246,0.588058,-0.00854794,0,6.03275e-05,0,0,0,0.0699075,0.020543,0.588043,-0.00881005,0.12172,0.000451477,-1.4007e-05,0.000100556,2.53558e-07,-9.25596e+61,-9.25596e+61
0.083561,0.0845373,-1.11091,-0.147895,2.21285,-0.0657921,0.610406,-0.0743873,0.217055,-0.034443,-0.377198,-0.0433443,-0.169568,0.041725,-0.191293,0.0698893,0.0246,0.588058,-0.00865147,0,6.25464e-05,0,0,0,0.0698987,0.0206647,0.588043,-0.00890855,0.118067,0.000444646,-1.37106e-05,9.45912e-05,1.17641e-08,-9.25596e+61,-9.25596e+61
0.0845612,0.0847478,-1.11094,-0.14826,2.2128,-0.0659566,0.610448,-0.0745729,0.210425,-0.034402,-0.365708,-0.0425128,-0.164468,0.0418524,-0.185531,0.0698806,0.0246,0.588058,-0.00875502,0,6.48194e-05,0,0,0,0.0698898,0.0207828,0.588044,-0.00900716,0.114525,0.000437978,-1.34203e-05,8.89881e-05,-2.1226e-07,-9.25596e+61,-9.25596e+61
0.0855614,0.0849518,-1.11098,-0.148615,2.21276,-0.0661162,0.61049,-0.0747529,0.203991,-0.0343681,-0.354562,-0.0417017,-0.159521,0.0419828,-0.179942,0.0698718,0.0246,0.588058,-0.00885856,0,6.71467e-05,0,0,0,0.0698808,0.0208973,0.588044,-0.00910582,0.111088,0.00043149,-1.31334e-05,8.37073e-05,-4.19417e-07,-9.25596e+61,-9.25596e+61
0.0865616,0.0851496,-1.11101,-0.148959,2.21272,-0.0662709,0.610532,-0.0749274,0.19775,-0.0343412,-0.343752,-0.0409109,-0.154723,0.0421163,-0.174522,0.0698629,0.0246,0.588058,-0.0089621,0,6.95291e-05,0,0,0,0.0698717,0.0210084,0.588045,-0.00920456,0.107755,0.000425184,-1.28514e-05,7.87391e-05,-6.10627e-07,-9.25596e+61,-9.25596e+61
0.0875617,0.0853413,-1.11104,-0.149292,2.21268,-0.066421,0.610574,-0.0750967,0.191696,-0.0343211,-0.333267,-0.0401403,-0.15007,0.0422531,-0.169265,0.0698538,0.0246,0.588058,-0.00906563,0,7.1967e-05,0,0,0,0.0698624,0.0211162,0.588045,-0.00930335,0.104521,0.000419067,-1.25728e-05,7.40578e-05,-7.86668e-07,-9.25596e+61,-9.25596e+61
0.0885618,0.0855272,-1.11108,-0.149615,2.21264,-0.0665666,0.610617,-0.0752609,0.185823,-0.034308,-0.323099,-0.0393899,-0.145557,0.0423935,-0.164167,0.0698447,0.0246,0.588058,-0.00916917,0,7.44612e-05,0,0,0,0.0698531,0.0212207,0.588046,-0.00940224,0.101385,0.000413138,-1.23005e-05,6.96615e-05,-9.48555e-07,-9.25596e+61,-9.25596e+61
0.0895619,0.0857073,-1.11111,-0.149928,2.2126,-0.0667078,0.610659,-0.0754201,0.180125,-0.0343016,-0.313236,-0.0386592,-0.14118,0.0425376,-0.159222,0.0698355,0.0246,0.588058,-0.0092727,0,7.70123e-05,0,0,0,0.0698437,0.0213221,0.588046,-0.00950122,0.098343,0.000407402,-1.20331e-05,6.55256e-05,-1.09702e-06,-9.25596e+61,-9.25596e+61
0.0905621,0.085882,-1.11115,-0.150232,2.21256,-0.0668447,0.610702,-0.0755746,0.174598,-0.0343019,-0.30367,-0.0379481,-0.136935,0.0426855,-0.154427,0.0698262,0.0246,0.588059,-0.00937624,0,7.96214e-05,0,0,0,0.0698342,0.0214205,0.588046,-0.00960032,0.0953922,0.000401861,-1.17716e-05,6.16408e-05,-1.23299e-06,-9.25596e+61,-9.25596e+61
0.0915622,0.0860512,-1.11118,-0.150527,2.21253,-0.0669776,0.610745,-0.0757244,0.169235,-0.0343085,-0.29439,-0.0372561,-0.132818,0.0428369,-0.149776,0.0698167,0.0246,0.588059,-0.00947976,0,8.22884e-05,0,0,0,0.0698246,0.0215159,0.588047,-0.00969943,0.0925297,0.000396528,-1.15125e-05,5.79737e-05,-1.35675e-06,-9.25596e+61,-9.25596e+61
0.0925623,0.0862153,-1.11122,-0.150812,2.21249,-0.0671064,0.610788,-0.0758696,0.164033,-0.0343217,-0.28539,-0.0365833,-0.128825,0.0429924,-0.145265,0.0698072,0.0246,0.588059,-0.00958329,0,8.50143e-05,0,0,0,0.0698149,0.0216084,0.588047,-0.00979866,0.0897534,0.000391394,-1.12593e-05,5.45299e-05,-1.46942e-06,-9.25596e+61,-9.25596e+61
0.0935624,0.0863743,-1.11125,-0.151089,2.21245,-0.0672314,0.610831,-0.0760106,0.158986,-0.0343412,-0.276661,-0.0359293,-0.124952,0.0431518,-0.14089,0.0697976,0.0246,0.588059,-0.00968682,0,8.77998e-05,0,0,0,0.0698051,0.0216982,0.588048,-0.00989798,0.0870603,0.000386466,-1.10109e-05,5.12902e-05,-1.57153e-06,-9.25596e+61,-9.25596e+61
0.0945625,0.0865284,-1.11128,-0.151357,2.21242,-0.0673526,0.610874,-0.0761472,0.154089,-0.0343668,-0.268193,-0.0352938,-0.121195,0.0433152,-0.136647,0.0697878,0.0246,0.588059,-0.00979035,0,9.06454e-05,0,0,0,0.0697952,0.0217852,0.588048,-0.00999737,0.0844481,0.000381745,-1.07671e-05,4.82423e-05,-1.66371e-06,-9.25596e+61,-9.25596e+61
0.0955771,0.0866799,-1.11132,-0.151621,2.21238,-0.0674718,0.610918,-0.0762817,0.149338,-0.0344137,-0.259978,-0.034682,-0.117552,0.0435034,-0.132532,0.0697778,0.0246,0.588059,-0.00989537,0,9.35945e-05,0,0,0,0.0697852,0.0218697,0.588049,-0.0101025,0.0819143,0.000376884,-1.06864e-05,4.60327e-05,-1.7748e-06,-9.25596e+61,-9.25596e+61
0.0965772,0.0868246,-1.11135,-0.151873,2.21235,-0.0675858,0.610962,-0.0764102,0.144664,-0.0344362,-0.251898,-0.0340683,-0.113967,0.043656,-0.128483,0.0697679,0.0246,0.588059,-0.0099989,0,9.65634e-05,0,0,0,0.0697749,0.0219528,0.588049,-0.0101977,0.0794208,0.000372869,-1.02898e-05,4.2639e-05,-1.8216e-06,-9.25596e+61,-9.25596e+61
0.0975773,0.0869648,-1.11139,-0.152117,2.21232,-0.0676964,0.611006,-0.0765348,0.140195,-0.0344798,-0.244174,-0.0334868,-0.110541,0.0438315,-0.124613,0.0697578,0.0246,0.588059,-0.0101024,0,9.95944e-05,0,0,0,0.0697647,0.0220322,0.588049,-0.0102974,0.0770378,0.000368777,-1.00598e-05,4.01037e-05,-1.88737e-06,-9.25596e+61,-9.25596e+61
0.098585,0.0871017,-1.11142,-0.152355,2.21228,-0.0678044,0.61105,-0.0766566,0.135858,-0.0345372,-0.23668,-0.0329256,-0.107218,0.0440224,-0.12086,0.0697476,0.0246,0.588059,-0.0102067,0,0.000102712,0,0,0,0.0697544,0.0221093,0.58805,-0.0104001,0.0747264,0.000364755,-9.91173e-06,3.80051e-05,-1.96163e-06,-9.25596e+61,-9.25596e+61
0.0998732,0.0872712,-1.11147,-0.152651,2.21224,-0.0679384,0.611108,-0.0768076,0.131586,-0.0348964,-0.229317,-0.0324839,-0.103971,0.0446231,-0.11719,0.0697344,0.0246,0.588059,-0.0103401,0,0.000106791,0,0,0,0.0697439,0.0221846,0.58805,-0.0106139,0.0724684,0.000356307,-1.25124e-05,4.56682e-05,-2.63778e-06,-9.25596e+61,-9.25596e+61
0.100873,0.0873976,-1.1115,-0.152871,2.21221,-0.0680383,0.611152,-0.0769202,0.126366,-0.034651,-0.220281,-0.0316843,-0.0999456,0.0444237,-0.112646,0.069724,0.0246,0.588059,-0.0104436,0,0.000110031,0,0,0,0.0697302,0.0222779,0.588051,-0.0106223,0.0696664,0.000356803,-9.32773e-06,3.27525e-05,-2.05052e-06,-9.25596e+61,-9.25596e+61
0.102238,0.0875646,-1.11155,-0.153162,2.21217,-0.0681706,0.611214,-0.0770693,0.122397,-0.0351209,-0.213452,-0.0313206,-0.0969412,0.0451677,-0.109251,0.0697096,0.0246,0.58806,-0.0105849,0,0.000114559,0,0,0,0.0697196,0.0223476,0.588051,-0.0108729,0.0675775,0.000348638,-1.26113e-05,4.20365e-05,-2.93124e-06,-9.25596e+61,-9.25596e+61
0.103238,0.0876819,-1.11159,-0.153367,2.21214,-0.0682636,0.611259,-0.0771741,0.117248,-0.0348031,-0.204535,-0.0304969,-0.0929645,0.0448671,-0.104762,0.069699,0.0246,0.58806,-0.0106884,0,0.000117953,0,0,0,0.0697048,0.0224398,0.588051,-0.0108538,0.0648087,0.000349606,-8.82881e-06,2.83142e-05,-2.12444e-06,-9.25596e+61,-9.25596e+61
0.10424,0.0877957,-1.11162,-0.153566,2.21211,-0.068354,0.611304,-0.0772759,0.113596,-0.0348852,-0.19823,-0.0300261,-0.0901703,0.0450734,-0.101606,0.0696882,0.0246,0.58806,-0.0107921,0,0.000121421,0,0,0,0.0696939,0.0225046,0.588052,-0.010955,0.0628642,0.000346892,-8.64388e-06,2.66757e-05,-2.15176e-06,-9.25596e+61,-9.25596e+61
0.10524,0.0879058,-1.11166,-0.153758,2.21208,-0.0684414,0.611349,-0.0773745,0.110046,-0.0349682,-0.192104,-0.0295682,-0.0874552,0.0452785,-0.0985403,0.0696774,0.0246,0.58806,-0.0108956,0,0.000124949,0,0,0,0.0696829,0.0225676,0.588052,-0.0110549,0.0609746,0.000344421,-8.43036e-06,2.50386e-05,-2.1659e-06,-9.25596e+61,-9.25596e+61
0.106241,0.0880124,-1.11169,-0.153944,2.21205,-0.0685263,0.611395,-0.07747,0.106609,-0.035058,-0.186171,-0.0291269,-0.0848265,0.0454899,-0.0955719,0.0696664,0.0246,0.58806,-0.0109991,0,0.000128545,0,0,0,0.0696719,0.0226286,0.588052,-0.0111555,0.0591451,0.000342142,-8.23726e-06,2.35465e-05,-2.1796e-06,-9.25596e+61,-9.25596e+61
0.107241,0.0881157,-1.11173,-0.154124,2.21202,-0.0686085,0.61144,-0.0775627,0.103273,-0.0351524,-0.180416,-0.0287001,-0.0822769,0.0457051,-0.0926928,0.0696554,0.0246,0.58806,-0.0111026,0,0.00013221,0,0,0,0.0696607,0.0226878,0.588053,-0.0112562,0.0573705,0.000340069,-8.04804e-06,2.21428e-05,-2.18906e-06,-9.25596e+61,-9.25596e+61
0.108241,0.0882157,-1.11176,-0.154299,2.21199,-0.0686883,0.611486,-0.0776527,0.100037,-0.0352514,-0.174834,-0.0282877,-0.0798038,0.0459242,-0.0899004,0.0696442,0.0246,0.58806,-0.0112061,0,0.000135943,0,0,0,0.0696494,0.0227451,0.588053,-0.011357,0.0556491,0.0003382,-7.86261e-06,2.08224e-05,-2.19457e-06,-9.25596e+61,-9.25596e+61
0.109241,0.0883126,-1.1118,-0.154469,2.21196,-0.0687658,0.611532,-0.0777399,0.096897,-0.0353548,-0.169418,-0.0278893,-0.0774051,0.0461471,-0.0871919,0.069633,0.0246,0.588061,-0.0113097,0,0.000139746,0,0,0,0.0696381,0.0228008,0.588054,-0.0114578,0.0539794,0.000336536,-7.68093e-06,1.95804e-05,-2.19644e-06,-9.25596e+61,-9.25596e+61
0.110241,0.0884065,-1.11183,-0.154633,2.21194,-0.0688408,0.611579,-0.0778244,0.0938503,-0.0354626,-0.164164,-0.0275045,-0.0750784,0.0463736,-0.0845648,0.0696216,0.0246,0.588061,-0.0114132,0,0.000143619,0,0,0,0.0696266,0.0228548,0.588054,-0.0115586,0.0523598,0.000335074,-7.50292e-06,1.8412e-05,-2.19491e-06,-9.25596e+61,-9.25596e+61
0.111241,0.0884974,-1.11187,-0.154792,2.21191,-0.0689137,0.611625,-0.0779065,0.0908942,-0.0355745,-0.159067,-0.0271332,-0.0728216,0.0466039,-0.0820168,0.0696101,0.0246,0.588061,-0.0115167,0,0.000147563,0,0,0,0.0696151,0.0229071,0.588054,-0.0116596,0.0507888,0.000333813,-7.32852e-06,1.73129e-05,-2.19026e-06,-9.25596e+61,-9.25596e+61
0.112241,0.0885854,-1.1119,-0.154946,2.21188,-0.0689843,0.611672,-0.077986,0.0880259,-0.0356908,-0.154123,-0.0267749,-0.0706325,0.0468379,-0.0795453,0.0695986,0.0246,0.588061,-0.0116202,0,0.000151579,0,0,0,0.0696034,0.0229579,0.588055,-0.0117606,0.0492649,0.000332751,-7.15841e-06,1.62807e-05,-2.18294e-06,-9.25596e+61,-9.25596e+61
0.113241,0.0886707,-1.11194,-0.155095,2.21185,-0.0690528,0.611719,-0.0780632,0.0852425,-0.0358108,-0.149326,-0.0264294,-0.068509,0.0470752,-0.077148,0.0695869,0.0246,0.588061,-0.0117237,0,0.000155667,0,0,0,0.0695916,0.0230072,0.588055,-0.0118616,0.0477866,0.000331887,-6.99028e-06,1.53064e-05,-2.17249e-06,-9.25596e+61,-9.25596e+61
0.114241,0.0887532,-1.11197,-0.15524,2.21183,-0.0691193,0.611767,-0.078138,0.082542,-0.0359348,-0.144672,-0.0260964,-0.0664495,0.0473162,-0.0748229,0.0695751,0.0246,0.588061,-0.0118272,0,0.000159828,0,0,0,0.0695798,0.023055,0.588055,-0.0119627,0.0463528,0.00033122,-6.82634e-06,1.43917e-05,-2.15982e-06,-9.25596e+61,-9.25596e+61
0.115622,0.0888635,-1.11202,-0.155434,2.21179,-0.0692083,0.611833,-0.0782382,0.0798692,-0.0365228,-0.140096,-0.0259447,-0.064451,0.0481933,-0.072565,0.0695587,0.0246,0.588062,-0.0119701,0,0.000165694,0,0,0,0.0695678,0.0231013,0.588056,-0.0122386,0.0449629,0.000330679,-9.33226e-06,1.86801e-05,-3.0229e-06,-9.25596e+61,-9.25596e+61
0.117152,0.0889803,-1.11208,-0.155639,2.21175,-0.0693028,0.611908,-0.0783446,0.0763388,-0.036873,-0.134025,-0.0255808,-0.0617749,0.0487679,-0.0695435,0.0695403,0.0246,0.588062,-0.0121284,0,0.000172357,0,0,0,0.0695509,0.0231634,0.588056,-0.0124426,0.0431003,0.000330762,-1.00464e-05,1.89892e-05,-3.3314e-06,-9.25596e+61,-9.25596e+61
0.118152,0.089053,-1.11212,-0.155766,2.21173,-0.0693617,0.611956,-0.0784109,0.0726859,-0.0364103,-0.127692,-0.0248861,-0.0589352,0.0482309,-0.0663409,0.0695281,0.0246,0.588062,-0.0122319,0,0.000176809,0,0,0,0.0695319,0.0232294,0.588057,-0.0123425,0.0411213,0.000330247,-6.20502e-06,1.12927e-05,-2.08565e-06,-9.25596e+61,-9.25596e+61
0.119152,0.0891233,-1.11215,-0.15589,2.2117,-0.0694189,0.612004,-0.0784753,0.0703578,-0.0365535,-0.123684,-0.0246112,-0.057163,0.0484901,-0.0643406,0.0695158,0.0246,0.588062,-0.0123354,0,0.000181337,0,0,0,0.0695195,0.0232705,0.588057,-0.0124443,0.0398875,0.000330529,-6.05755e-06,1.06163e-05,-2.06381e-06,-9.25596e+61,-9.25596e+61
0.120152,0.0891915,-1.11219,-0.15601,2.21168,-0.0694744,0.612053,-0.0785377,0.0680987,-0.0367,-0.119795,-0.0243471,-0.055444,0.0487525,-0.0624005,0.0695034,0.0246,0.588062,-0.0124389,0,0.000185941,0,0,0,0.0695071,0.0233104,0.588057,-0.0125463,0.0386907,0.000330997,-5.91312e-06,9.9801e-06,-2.04052e-06,-9.25596e+61,-9.25596e+61
0.121152,0.0892574,-1.11223,-0.156126,2.21166,-0.0695281,0.612102,-0.0785982,0.0659065,-0.0368497,-0.116022,-0.0240935,-0.0537765,0.0490179,-0.0605187,0.0694909,0.0246,0.588062,-0.0125424,0,0.000190623,0,0,0,0.0694945,0.0233491,0.588058,-0.0126482,0.0375298,0.000331651,-5.77166e-06,9.38169e-06,-2.01592e-06,-9.25596e+61,-9.25596e+61
0.122153,0.0893211,-1.11226,-0.156238,2.21163,-0.0695803,0.612151,-0.0786569,0.0637792,-0.0370025,-0.112362,-0.0238504,-0.0521591,0.0492863,-0.0586934,0.0694783,0.0246,0.588063,-0.0126459,0,0.000195382,0,0,0,0.0694819,0.0233866,0.588058,-0.0127502,0.0364038,0.000332489,-5.63312e-06,8.81884e-06,-1.99014e-06,-9.25596e+61,-9.25596e+61
0.123153,0.0893829,-1.1123,-0.156347,2.21161,-0.0696309,0.612201,-0.0787138,0.0617148,-0.0371584,-0.10881,-0.0236173,-0.0505902,0.0495577,-0.0569229,0.0694656,0.0246,0.588063,-0.0127493,0,0.00020022,0,0,0,0.0694691,0.023423,0.588058,-0.0128522,0.0353115,0.00033351,-5.49745e-06,8.28946e-06,-1.9633e-06,-9.25596e+61,-9.25596e+61
0.124153,0.0894426,-1.11234,-0.156452,2.21159,-0.06968,0.612251,-0.0787691,0.0597114,-0.0373172,-0.105364,-0.023394,-0.0490683,0.0498321,-0.0552056,0.0694528,0.0246,0.588063,-0.0128528,0,0.000205138,0,0,0,0.0694563,0.0234583,0.588059,-0.0129543,0.034252,0.00033471,-5.36459e-06,7.79156e-06,-1.93551e-06,-9.25596e+61,-9.25596e+61
0.125153,0.0895004,-1.11238,-0.156554,2.21156,-0.0697276,0.612301,-0.0788226,0.0577673,-0.0374789,-0.102021,-0.0231803,-0.0475921,0.0501092,-0.0535399,0.0694399,0.0246,0.588063,-0.0129563,0,0.000210135,0,0,0,0.0694433,0.0234926,0.588059,-0.0130564,0.0332243,0.00033609,-5.23449e-06,7.32327e-06,-1.90688e-06,-9.25596e+61,-9.25596e+61
0.126153,0.0895562,-1.11241,-0.156653,2.21154,-0.0697737,0.612351,-0.0788745,0.0558806,-0.0376434,-0.0987767,-0.022976,-0.0461601,0.0503891,-0.0519242,0.0694269,0.0246,0.588064,-0.0130598,0,0.000215212,0,0,0,0.0694303,0.0235258,0.588059,-0.0131585,0.0322274,0.000337648,-5.10709e-06,6.88283e-06,-1.8775e-06,-9.25596e+61,-9.25596e+61
0.127153,0.0896103,-1.11245,-0.156749,2.21152,-0.0698185,0.612402,-0.0789249,0.0540496,-0.0378106,-0.0956291,-0.0227808,-0.044771,0.0506718,-0.0503571,0.0694138,0.0246,0.588064,-0.0131633,0,0.000220371,0,0,0,0.0694171,0.023558,0.58806,-0.0132607,0.0312605,0.000339381,-4.98235e-06,6.46861e-06,-1.84748e-06,-9.25596e+61,-9.25596e+61
0.128153,0.0896626,-1.11249,-0.156841,2.21149,-0.0698619,0.612453,-0.0789737,0.0522727,-0.0379804,-0.092575,-0.0225946,-0.0434236,0.0509571,-0.048837,0.0694006,0.0246,0.588064,-0.0132667,0,0.000225612,0,0,0,0.0694038,0.0235893,0.58806,-0.0133629,0.0303225,0.00034129,-4.86021e-06,6.07904e-06,-1.81689e-06,-9.25596e+61,-9.25596e+61
0.129153,0.0897131,-1.11253,-0.156931,2.21147,-0.0699041,0.612504,-0.0790211,0.0505482,-0.0381528,-0.0896115,-0.022417,-0.0421166,0.0512451,-0.0473625,0.0693873,0.0246,0.588064,-0.0133702,0,0.000230935,0,0,0,0.0693905,0.0236196,0.58806,-0.0134651,0.0294127,0.000343371,-4.74062e-06,5.71267e-06,-1.78582e-06,-9.25596e+61,-9.25596e+61
0.130153,0.089762,-1.11257,-0.157018,2.21145,-0.0699449,0.612556,-0.079067,0.0488745,-0.0383277,-0.086736,-0.0222478,-0.0408487,0.0515356,-0.0459323,0.0693738,0.0246,0.588064,-0.0134737,0,0.000236341,0,0,0,0.069377,0.023649,0.588061,-0.0135673,0.0285302,0.000345624,-4.62353e-06,5.36811e-06,-1.75434e-06,-9.25596e+61,-9.25596e+61
0.131153,0.0898093,-1.11261,-0.157102,2.21143,-0.0699845,0.612608,-0.0791116,0.0472501,-0.038505,-0.0839458,-0.0220869,-0.0396189,0.0518286,-0.0445451,0.0693603,0.0246,0.588065,-0.0135771,0,0.00024183,0,0,0,0.0693634,0.0236776,0.588061,-0.0136696,0.0276742,0.000348047,-4.5089e-06,5.04407e-06,-1.72253e-06,-9.25596e+61,-9.25596e+61
0.132154,0.089855,-1.11264,-0.157183,2.2114,-0.070023,0.61266,-0.0791548,0.0456736,-0.0386848,-0.0812384,-0.0219341,-0.0384258,0.0521243,-0.0431995,0.0693467,0.0246,0.588065,-0.0136806,0,0.000247405,0,0,0,0.0693498,0.0237052,0.588061,-0.013772,0.0268439,0.000350639,-4.39713e-06,4.73982e-06,-1.69062e-06,-9.25596e+61,-9.25596e+61
0.133154,0.0898991,-1.11268,-0.157262,2.21138,-0.0700602,0.612712,-0.0791967,0.0441433,-0.0388666,-0.0786109,-0.021789,-0.0372684,0.052422,-0.0418941,0.0693329,0.0246,0.588065,-0.0137841,0,0.000253064,0,0,0,0.069336,0.0237321,0.588062,-0.0138743,0.0260384,0.000353398,-4.28679e-06,4.45275e-06,-1.65814e-06,-9.25596e+61,-9.25596e+61
0.134154,0.0899418,-1.11272,-0.157338,2.21136,-0.0700964,0.612765,-0.0792373,0.0426582,-0.0390507,-0.0760615,-0.0216516,-0.0361458,0.0527222,-0.0406281,0.0693191,0.0246,0.588065,-0.0138875,0,0.000258809,0,0,0,0.0693221,0.0237581,0.588062,-0.0139766,0.0252571,0.000356323,-4.17924e-06,4.18327e-06,-1.62569e-06,-9.25596e+61,-9.25596e+61
0.135154,0.089983,-1.11276,-0.157411,2.21134,-0.0701314,0.612818,-0.0792767,0.0412168,-0.0392372,-0.0735875,-0.0215217,-0.0350568,0.0530249,-0.0394,0.0693052,0.0246,0.588066,-0.013991,0,0.00026464,0,0,0,0.0693081,0.0237834,0.588062,-0.0140791,0.0244993,0.000359414,-4.07437e-06,3.93026e-06,-1.5933e-06,-9.25596e+61,-9.25596e+61
0.136154,0.0900228,-1.1128,-0.157482,2.21132,-0.0701655,0.612871,-0.0793149,0.0398175,-0.0394255,-0.0711866,-0.021399,-0.0340002,0.0533297,-0.0382087,0.0692911,0.0246,0.588066,-0.0140945,0,0.000270559,0,0,0,0.069294,0.0238079,0.588063,-0.0141815,0.0237642,0.000362668,-3.97128e-06,3.69192e-06,-1.56068e-06,-9.25596e+61,-9.25596e+61
0.137154,0.0900613,-1.11284,-0.157551,2.2113,-0.0701984,0.612925,-0.079352,0.0384594,-0.0396158,-0.0688567,-0.0212833,-0.0329754,0.0536365,-0.0370531,0.069277,0.0246,0.588066,-0.0141979,0,0.000276564,0,0,0,0.0692799,0.0238317,0.588063,-0.0142839,0.0230511,0.000366083,-3.86996e-06,3.46746e-06,-1.5279e-06,-9.25596e+61,-9.25596e+61
0.138154,0.0900984,-1.11288,-0.157618,2.21128,-0.0702304,0.612979,-0.0793879,0.0371413,-0.0398081,-0.0665958,-0.0211746,-0.0319813,0.0539457,-0.0359323,0.0692627,0.0246,0.588066,-0.0143014,0,0.000282658,0,0,0,0.0692656,0.0238547,0.588063,-0.0143864,0.0223594,0.000369659,-3.7712e-06,3.25677e-06,-1.49531e-06,-9.25596e+61,-9.25596e+61
0.139155,0.0901343,-1.11292,-0.157682,2.21125,-0.0702614,0.613033,-0.0794228,0.0358617,-0.0400025,-0.0644017,-0.0210726,-0.0310169,0.0542571,-0.0348451,0.0692484,0.0246,0.588067,-0.0144048,0,0.000288841,0,0,0,0.0692512,0.0238771,0.588064,-0.0144889,0.0216886,0.000373397,-3.67491e-06,3.05896e-06,-1.46294e-06,-9.25596e+61,-9.25596e+61
0.140155,0.0901689,-1.11296,-0.157745,2.21123,-0.0702915,0.613088,-0.0794566,0.0346196,-0.0401984,-0.0622723,-0.020977,-0.0300813,0.0545702,-0.0337905,0.0692339,0.0246,0.588067,-0.0145083,0,0.000295113,0,0,0,0.0692367,0.0238988,0.588064,-0.0145914,0.0210378,0.000377292,-3.5799e-06,2.87237e-06,-1.43036e-06,-9.25596e+61,-9.25596e+61
0.141155,0.0902023,-1.113,-0.157805,2.21121,-0.0703207,0.613143,-0.0794894,0.033414,-0.0403962,-0.0602058,-0.0208879,-0.0291738,0.0548854,-0.0327675,0.0692193,0.0246,0.588067,-0.0146117,0,0.000301475,0,0,0,0.0692221,0.0239198,0.588065,-0.014694,0.0204065,0.000381344,-3.48729e-06,2.69723e-06,-1.39808e-06,-9.25596e+61,-9.25596e+61
0.14225,0.0902376,-1.11305,-0.157869,2.21119,-0.0703517,0.613203,-0.0795242,0.0322278,-0.0407308,-0.0581818,-0.0208564,-0.028293,0.0553902,-0.0317745,0.0692033,0.0246,0.588068,-0.014725,0,0.000308548,0,0,0,0.0692074,0.0239402,0.588065,-0.0148484,0.0197944,0.000386816,-3.73238e-06,2.77336e-06,-1.50146e-06,-9.25596e+61,-9.25596e+61
0.14325,0.0902686,-1.11309,-0.157925,2.21117,-0.0703791,0.613259,-0.0795549,0.0309996,-0.0408122,-0.0560689,-0.0207192,-0.027358,0.0555466,-0.0307211,0.0691885,0.0246,0.588068,-0.0148284,0,0.000315101,0,0,0,0.0691911,0.0239619,0.588065,-0.0149073,0.0191438,0.000390304,-3.29907e-06,2.36326e-06,-1.33081e-06,-9.25596e+61,-9.25596e+61
0.14425,0.0902985,-1.11313,-0.157979,2.21115,-0.0704056,0.613315,-0.0795847,0.0298998,-0.0410153,-0.0541853,-0.0206488,-0.026532,0.055868,-0.0297902,0.0691736,0.0246,0.588068,-0.0149319,0,0.000321746,0,0,0,0.0691762,0.023981,0.588066,-0.01501,0.0185694,0.000394839,-3.21244e-06,2.21857e-06,-1.29914e-06,-9.25596e+61,-9.25596e+61
0.145251,0.0903274,-1.11317,-0.158031,2.21113,-0.0704313,0.613371,-0.0796136,0.0288321,-0.04122,-0.0523571,-0.0205841,-0.0257306,0.0561912,-0.0288872,0.0691586,0.0246,0.588069,-0.0150353,0,0.000328484,0,0,0,0.0691612,0.0239996,0.588066,-0.0151127,0.0180122,0.000399527,-3.12765e-06,2.08254e-06,-1.2677e-06,-9.25596e+61,-9.25596e+61
0.146371,0.0903585,-1.11321,-0.158088,2.21111,-0.0704593,0.613435,-0.079645,0.027775,-0.0416011,-0.0505585,-0.0205921,-0.0249526,0.0567596,-0.0280102,0.0691417,0.0246,0.588069,-0.0151512,0,0.000336146,0,0,0,0.0691461,0.0240176,0.588067,-0.0152827,0.0174719,0.000406154,-3.42623e-06,2.19014e-06,-1.39186e-06,-9.25596e+61,-9.25596e+61
0.147371,0.0903852,-1.11326,-0.158137,2.21108,-0.0704834,0.613491,-0.079672,0.0266682,-0.0416535,-0.048653,-0.0204628,-0.0241079,0.0568748,-0.027059,0.0691265,0.0246,0.588069,-0.0152546,0,0.000343083,0,0,0,0.069129,0.0240372,0.588067,-0.0153284,0.0168842,0.000409919,-2.95319e-06,1.8202e-06,-1.20169e-06,-9.25596e+61,-9.25596e+61
0.148372,0.0904109,-1.1133,-0.158184,2.21106,-0.0705068,0.613549,-0.0796983,0.0256946,-0.0418629,-0.0469874,-0.020415,-0.023379,0.0572036,-0.0262378,0.0691112,0.0246,0.58807,-0.015358,0,0.000350114,0,0,0,0.0691136,0.0240541,0.588067,-0.0154312,0.0163776,0.000415081,-2.87394e-06,1.70805e-06,-1.17115e-06,-9.25596e+61,-9.25596e+61
0.149372,0.0904356,-1.11334,-0.158229,2.21104,-0.0705295,0.613606,-0.0797237,0.0247493,-0.0420738,-0.0453706,-0.0203725,-0.0226719,0.0575343,-0.0254413,0.0690958,0.0246,0.58807,-0.0154615,0,0.000357242,0,0,0,0.0690982,0.0240705,0.588068,-0.015534,0.0158863,0.000420395,-2.79666e-06,1.60279e-06,-1.14104e-06,-9.25596e+61,-9.25596e+61
0.150372,0.0904595,-1.11338,-0.158273,2.21102,-0.0705514,0.613664,-0.0797484,0.0238315,-0.0422857,-0.043801,-0.0203349,-0.0219858,0.0578662,-0.0246685,0.0690803,0.0246,0.58807,-0.0155649,0,0.000364465,0,0,0,0.0690827,0.0240864,0.588068,-0.0156368,0.0154096,0.000425855,-2.72046e-06,1.50352e-06,-1.11101e-06,-9.25596e+61,-9.25596e+61
0.151372,0.0904824,-1.11343,-0.158315,2.211,-0.0705728,0.613722,-0.0797723,0.0229403,-0.042499,-0.0422776,-0.0203021,-0.0213203,0.0581998,-0.023919,0.0690647,0.0246,0.588071,-0.0156683,0,0.000371784,0,0,0,0.069067,0.0241018,0.588069,-0.0157396,0.0149472,0.000431465,-2.64618e-06,1.41038e-06,-1.08144e-06,-9.25596e+61,-9.25596e+61
0.152372,0.0905045,-1.11347,-0.158356,2.21098,-0.0705934,0.613781,-0.0797955,0.022075,-0.0427135,-0.0407988,-0.0202741,-0.0206746,0.0585349,-0.0231919,0.0690489,0.0246,0.588071,-0.0157717,0,0.000379201,0,0,0,0.0690513,0.0241167,0.588069,-0.0158425,0.0144987,0.000437221,-2.57348e-06,1.32283e-06,-1.05221e-06,-9.25596e+61,-9.25596e+61
0.153372,0.0905257,-1.11351,-0.158395,2.21096,-0.0706135,0.61384,-0.079818,0.0212347,-0.0429293,-0.0393633,-0.0202508,-0.0200482,0.0588715,-0.0224866,0.0690331,0.0246,0.588072,-0.0158751,0,0.000386716,0,0,0,0.0690354,0.0241312,0.58807,-0.0159453,0.0140637,0.000443124,-2.50234e-06,1.24055e-06,-1.02335e-06,-9.25596e+61,-9.25596e+61
0.154372,0.0905461,-1.11355,-0.158433,2.21094,-0.0706329,0.613899,-0.0798398,0.0204188,-0.0431461,-0.0379696,-0.0202319,-0.0194405,0.0592096,-0.0218024,0.0690172,0.0246,0.588072,-0.0159785,0,0.00039433,0,0,0,0.0690195,0.0241453,0.58807,-0.0160482,0.0136417,0.000449174,-2.43271e-06,1.16321e-06,-9.94847e-07,-9.25596e+61,-9.25596e+61
0.155378,0.0905659,-1.1136,-0.15847,2.21092,-0.0706519,0.613959,-0.0798611,0.0196254,-0.0433728,-0.0366155,-0.0202208,-0.0188509,0.0595612,-0.0211387,0.0690011,0.0246,0.588072,-0.0160824,0,0.000402087,0,0,0,0.0690035,0.0241589,0.588071,-0.0161544,0.0132324,0.000455472,-2.37849e-06,1.09673e-06,-9.72403e-07,-9.25596e+61,-9.25596e+61
0.156378,0.0905847,-1.11364,-0.158505,2.2109,-0.0706702,0.614019,-0.0798815,0.0188526,-0.0435841,-0.0352958,-0.0202071,-0.0182757,0.0598917,-0.0204912,0.0689849,0.0246,0.588073,-0.0161858,0,0.0004099,0,0,0,0.0689872,0.0241722,0.588071,-0.0162544,0.0128331,0.000461741,-2.29751e-06,1.02185e-06,-9.38799e-07,-9.25596e+61,-9.25596e+61
0.157378,0.0906028,-1.11369,-0.158539,2.21088,-0.0706879,0.614079,-0.0799014,0.0181054,-0.0438042,-0.0340208,-0.0202011,-0.0177208,0.060234,-0.0198667,0.0689687,0.0246,0.588073,-0.0162892,0,0.000417813,0,0,0,0.0689709,0.0241851,0.588071,-0.0163573,0.0124481,0.000468226,-2.23227e-06,9.57694e-07,-9.1143e-07,-9.25596e+61,-9.25596e+61
0.158378,0.0906202,-1.11373,-0.158572,2.21086,-0.0707051,0.61414,-0.0799207,0.0173798,-0.0440253,-0.0327829,-0.0201991,-0.0171825,0.0605776,-0.019261,0.0689523,0.0246,0.588074,-0.0163926,0,0.000425828,0,0,0,0.0689546,0.0241975,0.588072,-0.0164602,0.0120746,0.000474853,-2.16843e-06,8.97405e-07,-8.84446e-07,-9.25596e+61,-9.25596e+61
0.159379,0.0906369,-1.11377,-0.158604,2.21084,-0.0707217,0.6142,-0.0799394,0.016675,-0.0442473,-0.031581,-0.0202011,-0.0166603,0.0609225,-0.0186733,0.0689359,0.0246,0.588074,-0.0164959,0,0.000433945,0,0,0,0.0689381,0.0242096,0.588072,-0.0165631,0.0117123,0.000481624,-2.10595e-06,8.40755e-07,-8.57851e-07,-9.25596e+61,-9.25596e+61
0.160379,0.0906529,-1.11382,-0.158634,2.21082,-0.0707379,0.614262,-0.0799575,0.0159905,-0.0444702,-0.030414,-0.020207,-0.0161536,0.0612687,-0.0181032,0.0689193,0.0246,0.588074,-0.0165993,0,0.000442164,0,0,0,0.0689216,0.0242213,0.588073,-0.016666,0.0113609,0.000488538,-2.04481e-06,7.87527e-07,-8.31646e-07,-9.25596e+61,-9.25596e+61
0.161379,0.0906682,-1.11386,-0.158663,2.2108,-0.0707536,0.614323,-0.079975,0.0153256,-0.0446941,-0.0292809,-0.0202166,-0.015662,0.0616161,-0.0175502,0.0689027,0.0246,0.588075,-0.0167027,0,0.000450486,0,0,0,0.0689049,0.0242327,0.588073,-0.016769,0.01102,0.000495594,-1.98498e-06,7.37518e-07,-8.05835e-07,-9.25596e+61,-9.25596e+61
0.162431,0.0906836,-1.11391,-0.158693,2.21078,-0.0707695,0.614389,-0.0799929,0.0146702,-0.0450002,-0.0281692,-0.0202619,-0.0151846,0.0620788,-0.0170132,0.0688851,0.0246,0.588075,-0.0168114,0,0.000459351,0,0,0,0.0688881,0.0242437,0.588074,-0.0169034,0.0106894,0.000503867,-2.0294e-06,7.26117e-07,-8.22049e-07,-9.25596e+61,-9.25596e+61
0.163431,0.0906977,-1.11396,-0.15872,2.21076,-0.0707842,0.614451,-0.0800094,0.0140202,-0.0451536,-0.0270572,-0.0202466,-0.0146983,0.0623293,-0.0164663,0.0688682,0.0246,0.588076,-0.0169147,0,0.000467887,0,0,0,0.0688703,0.0242549,0.588074,-0.0169793,0.010352,0.000510484,-1.86605e-06,6.44153e-07,-7.5405e-07,-9.25596e+61,-9.25596e+61
0.164431,0.0907111,-1.114,-0.158746,2.21074,-0.0707985,0.614514,-0.0800253,0.0134117,-0.04538,-0.0260213,-0.0202671,-0.01425,0.0626804,-0.0159622,0.0688512,0.0246,0.588076,-0.0170181,0,0.000476528,0,0,0,0.0688534,0.0242653,0.588075,-0.0170823,0.0100414,0.000517972,-1.81005e-06,6.02826e-07,-7.29442e-07,-9.25596e+61,-9.25596e+61
0.165431,0.0907239,-1.11405,-0.158771,2.21072,-0.0708123,0.614577,-0.0800408,0.0128205,-0.0456073,-0.0250152,-0.0202911,-0.013815,0.0630329,-0.0154731,0.0688342,0.0246,0.588077,-0.0171214,0,0.000485275,0,0,0,0.0688363,0.0242753,0.588075,-0.0171853,0.00974016,0.000525602,-1.75543e-06,5.64061e-07,-7.05299e-07,-9.25596e+61,-9.25596e+61
0.166431,0.0907362,-1.11409,-0.158795,2.2107,-0.0708257,0.61464,-0.0800558,0.0122462,-0.0458351,-0.0240382,-0.0203182,-0.013393,0.063386,-0.0149987,0.068817,0.0246,0.588077,-0.0172248,0,0.000494128,0,0,0,0.0688191,0.0242851,0.588076,-0.0172882,0.00944788,0.000533369,-1.70161e-06,5.27538e-07,-6.814e-07,-9.25596e+61,-9.25596e+61
0.167437,0.0907479,-1.11414,-0.158818,2.21068,-0.0708388,0.614704,-0.0800704,0.0116871,-0.0460727,-0.0230881,-0.0203522,-0.0129834,0.0637531,-0.0145383,0.0687996,0.0246,0.588078,-0.0173287,0,0.000503138,0,0,0,0.0688018,0.0242945,0.588076,-0.0173947,0.00916441,0.000541405,-1.65863e-06,4.96037e-07,-6.61743e-07,-9.25596e+61,-9.25596e+61
0.168437,0.0907591,-1.11418,-0.158841,2.21066,-0.0708513,0.614768,-0.0800845,0.0111431,-0.046294,-0.0221627,-0.0203823,-0.0125839,0.0640975,-0.0140894,0.0687822,0.0246,0.588078,-0.017432,0,0.000512206,0,0,0,0.0687843,0.0243037,0.588077,-0.0174947,0.0088879,0.000549367,-1.59746e-06,4.60951e-07,-6.34784e-07,-9.25596e+61,-9.25596e+61
0.169437,0.0907697,-1.11423,-0.158862,2.21064,-0.0708635,0.614833,-0.0800982,0.0106164,-0.0465239,-0.0212677,-0.0204189,-0.0121985,0.064454,-0.0136563,0.0687647,0.0246,0.588079,-0.0175353,0,0.000521382,0,0,0,0.0687668,0.0243126,0.588078,-0.0175977,0.00862122,0.000557555,-1.5472e-06,4.30757e-07,-6.12123e-07,-9.25596e+61,-9.25596e+61
0.170437,0.0907798,-1.11428,-0.158882,2.21062,-0.0708754,0.614898,-0.0801114,0.0101046,-0.0467544,-0.0203985,-0.0204585,-0.0118245,0.0648115,-0.0132361,0.0687472,0.0246,0.588079,-0.0176387,0,0.000530667,0,0,0,0.0687492,0.0243213,0.588078,-0.0177007,0.00836255,0.000565882,-1.49801e-06,4.02404e-07,-5.89843e-07,-9.25596e+61,-9.25596e+61
0.171437,0.0907894,-1.11432,-0.158902,2.2106,-0.0708868,0.614963,-0.0801243,0.00960736,-0.0469856,-0.0195541,-0.020501,-0.0114616,0.06517,-0.0128284,0.0687295,0.0246,0.58808,-0.017742,0,0.000540062,0,0,0,0.0687315,0.0243296,0.588079,-0.0178037,0.00811164,0.000574348,-1.44987e-06,3.75781e-07,-5.67943e-07,-9.25596e+61,-9.25596e+61
0.172437,0.0907985,-1.11437,-0.15892,2.21058,-0.0708979,0.615028,-0.0801367,0.00912407,-0.0472175,-0.0187339,-0.0205464,-0.0111095,0.0655296,-0.0124329,0.0687117,0.0246,0.58808,-0.0178453,0,0.000549568,0,0,0,0.0687137,0.0243377,0.588079,-0.0179068,0.00786826,0.000582955,-1.4029e-06,3.50819e-07,-5.46473e-07,-9.25596e+61,-9.25596e+61
0.173437,0.0908072,-1.11442,-0.158938,2.21056,-0.0709087,0.615094,-0.0801487,0.00865439,-0.0474496,-0.0179371,-0.0205944,-0.0107678,0.0658898,-0.0120492,0.0686938,0.0246,0.588081,-0.0179486,0,0.000559183,0,0,0,0.0686958,0.0243456,0.58808,-0.0180098,0.00763215,0.000591697,-1.35664e-06,3.27314e-07,-5.25262e-07,-9.25596e+61,-9.25596e+61
0.174438,0.0908154,-1.11447,-0.158956,2.21053,-0.0709191,0.615161,-0.0801604,0.00819793,-0.0476824,-0.017163,-0.0206453,-0.0104362,0.066251,-0.0116769,0.0686758,0.0246,0.588082,-0.0180519,0,0.00056891,0,0,0,0.0686778,0.0243532,0.58808,-0.0181128,0.00740316,0.000600579,-1.31151e-06,3.05283e-07,-5.04476e-07,-9.25596e+61,-9.25596e+61
0.175438,0.0908231,-1.11452,-0.158972,2.21051,-0.0709293,0.615227,-0.0801717,0.00775427,-0.0479156,-0.016411,-0.0206987,-0.0101145,0.0666132,-0.0113157,0.0686577,0.0246,0.588082,-0.0181552,0,0.000578749,0,0,0,0.0686597,0.0243606,0.588081,-0.0182158,0.00718103,0.000609598,-1.26734e-06,2.84603e-07,-4.84054e-07,-9.25596e+61,-9.25596e+61
0.176438,0.0908304,-1.11456,-0.158988,2.21049,-0.0709391,0.615294,-0.0801827,0.00732304,-0.0481494,-0.0156804,-0.0207547,-0.00980226,0.0669762,-0.0109653,0.0686394,0.0246,0.588083,-0.0182584,0,0.000588701,0,0,0,0.0686415,0.0243678,0.588082,-0.0183189,0.00696557,0.000618756,-1.2241e-06,2.65193e-07,-4.6399e-07,-9.25596e+61,-9.25596e+61
0.177438,0.0908373,-1.11461,-0.159003,2.21047,-0.0709486,0.615361,-0.0801933,0.0069038,-0.0483841,-0.0149704,-0.0208135,-0.00949928,0.0673408,-0.0106254,0.0686211,0.0246,0.588083,-0.0183617,0,0.00059877,0,0,0,0.0686231,0.0243748,0.588082,-0.0184221,0.00675657,0.000628061,-1.18215e-06,2.47049e-07,-4.44418e-07,-9.25596e+61,-9.25596e+61
0.178439,0.0908439,-1.11466,-0.159017,2.21045,-0.0709578,0.615429,-0.0802036,0.00649602,-0.0486202,-0.0142802,-0.020875,-0.00920517,0.0677075,-0.0102954,0.0686027,0.0246,0.588084,-0.0184651,0,0.00060896,0,0,0,0.0686047,0.0243815,0.588083,-0.0185257,0.00655378,0.000637519,-1.14164e-06,2.30124e-07,-4.25393e-07,-9.25596e+61,-9.25596e+61
0.17944,0.09085,-1.11471,-0.159031,2.21043,-0.0709667,0.615497,-0.0802136,0.00609963,-0.0488537,-0.0136094,-0.0209377,-0.00891955,0.068071,-0.00997502,0.0685842,0.0246,0.588084,-0.0185684,0,0.000619255,0,0,0,0.0685862,0.0243881,0.588084,-0.0186281,0.00635693,0.000647074,-1.09987e-06,2.13836e-07,-4.05926e-07,-9.25596e+61,-9.25596e+61
0.18044,0.0908557,-1.11476,-0.159044,2.21041,-0.0709754,0.615566,-0.0802233,0.00571446,-0.049089,-0.012958,-0.0210034,-0.00864265,0.0684372,-0.00966448,0.0685656,0.0246,0.588085,-0.0186717,0,0.000629665,0,0,0,0.0685675,0.0243945,0.588084,-0.0187311,0.00616617,0.000656783,-1.06007e-06,1.98762e-07,-3.87211e-07,-9.25596e+61,-9.25596e+61
0.18144,0.090861,-1.11481,-0.159056,2.21039,-0.0709837,0.615635,-0.0802326,0.00533998,-0.0493249,-0.012325,-0.0210714,-0.00837395,0.0688043,-0.00936321,0.0685468,0.0246,0.588086,-0.0187749,0,0.00064019,0,0,0,0.0685488,0.0244006,0.588085,-0.0188341,0.00598116,0.000666631,-1.02122e-06,1.84641e-07,-3.68875e-07,-9.25596e+61,-9.25596e+61
0.18244,0.090866,-1.11486,-0.159068,2.21037,-0.0709918,0.615704,-0.0802417,0.00497583,-0.0495612,-0.0117097,-0.0211417,-0.00811317,0.0691724,-0.0090709,0.068528,0.0246,0.588086,-0.0188782,0,0.000650833,0,0,0,0.06853,0.0244066,0.588086,-0.0189372,0.0058017,0.00067662,-9.83284e-07,1.71411e-07,-3.50906e-07,-9.25596e+61,-9.25596e+61
0.18344,0.0908706,-1.11491,-0.159079,2.21035,-0.0709997,0.615773,-0.0802505,0.0046217,-0.0497978,-0.0111117,-0.0212141,-0.00786006,0.0695411,-0.00878724,0.0685091,0.0246,0.588087,-0.0189814,0,0.000661593,0,0,0,0.068511,0.0244124,0.588086,-0.0190403,0.0056276,0.000686745,-9.46043e-07,1.58983e-07,-3.33223e-07,-9.25596e+61,-9.25596e+61
0.18444,0.0908749,-1.11496,-0.159089,2.21032,-0.0710073,0.615843,-0.080259,0.00427733,-0.0500345,-0.0105304,-0.0212886,-0.00761442,0.0699102,-0.00851201,0.06849,0.0246,0.588088,-0.0190846,0,0.00067247,0,0,0,0.068492,0.024418,0.588087,-0.0191432,0.00545873,0.000697006,-9.0949e-07,1.47313e-07,-3.15828e-07,-9.25596e+61,-9.25596e+61
0.185452,0.0908789,-1.11501,-0.159099,2.2103,-0.0710148,0.615914,-0.0802674,0.00393999,-0.0502922,-0.00996247,-0.0213736,-0.00737591,0.0703095,-0.00824484,0.0684707,0.0246,0.588088,-0.0191891,0,0.000683596,0,0,0,0.0684728,0.0244235,0.588088,-0.0192543,0.00529495,0.000707762,-8.84322e-07,1.37967e-07,-3.02326e-07,-9.25596e+61,-9.25596e+61
0.186452,0.0908825,-1.11506,-0.159109,2.21028,-0.0710219,0.615985,-0.0802753,0.0036129,-0.0505112,-0.00940974,-0.0214445,-0.00714193,0.0706547,-0.00798281,0.0684514,0.0246,0.588089,-0.0192923,0,0.000694712,0,0,0,0.0684533,0.0244289,0.588088,-0.0193503,0.0051342,0.000718061,-8.38438e-07,1.26018e-07,-2.81851e-07,-9.25596e+61,-9.25596e+61
0.187452,0.0908858,-1.11511,-0.159118,2.21026,-0.0710288,0.616056,-0.0802831,0.00329615,-0.050749,-0.00887592,-0.0215252,-0.00691744,0.0710262,-0.00773148,0.0684321,0.0246,0.58809,-0.0193955,0,0.000705948,0,0,0,0.068434,0.024434,0.588089,-0.0194533,0.00498015,0.00072874,-8.04233e-07,1.16417e-07,-2.65426e-07,-9.25596e+61,-9.25596e+61
0.188452,0.0908888,-1.11516,-0.159126,2.21024,-0.0710355,0.616128,-0.0802906,0.00298801,-0.0509869,-0.0083569,-0.0216078,-0.00669955,0.0713984,-0.0074876,0.0684126,0.0246,0.588091,-0.0194987,0,0.000717304,0,0,0,0.0684145,0.024439,0.58809,-0.0195563,0.00483072,0.000739557,-7.7074e-07,1.07416e-07,-2.493e-07,-9.25596e+61,-9.25596e+61
0.189453,0.0908915,-1.11521,-0.159134,2.21022,-0.071042,0.616199,-0.0802978,0.00268824,-0.0512251,-0.00785224,-0.0216923,-0.00648805,0.0717713,-0.00725094,0.0683931,0.0246,0.588091,-0.0196019,0,0.000728781,0,0,0,0.068395,0.0244438,0.58809,-0.0196594,0.00468578,0.000750513,-7.37942e-07,9.89793e-08,-2.33468e-07,-9.25596e+61,-9.25596e+61
0.190453,0.0908939,-1.11526,-0.159141,2.21019,-0.0710483,0.616271,-0.0803048,0.00239658,-0.0514635,-0.0073615,-0.0217786,-0.00628276,0.0721448,-0.00702129,0.0683734,0.0246,0.588092,-0.0197051,0,0.00074038,0,0,0,0.0683753,0.0244485,0.588091,-0.0197624,0.00454518,0.000761607,-7.05824e-07,9.10719e-08,-2.17925e-07,-9.25596e+61,-9.25596e+61
0.191453,0.090896,-1.11531,-0.159148,2.21017,-0.0710544,0.616344,-0.0803116,0.00211278,-0.0517021,-0.00688426,-0.0218668,-0.00608349,0.0725189,-0.00679844,0.0683537,0.0246,0.588093,-0.0198083,0,0.000752101,0,0,0,0.0683556,0.024453,0.588092,-0.0198654,0.00440881,0.00077284,-6.74369e-07,8.36616e-08,-2.02665e-07,-9.25596e+61,-9.25596e+61
0.192453,0.0908978,-1.11537,-0.159154,2.21015,-0.0710603,0.616417,-0.0803182,0.00183662,-0.051941,-0.00642013,-0.0219567,-0.00589005,0.0728937,-0.00658219,0.0683338,0.0246,0.588093,-0.0199114,0,0.000763945,0,0,0,0.0683357,0.0244575,0.588093,-0.0199684,0.00427652,0.000784212,-6.43563e-07,7.67183e-08,-1.87684e-07,-9.25596e+61,-9.25596e+61
0.193453,0.0908994,-1.11542,-0.15916,2.21013,-0.071066,0.61649,-0.0803246,0.00156778,-0.0521807,-0.00596859,-0.0220487,-0.00570227,0.0732701,-0.00637232,0.0683138,0.0246,0.588094,-0.0200146,0,0.000775918,0,0,0,0.0683157,0.0244617,0.588094,-0.0200717,0.00414821,0.000795737,-6.13638e-07,7.02406e-08,-1.73043e-07,-9.25596e+61,-9.25596e+61
0.194454,0.0909007,-1.11547,-0.159166,2.21011,-0.0710715,0.616564,-0.0803308,0.00130617,-0.0524194,-0.00552938,-0.0221419,-0.00551991,0.0736455,-0.00616857,0.0682938,0.0246,0.588095,-0.0201178,0,0.000788011,0,0,0,0.0682956,0.0244659,0.588094,-0.0201746,0.00402369,0.000807382,-5.83882e-07,6.41236e-08,-1.58544e-07,-9.25596e+61,-9.25596e+61
0.195454,0.0909017,-1.11552,-0.159171,2.21008,-0.0710769,0.616638,-0.0803367,0.00105154,-0.0526587,-0.00510218,-0.022237,-0.00534293,0.0740221,-0.0059709,0.0682736,0.0246,0.588096,-0.020221,0,0.000800229,0,0,0,0.0682755,0.0244699,0.588095,-0.0202776,0.00390295,0.000819173,-5.54925e-07,5.84155e-08,-1.44363e-07,-9.25596e+61,-9.25596e+61
0.196459,0.0909025,-1.11558,-0.159176,2.21006,-0.0710821,0.616713,-0.0803425,0.000802569,-0.0529074,-0.00468523,-0.0223376,-0.00517106,0.0744125,-0.005779,0.0682532,0.0246,0.588097,-0.0203246,0,0.000812636,0,0,0,0.0682552,0.0244738,0.588096,-0.0203842,0.00378583,0.000831284,-5.29264e-07,5.3331e-08,-1.31075e-07,-9.25596e+61,-9.25596e+61
0.197459,0.0909031,-1.11563,-0.15918,2.21004,-0.0710871,0.616787,-0.0803481,0.000561189,-0.0531385,-0.0042802,-0.0224323,-0.00500346,0.0747783,-0.00559195,0.0682328,0.0246,0.588097,-0.0204278,0,0.000825106,0,0,0,0.0682347,0.0244776,0.588097,-0.020484,0.00367164,0.000843229,-4.98575e-07,4.80358e-08,-1.16688e-07,-9.25596e+61,-9.25596e+61
0.198459,0.0909034,-1.11568,-0.159184,2.21002,-0.0710919,0.616863,-0.0803536,0.000326298,-0.0533781,-0.00388682,-0.0225322,-0.00484154,0.0751566,-0.0054113,0.0682123,0.0246,0.588098,-0.0205309,0,0.000837702,0,0,0,0.0682142,0.0244813,0.588098,-0.020587,0.00356148,0.00085544,-4.71356e-07,4.33529e-08,-1.03268e-07,-9.25596e+61,-9.25596e+61
0.199459,0.0909035,-1.11574,-0.159187,2.20999,-0.0710966,0.616938,-0.0803588,9.75782e-05,-0.0536179,-0.00350401,-0.0226336,-0.00468434,0.0755354,-0.00523597,0.0681918,0.0246,0.588099,-0.020634,0,0.000850425,0,0,0,0.0681936,0.0244848,0.588099,-0.0206899,0.00345462,0.000867792,-4.44686e-07,3.89696e-08,-9.00908e-08,-9.25596e+61,-9.25596e+61
0.200459,0.0909034,-1.11579,-0.159191,2.20997,-0.0711011,0.617014,-0.0803639,-0.000125156,-0.0538578,-0.00313146,-0.0227365,-0.0045317,0.0759148,-0.00506581,0.0681711,0.0246,0.5881,-0.0207371,0,0.000863277,0,0,0,0.0681729,0.0244883,0.588099,-0.0207929,0.00335096,0.000880284,-4.18552e-07,3.48675e-08,-7.71504e-08,-9.25596e+61,-9.25596e+61
0.20146,0.0909031,-1.11585,-0.159193,2.20995,-0.0711055,0.61709,-0.0803688,-0.000342084,-0.0540977,-0.00276884,-0.0228409,-0.00438348,0.0762947,-0.00490064,0.0681503,0.0246,0.588101,-0.0208402,0,0.000876257,0,0,0,0.0681521,0.0244917,0.5881,-0.0208959,0.00325041,0.000892917,-3.92942e-07,3.10291e-08,-6.44424e-08,-9.25596e+61,-9.25596e+61
0.20246,0.0909025,-1.1159,-0.159196,2.20993,-0.0711097,0.617167,-0.0803735,-0.000553377,-0.0543377,-0.00241587,-0.0229468,-0.00423956,0.0766751,-0.00474033,0.0681294,0.0246,0.588102,-0.0209433,0,0.000889366,0,0,0,0.0681312,0.0244949,0.588101,-0.0209989,0.00315288,0.000905692,-3.67842e-07,2.74382e-08,-5.19617e-08,-9.25596e+61,-9.25596e+61
0.20346,0.0909017,-1.11595,-0.159198,2.2099,-0.0711138,0.617244,-0.0803781,-0.000759228,-0.0545779,-0.00207222,-0.0230541,-0.0040998,0.0770563,-0.00458472,0.0681084,0.0246,0.588103,-0.0210464,0,0.000902607,0,0,0,0.0681102,0.0244981,0.588102,-0.0211019,0.00305828,0.000918612,-3.43275e-07,2.40815e-08,-3.97067e-08,-9.25596e+61,-9.25596e+61
0.20446,0.0909008,-1.11601,-0.1592,2.20988,-0.0711178,0.617322,-0.0803825,-0.000959752,-0.0548179,-0.00173766,-0.0231627,-0.00396407,0.0774375,-0.00443366,0.0680873,0.0246,0.588104,-0.0211495,0,0.000915978,0,0,0,0.0680891,0.0245011,0.588103,-0.0212048,0.00296651,0.000931667,-3.19125e-07,2.09378e-08,-2.76624e-08,-9.25596e+61,-9.25596e+61
0.20546,0.0908996,-1.11606,-0.159201,2.20986,-0.0711216,0.617399,-0.0803868,-0.00115514,-0.055058,-0.0014119,-0.0232728,-0.00383227,0.0778194,-0.00428704,0.0680661,0.0246,0.588104,-0.0212525,0,0.000929479,0,0,0,0.0680679,0.0245041,0.588104,-0.0213078,0.0028775,0.000944868,-2.95486e-07,1.80006e-08,-1.58355e-08,-9.25596e+61,-9.25596e+61
0.20646,0.0908983,-1.11612,-0.159202,2.20983,-0.0711253,0.617478,-0.080391,-0.00134555,-0.0552983,-0.00109464,-0.0233842,-0.00370426,0.0782021,-0.00414472,0.0680448,0.0246,0.588105,-0.0213556,0,0.000943114,0,0,0,0.0680466,0.024507,0.588105,-0.0214108,0.00279116,0.000958214,-2.72338e-07,1.52562e-08,-4.21642e-09,-9.25596e+61,-9.25596e+61
0.20746,0.0908968,-1.11617,-0.159203,2.20981,-0.0711289,0.617556,-0.080395,-0.0015311,-0.0555383,-0.000785679,-0.0234968,-0.00357992,0.0785847,-0.00400654,0.0680234,0.0246,0.588106,-0.0214586,0,0.000956879,0,0,0,0.0680252,0.0245098,0.588106,-0.0215137,0.0027074,0.000971697,-2.49588e-07,1.26882e-08,7.19832e-09,-9.25596e+61,-9.25596e+61
0.208461,0.090895,-1.11623,-0.159203,2.20979,-0.0711324,0.617635,-0.0803988,-0.00171197,-0.0557786,-0.000484716,-0.0236109,-0.00345916,0.0789683,-0.00387241,0.0680019,0.0246,0.588107,-0.0215616,0,0.00097078,0,0,0,0.0680037,0.0245125,0.588107,-0.0216167,0.00262616,0.00098533,-2.2733e-07,1.02908e-08,1.84161e-08,-9.25596e+61,-9.25596e+61
0.209461,0.0908932,-1.11629,-0.159204,2.20976,-0.0711357,0.617715,-0.0804026,-0.00188829,-0.0560188,-0.000191531,-0.0237262,-0.00334185,0.0793521,-0.00374218,0.0679802,0.0246,0.588108,-0.0216647,0,0.000984814,0,0,0,0.067982,0.0245151,0.588108,-0.0217196,0.00254735,0.000999104,-2.05477e-07,8.04961e-09,2.9438e-08,-9.25596e+61,-9.25596e+61
0.210461,0.0908911,-1.11634,-0.159203,2.20974,-0.071139,0.617794,-0.0804062,-0.00206018,-0.056259,9.41076e-05,-0.0238427,-0.00322791,0.0797364,-0.00361575,0.0679585,0.0246,0.588109,-0.0217677,0,0.000998983,0,0,0,0.0679603,0.0245176,0.588109,-0.0218226,0.00247091,0.00101302,-1.84044e-07,5.95611e-09,4.0269e-08,-9.25596e+61,-9.25596e+61
0.211461,0.0908889,-1.1164,-0.159203,2.20971,-0.0711421,0.617874,-0.0804097,-0.00222779,-0.0564991,0.000372428,-0.0239604,-0.00311721,0.0801212,-0.003493,0.0679367,0.0246,0.58811,-0.0218707,0,0.00101329,0,0,0,0.0679385,0.0245201,0.58811,-0.0219255,0.00239676,0.00102708,-1.63023e-07,4.00094e-09,5.09134e-08,-9.25596e+61,-9.25596e+61
0.212461,0.0908865,-1.11646,-0.159202,2.20969,-0.0711451,0.617955,-0.0804131,-0.00239121,-0.056739,0.000643624,-0.0240793,-0.00300967,0.0805061,-0.00337383,0.0679148,0.0246,0.588111,-0.0219737,0,0.00102772,0,0,0,0.0679166,0.0245225,0.588111,-0.0220283,0.00232484,0.00104129,-1.42389e-07,2.17529e-09,6.1368e-08,-9.25596e+61,-9.25596e+61
0.213466,0.0908839,-1.11651,-0.159202,2.20967,-0.071148,0.618036,-0.0804163,-0.00255176,-0.0569887,0.00090936,-0.0242036,-0.00290514,0.0809057,-0.00325805,0.0678926,0.0246,0.588112,-0.0220772,0,0.00104237,0,0,0,0.0678945,0.0245248,0.588112,-0.0221351,0.00225508,0.00105586,-1.22712e-07,4.65711e-10,7.20803e-08,-9.25596e+61,-9.25596e+61
0.214467,0.0908812,-1.11657,-0.1592,2.20964,-0.0711508,0.618118,-0.0804195,-0.00270682,-0.0572199,0.00116683,-0.0243212,-0.0028032,0.0812792,-0.00314522,0.0678705,0.0246,0.588113,-0.0221801,0,0.00105708,0,0,0,0.0678723,0.0245271,0.588113,-0.0222345,0.00218707,0.0010702,-1.02222e-07,-1.12655e-09,8.18063e-08,-9.25596e+61,-9.25596e+61
0.215475,0.0908783,-1.11663,-0.159199,2.20962,-0.0711535,0.6182,-0.0804225,-0.00286046,-0.0574765,0.00142041,-0.0244509,-0.00270447,0.0816897,-0.00303601,0.0678481,0.0246,0.588114,-0.022284,0,0.00107206,0,0,0,0.0678501,0.0245293,0.588114,-0.022344,0.00212145,0.00108523,-8.3334e-08,-2.64572e-09,9.26536e-08,-9.25596e+61,-9.25596e+61
0.216506,0.0908752,-1.11669,-0.159197,2.20959,-0.0711562,0.618285,-0.0804256,-0.00301487,-0.0577619,0.00167372,-0.0245945,-0.00260752,0.0821426,-0.00292886,0.067825,0.0246,0.588116,-0.0223901,0,0.00108751,0,0,0,0.0678275,0.0245314,0.588115,-0.0224649,0.00205725,0.00110116,-6.49664e-08,-4.1781e-09,1.0522e-07,-9.25596e+61,-9.25596e+61
0.217506,0.090872,-1.11675,-0.159195,2.20957,-0.0711587,0.618367,-0.0804284,-0.00315625,-0.0579466,0.00191068,-0.024696,-0.00251202,0.0824518,-0.00282334,0.0678026,0.0246,0.588117,-0.022493,0,0.00110265,0,0,0,0.0678044,0.0245335,0.588116,-0.0225463,0.00199362,0.00111511,-4.41685e-08,-5.33303e-09,1.11483e-07,-9.25596e+61,-9.25596e+61
0.218506,0.0908688,-1.1168,-0.159193,2.20954,-0.0711612,0.61845,-0.0804311,-0.00329705,-0.0581864,0.00214334,-0.0248218,-0.00242162,0.0828396,-0.00272356,0.0677801,0.0246,0.588118,-0.0225959,0,0.00111792,0,0,0,0.0677818,0.0245355,0.588117,-0.0226492,0.0019338,0.0011302,-2.57745e-08,-6.53373e-09,1.20927e-07,-9.25596e+61,-9.25596e+61
0.219506,0.0908653,-1.11686,-0.159191,2.20952,-0.0711635,0.618533,-0.0804337,-0.0034345,-0.0584262,0.00237031,-0.0249489,-0.00233377,0.083228,-0.00262666,0.0677574,0.0246,0.588119,-0.0226989,0,0.00113333,0,0,0,0.0677592,0.0245375,0.588118,-0.0227522,0.00187577,0.00114544,-7.71594e-09,-7.65415e-09,1.30231e-07,-9.25596e+61,-9.25596e+61
0.220506,0.0908617,-1.11692,-0.159188,2.20949,-0.0711657,0.618617,-0.0804363,-0.00356866,-0.0586656,0.0025917,-0.0250768,-0.00224837,0.0836163,-0.00253254,0.0677347,0.0246,0.58812,-0.0228018,0,0.00114888,0,0,0,0.0677364,0.0245393,0.58812,-0.022855,0.00181948,0.00116082,1.00143e-08,-8.69694e-09,1.39355e-07,-9.25596e+61,-9.25596e+61
0.221507,0.090858,-1.11698,-0.159185,2.20947,-0.0711679,0.618701,-0.0804387,-0.00369969,-0.0589053,0.00280776,-0.025206,-0.00216537,0.0840055,-0.00244113,0.0677118,0.0246,0.588121,-0.0229047,0,0.00116458,0,0,0,0.0677135,0.0245412,0.588121,-0.0229579,0.00176488,0.00117636,2.74284e-08,-9.67072e-09,1.48363e-07,-9.25596e+61,-9.25596e+61
0.222507,0.0908542,-1.11704,-0.159182,2.20944,-0.07117,0.618785,-0.0804411,-0.00382764,-0.0591446,0.00301859,-0.0253361,-0.00208467,0.0843949,-0.00235233,0.0676888,0.0246,0.588122,-0.0230075,0,0.00118042,0,0,0,0.0676906,0.0245429,0.588122,-0.0230607,0.00171192,0.00119204,4.45291e-08,-1.05773e-08,1.57211e-07,-9.25596e+61,-9.25596e+61
0.223507,0.0908503,-1.1171,-0.159179,2.20942,-0.071172,0.61887,-0.0804433,-0.00395258,-0.0593837,0.00322434,-0.0254671,-0.00200621,0.0847843,-0.00226607,0.0676658,0.0246,0.588124,-0.0231104,0,0.0011964,0,0,0,0.0676675,0.0245446,0.588123,-0.0231635,0.00166055,0.00120787,6.13173e-08,-1.14206e-08,1.65901e-07,-9.25596e+61,-9.25596e+61
0.224507,0.0908462,-1.11716,-0.159176,2.20939,-0.0711739,0.618955,-0.0804455,-0.00407464,-0.0596227,0.0034252,-0.0255993,-0.00192994,0.0851744,-0.00218229,0.0676426,0.0246,0.588125,-0.0232133,0,0.00121252,0,0,0,0.0676444,0.0245463,0.588124,-0.0232663,0.00161072,0.00122385,7.78134e-08,-1.22073e-08,1.7447e-07,-9.25596e+61,-9.25596e+61
0.225507,0.090842,-1.11722,-0.159172,2.20936,-0.0711758,0.619041,-0.0804476,-0.00419393,-0.0598619,0.00362134,-0.0257325,-0.00185577,0.0855651,-0.00210089,0.0676193,0.0246,0.588126,-0.0233161,0,0.00122879,0,0,0,0.0676211,0.0245479,0.588126,-0.0233692,0.00156239,0.00123999,9.40317e-08,-1.29414e-08,1.82926e-07,-9.25596e+61,-9.25596e+61
0.226565,0.0908374,-1.11728,-0.159168,2.20934,-0.0711777,0.619132,-0.0804497,-0.00432447,-0.0602182,0.00383016,-0.0259186,-0.00178272,0.0861263,-0.00202087,0.0675946,0.0246,0.588127,-0.0234249,0,0.00124615,0,0,0,0.0675977,0.0245495,0.588127,-0.0235184,0.00151549,0.00125926,1.17635e-07,-1.44963e-08,2.03423e-07,-9.25596e+61,-9.25596e+61
0.227565,0.090833,-1.11734,-0.159164,2.20931,-0.0711794,0.619218,-0.0804517,-0.0044305,-0.0603496,0.00401014,-0.026008,-0.00170949,0.0863645,-0.00194058,0.0675711,0.0246,0.588129,-0.0235277,0,0.00126271,0,0,0,0.0675728,0.0245511,0.588128,-0.0235793,0.0014674,0.00127357,1.26476e-07,-1.42924e-08,1.99848e-07,-9.25596e+61,-9.25596e+61
0.228566,0.0908284,-1.1174,-0.15916,2.20929,-0.071181,0.619305,-0.0804536,-0.00454178,-0.0605888,0.00419272,-0.0261444,-0.00164136,0.0867571,-0.00186604,0.0675475,0.0246,0.58813,-0.0236305,0,0.00127943,0,0,0,0.0675493,0.0245525,0.588129,-0.0236824,0.00142337,0.00129018,1.41895e-07,-1.48867e-08,2.07965e-07,-9.25596e+61,-9.25596e+61
0.229566,0.0908238,-1.11746,-0.159155,2.20926,-0.0711826,0.619392,-0.0804554,-0.00465044,-0.0608265,0.00437093,-0.0262811,-0.00157509,0.0871481,-0.0017936,0.0675239,0.0246,0.588131,-0.0237333,0,0.00129629,0,0,0,0.0675256,0.024554,0.588131,-0.0237849,0.00138064,0.00130691,1.56939e-07,-1.5429e-08,2.15801e-07,-9.25596e+61,-9.25596e+61
0.230566,0.090819,-1.11753,-0.159151,2.20923,-0.0711841,0.61948,-0.0804571,-0.00475679,-0.0610652,0.00454519,-0.0264193,-0.00151064,0.087541,-0.00172322,0.0675001,0.0246,0.588132,-0.0238361,0,0.0013133,0,0,0,0.0675018,0.0245554,0.588132,-0.0238878,0.00133921,0.00132382,1.71829e-07,-1.59432e-08,2.23657e-07,-9.25596e+61,-9.25596e+61
0.231566,0.0908142,-1.11759,-0.159146,2.20921,-0.0711856,0.619568,-0.0804587,-0.00486072,-0.0613029,0.00471542,-0.026558,-0.00144792,0.0879332,-0.00165481,0.0674762,0.0246,0.588134,-0.0239388,0,0.00133045,0,0,0,0.0674779,0.0245567,0.588133,-0.0239905,0.00129901,0.00134087,1.86395e-07,-1.64153e-08,2.31301e-07,-9.25596e+61,-9.25596e+61
0.232566,0.0908092,-1.11765,-0.159141,2.20918,-0.0711869,0.619656,-0.0804603,-0.00496244,-0.0615411,0.00488189,-0.026698,-0.00138691,0.0883265,-0.00158834,0.0674522,0.0246,0.588135,-0.0240416,0,0.00134775,0,0,0,0.0674539,0.024558,0.588135,-0.0240933,0.00126003,0.00135808,2.00778e-07,-1.68599e-08,2.38906e-07,-9.25596e+61,-9.25596e+61
0.233567,0.0908041,-1.11771,-0.159136,2.20915,-0.0711883,0.619745,-0.0804618,-0.00506194,-0.0617788,0.00504463,-0.0268387,-0.00132753,0.0887199,-0.00152373,0.0674281,0.0246,0.588136,-0.0241443,0,0.0013652,0,0,0,0.0674298,0.0245593,0.588136,-0.024196,0.00122222,0.00137544,2.14905e-07,-1.72722e-08,2.46377e-07,-9.25596e+61,-9.25596e+61
0.234567,0.090799,-1.11777,-0.159131,2.20913,-0.0711895,0.619834,-0.0804633,-0.00515928,-0.0620162,0.00520375,-0.0269802,-0.00126974,0.0891133,-0.00146092,0.0674039,0.0246,0.588138,-0.0242471,0,0.0013828,0,0,0,0.0674056,0.0245605,0.588137,-0.0242987,0.00118553,0.00139295,2.28777e-07,-1.76543e-08,2.53713e-07,-9.25596e+61,-9.25596e+61
0.235567,0.0907937,-1.11783,-0.159126,2.2091,-0.0711908,0.619924,-0.0804647,-0.00525458,-0.0622537,0.00535943,-0.0271228,-0.00121349,0.0895076,-0.00139987,0.0673796,0.0246,0.588139,-0.0243498,0,0.00140055,0,0,0,0.0673813,0.0245617,0.588139,-0.0244015,0.00114996,0.00141062,2.42476e-07,-1.80138e-08,2.61e-07,-9.25596e+61,-9.25596e+61
0.236567,0.0907884,-1.1179,-0.15912,2.20907,-0.0711919,0.620013,-0.080466,-0.00534786,-0.0624909,0.00551171,-0.0272662,-0.00115873,0.0899019,-0.00134051,0.0673552,0.0246,0.588141,-0.0244525,0,0.00141845,0,0,0,0.0673569,0.0245628,0.58814,-0.0245042,0.00111545,0.00142845,2.55931e-07,-1.83471e-08,2.68157e-07,-9.25596e+61,-9.25596e+61
0.237567,0.0907829,-1.11796,-0.159115,2.20904,-0.071193,0.620104,-0.0804673,-0.00543918,-0.0627279,0.00566072,-0.0274105,-0.00110542,0.0902966,-0.00128279,0.0673307,0.0246,0.588142,-0.0245551,0,0.00143651,0,0,0,0.0673324,0.0245639,0.588142,-0.0246069,0.00108197,0.00144643,2.69174e-07,-1.86577e-08,2.75215e-07,-9.25596e+61,-9.25596e+61
0.238567,0.0907774,-1.11802,-0.159109,2.20902,-0.0711941,0.620194,-0.0804686,-0.00552859,-0.0629644,0.00580651,-0.0275555,-0.00105352,0.0906912,-0.00122668,0.0673061,0.0246,0.588144,-0.0246578,0,0.00145471,0,0,0,0.0673078,0.024565,0.588143,-0.0247095,0.0010495,0.00146456,2.82179e-07,-1.89453e-08,2.82146e-07,-9.25596e+61,-9.25596e+61
0.239569,0.0907718,-1.11809,-0.159103,2.20899,-0.0711951,0.620286,-0.0804697,-0.00561652,-0.0632039,0.0059497,-0.0277028,-0.00100295,0.0910908,-0.00117209,0.0672813,0.0246,0.588145,-0.0247606,0,0.0014731,0,0,0,0.067283,0.0245661,0.588145,-0.0248133,0.001018,0.00148294,2.95465e-07,-1.92442e-08,2.8945e-07,-9.25596e+61,-9.25596e+61
0.240569,0.0907661,-1.11815,-0.159097,2.20896,-0.071196,0.620377,-0.0804708,-0.0057021,-0.0634377,0.00608922,-0.0278484,-0.000953678,0.0914828,-0.00111897,0.0672565,0.0246,0.588146,-0.0248632,0,0.00149161,0,0,0,0.0672582,0.0245671,0.588146,-0.024915,0.00098741,0.00150133,3.07695e-07,-1.94699e-08,2.95826e-07,-9.25596e+61,-9.25596e+61
0.241569,0.0907603,-1.11821,-0.15909,2.20893,-0.0711969,0.620469,-0.0804719,-0.00578617,-0.0636738,0.00622608,-0.0279961,-0.000905723,0.0918787,-0.00106735,0.0672316,0.0246,0.588148,-0.0249658,0,0.00151028,0,0,0,0.0672333,0.0245681,0.588148,-0.0250176,0.000957775,0.00151995,3.2014e-07,-1.97054e-08,3.02511e-07,-9.25596e+61,-9.25596e+61
0.242645,0.090754,-1.11828,-0.159084,2.2089,-0.0711979,0.620569,-0.080473,-0.00588807,-0.064073,0.00638455,-0.0282192,-0.000857548,0.0925143,-0.00101575,0.0672047,0.0246,0.58815,-0.0250762,0,0.00153053,0,0,0,0.0672083,0.024569,0.588149,-0.0251851,0.000929011,0.00154347,3.60208e-07,-2.15503e-08,3.34587e-07,-9.25596e+61,-9.25596e+61
0.243645,0.090748,-1.11835,-0.159077,2.20887,-0.0711987,0.620661,-0.080474,-0.0059548,-0.0641579,0.00650066,-0.0283028,-0.000810075,0.0926939,-0.000964648,0.0671795,0.0246,0.588151,-0.0251788,0,0.00154952,0,0,0,0.0671812,0.02457,0.588151,-0.0252285,0.000899033,0.00155894,3.4528e-07,-2.01415e-08,3.16022e-07,-9.25596e+61,-9.25596e+61
0.244646,0.090742,-1.11841,-0.15907,2.20885,-0.0711994,0.620754,-0.0804749,-0.00603386,-0.0643934,0.00662918,-0.028453,-0.000765806,0.0930909,-0.000917236,0.0671543,0.0246,0.588153,-0.0252814,0,0.00156866,0,0,0,0.0671559,0.0245709,0.588152,-0.0253312,0.000872052,0.00157805,3.57164e-07,-2.03336e-08,3.22445e-07,-9.25596e+61,-9.25596e+61
0.245646,0.0907359,-1.11847,-0.159064,2.20882,-0.0712002,0.620848,-0.0804758,-0.00611139,-0.0646287,0.00675514,-0.028604,-0.000722658,0.0934882,-0.000871104,0.067129,0.0246,0.588154,-0.0253839,0,0.00158796,0,0,0,0.0671306,0.0245718,0.588154,-0.0254338,0.000845881,0.00159731,3.68877e-07,-2.05139e-08,3.28786e-07,-9.25596e+61,-9.25596e+61
0.246646,0.0907297,-1.11854,-0.159057,2.20879,-0.0712008,0.620942,-0.0804766,-0.00618743,-0.0648637,0.00687862,-0.0287558,-0.000680597,0.0938858,-0.000826214,0.0671035,0.0246,0.588156,-0.0254864,0,0.00160742,0,0,0,0.0671052,0.0245726,0.588155,-0.0255364,0.000820496,0.00161673,3.80421e-07,-2.06832e-08,3.35049e-07,-9.25596e+61,-9.25596e+61
0.247646,0.0907234,-1.1186,-0.15905,2.20876,-0.0712015,0.621036,-0.0804774,-0.00626204,-0.0650986,0.00699975,-0.0289084,-0.000639586,0.094284,-0.000782524,0.067078,0.0246,0.588157,-0.025589,0,0.00162703,0,0,0,0.0670796,0.0245735,0.588157,-0.025639,0.000795871,0.00163632,3.91845e-07,-2.08447e-08,3.41272e-07,-9.25596e+61,-9.25596e+61
0.248646,0.0907171,-1.11867,-0.159043,2.20873,-0.0712021,0.621131,-0.0804781,-0.00633524,-0.0653331,0.00711852,-0.0290618,-0.000599592,0.0946821,-0.000739998,0.0670523,0.0246,0.588159,-0.0256915,0,0.00164681,0,0,0,0.067054,0.0245743,0.588159,-0.0257416,0.000771984,0.00165607,4.0307e-07,-2.09949e-08,3.47384e-07,-9.25596e+61,-9.25596e+61
0.249646,0.0907107,-1.11874,-0.159035,2.2087,-0.0712026,0.621226,-0.0804788,-0.00640704,-0.0655672,0.00723501,-0.0292159,-0.000560588,0.0950803,-0.000698604,0.0670266,0.0246,0.588161,-0.0257939,0,0.00166674,0,0,0,0.0670282,0.024575,0.58816,-0.025844,0.000748812,0.00167597,4.14094e-07,-2.11344e-08,3.53384e-07,-9.25596e+61,-9.25596e+61
0.250646,0.0907042,-1.1188,-0.159028,2.20867,-0.0712032,0.621321,-0.0804795,-0.00647755,-0.0658011,0.00734934,-0.0293708,-0.000522543,0.095479,-0.000658307,0.0670007,0.0246,0.588162,-0.0258964,0,0.00168684,0,0,0,0.0670024,0.0245758,0.588162,-0.0259466,0.000726339,0.00169604,4.2501e-07,-2.12685e-08,3.59351e-07,-9.25596e+61,-9.25596e+61
0.251646,0.0906976,-1.11887,-0.159021,2.20864,-0.0712036,0.621417,-0.0804801,-0.00654676,-0.0660348,0.00746155,-0.0295265,-0.000485424,0.0958779,-0.000619072,0.0669748,0.0246,0.588164,-0.0259989,0,0.00170709,0,0,0,0.0669764,0.0245765,0.588164,-0.0260491,0.00070454,0.00171627,4.35779e-07,-2.13957e-08,3.65248e-07,-9.25596e+61,-9.25596e+61
0.252646,0.090691,-1.11893,-0.159013,2.20861,-0.0712041,0.621514,-0.0804807,-0.00661474,-0.0662682,0.00757172,-0.0296829,-0.000449202,0.0962772,-0.000580866,0.0669487,0.0246,0.588166,-0.0261013,0,0.0017275,0,0,0,0.0669504,0.0245772,0.588165,-0.0261515,0.000683394,0.00173667,4.46404e-07,-2.15166e-08,3.71077e-07,-9.25596e+61,-9.25596e+61
0.253647,0.0906843,-1.119,-0.159005,2.20858,-0.0712045,0.62161,-0.0804812,-0.00668152,-0.0665016,0.00767992,-0.0298402,-0.000413847,0.0966771,-0.000543655,0.0669226,0.0246,0.588168,-0.0262037,0,0.00174808,0,0,0,0.0669242,0.0245779,0.588167,-0.0262541,0.000662883,0.00175723,4.5694e-07,-2.16341e-08,3.7688e-07,-9.25596e+61,-9.25596e+61
0.254647,0.0906776,-1.11907,-0.158998,2.20855,-0.0712049,0.621707,-0.0804817,-0.00674709,-0.0667342,0.00778614,-0.0299981,-0.000379334,0.0970766,-0.00050741,0.0668963,0.0246,0.588169,-0.0263061,0,0.00176882,0,0,0,0.066898,0.0245786,0.588169,-0.0263565,0.000642986,0.00177795,4.67242e-07,-2.17419e-08,3.82539e-07,-9.25596e+61,-9.25596e+61
0.255647,0.0906708,-1.11913,-0.15899,2.20852,-0.0712052,0.621805,-0.0804822,-0.00681156,-0.066967,0.00789055,-0.0301569,-0.000345634,0.097477,-0.000472102,0.06687,0.0246,0.588171,-0.0264085,0,0.00178972,0,0,0,0.0668716,0.0245792,0.588171,-0.026459,0.000623687,0.00179885,4.77512e-07,-2.18496e-08,3.88216e-07,-9.25596e+61,-9.25596e+61
0.256647,0.0906639,-1.1192,-0.158982,2.20849,-0.0712055,0.621903,-0.0804826,-0.00687491,-0.0671993,0.00799313,-0.0303164,-0.000312723,0.0978773,-0.000437699,0.0668435,0.0246,0.588173,-0.0265108,0,0.00181079,0,0,0,0.0668451,0.0245798,0.588173,-0.0265614,0.000604966,0.00181991,4.87604e-07,-2.1951e-08,3.93792e-07,-9.25596e+61,-9.25596e+61
0.257647,0.090657,-1.11927,-0.158974,2.20846,-0.0712058,0.622001,-0.080483,-0.00693715,-0.0674311,0.00809391,-0.0304765,-0.000280578,0.0982776,-0.000404178,0.0668169,0.0246,0.588175,-0.0266132,0,0.00183202,0,0,0,0.0668186,0.0245804,0.588174,-0.0266637,0.000586806,0.00184113,4.97517e-07,-2.20464e-08,3.99265e-07,-9.25596e+61,-9.25596e+61
0.258647,0.09065,-1.11934,-0.158965,2.20843,-0.0712061,0.6221,-0.0804834,-0.00699836,-0.0676627,0.00819303,-0.0306374,-0.000249173,0.0986785,-0.00037151,0.0667903,0.0246,0.588177,-0.0267155,0,0.00185341,0,0,0,0.0667919,0.024581,0.588176,-0.026766,0.000569193,0.00186252,5.07359e-07,-2.21408e-08,4.04721e-07,-9.25596e+61,-9.25596e+61
0.259647,0.0906429,-1.1194,-0.158957,2.2084,-0.0712063,0.622199,-0.0804837,-0.00705857,-0.0678941,0.00829049,-0.0307991,-0.000218484,0.0990796,-0.000339667,0.0667635,0.0246,0.588178,-0.0268178,0,0.00187497,0,0,0,0.0667651,0.0245816,0.588178,-0.0268684,0.000552108,0.00188408,5.17083e-07,-2.22325e-08,4.10121e-07,-9.25596e+61,-9.25596e+61
0.260648,0.0906358,-1.11947,-0.158949,2.20837,-0.0712065,0.622298,-0.0804841,-0.00711779,-0.0681252,0.00838635,-0.0309615,-0.000188487,0.099481,-0.000308624,0.0667366,0.0246,0.58818,-0.0269201,0,0.0018967,0,0,0,0.0667383,0.0245821,0.58818,-0.0269707,0.000535536,0.00190581,5.26691e-07,-2.23216e-08,4.15465e-07,-9.25596e+61,-9.25596e+61
0.261648,0.0906286,-1.11954,-0.15894,2.20834,-0.0712066,0.622398,-0.0804843,-0.00717605,-0.068356,0.00848067,-0.0311247,-0.000159161,0.0998826,-0.000278356,0.0667096,0.0246,0.588182,-0.0270223,0,0.00191859,0,0,0,0.0667113,0.0245827,0.588182,-0.027073,0.000519461,0.0019277,5.36186e-07,-2.24087e-08,4.20756e-07,-9.25596e+61,-9.25596e+61
0.262648,0.0906214,-1.11961,-0.158932,2.20831,-0.0712068,0.622499,-0.0804846,-0.00723341,-0.0685867,0.00857352,-0.0312887,-0.000130482,0.100285,-0.000248837,0.0666826,0.0246,0.588184,-0.0271246,0,0.00194065,0,0,0,0.0666842,0.0245832,0.588184,-0.0271754,0.000503869,0.00194978,5.45631e-07,-2.24963e-08,4.26039e-07,-9.25596e+61,-9.25596e+61
0.263648,0.0906141,-1.11968,-0.158923,2.20828,-0.0712069,0.622599,-0.0804848,-0.00728982,-0.0688166,0.00866486,-0.0314532,-0.000102433,0.100687,-0.000220047,0.0666554,0.0246,0.588186,-0.0272268,0,0.00196288,0,0,0,0.066657,0.0245837,0.588186,-0.0272775,0.000488742,0.00197201,5.54853e-07,-2.25777e-08,4.3118e-07,-9.25596e+61,-9.25596e+61
0.264648,0.0906067,-1.11975,-0.158914,2.20824,-0.071207,0.6227,-0.080485,-0.0073454,-0.0690467,0.00875485,-0.0316186,-7.49899e-05,0.101089,-0.000191959,0.0666281,0.0246,0.588188,-0.027329,0,0.00198528,0,0,0,0.0666298,0.0245842,0.588188,-0.0273799,0.000474071,0.00199442,5.64089e-07,-2.26626e-08,4.36363e-07,-9.25596e+61,-9.25596e+61
0.265648,0.0905993,-1.11982,-0.158905,2.20821,-0.071207,0.622802,-0.0804852,-0.00740011,-0.0692762,0.00884345,-0.0317846,-4.81344e-05,0.101492,-0.000164554,0.0666007,0.0246,0.58819,-0.0274312,0,0.00200785,0,0,0,0.0666024,0.0245847,0.58819,-0.0274821,0.000459839,0.002017,5.73165e-07,-2.27441e-08,4.41451e-07,-9.25596e+61,-9.25596e+61
0.266649,0.0905919,-1.11989,-0.158896,2.20818,-0.071207,0.622904,-0.0804853,-0.00745397,-0.0695051,0.00893069,-0.0319513,-2.18505e-05,0.101895,-0.000137812,0.0665732,0.0246,0.588192,-0.0275333,0,0.00203058,0,0,0,0.0665749,0.0245851,0.588192,-0.0275842,0.000446033,0.00203974,5.82081e-07,-2.28225e-08,4.46444e-07,-9.25596e+61,-9.25596e+61
0.267649,0.0905844,-1.11996,-0.158887,2.20815,-0.071207,0.623006,-0.0804854,-0.00750704,-0.069734,0.00901668,-0.0321188,3.8829e-06,0.102298,-0.000111711,0.0665457,0.0246,0.588194,-0.0276355,0,0.00205349,0,0,0,0.0665473,0.0245856,0.588194,-0.0276864,0.000432644,0.00206266,5.90962e-07,-2.29028e-08,4.51437e-07,-9.25596e+61,-9.25596e+61
0.268649,0.0905768,-1.12003,-0.158878,2.20812,-0.071207,0.623109,-0.0804855,-0.00755937,-0.0699628,0.00910146,-0.032287,2.90864e-05,0.102702,-8.62284e-05,0.066518,0.0246,0.588196,-0.0277376,0,0.00207657,0,0,0,0.0665196,0.024586,0.588196,-0.0277886,0.000419656,0.00208576,5.99814e-07,-2.29852e-08,4.56433e-07,-9.25596e+61,-9.25596e+61
0.269649,0.0905692,-1.1201,-0.158869,2.20808,-0.0712069,0.623212,-0.0804856,-0.00761088,-0.0701907,0.00918498,-0.0324558,5.37723e-05,0.103105,-6.13484e-05,0.0664902,0.0246,0.588198,-0.0278397,0,0.00209981,0,0,0,0.0664918,0.0245864,0.588198,-0.0278906,0.000407056,0.00210903,6.08447e-07,-2.30627e-08,4.61288e-07,-9.25596e+61,-9.25596e+61
0.270649,0.0905615,-1.12017,-0.15886,2.20805,-0.0712069,0.623315,-0.0804856,-0.00766168,-0.0704186,0.00926736,-0.0326254,7.79604e-05,0.103509,-3.70504e-05,0.0664623,0.0246,0.5882,-0.0279418,0,0.00212324,0,0,0,0.0664639,0.0245868,0.5882,-0.0279927,0.000394835,0.00213247,6.17056e-07,-2.31426e-08,4.66148e-07,-9.25596e+61,-9.25596e+61
0.271649,0.0905538,-1.12024,-0.158851,2.20802,-0.0712068,0.623419,-0.0804856,-0.00771177,-0.0706461,0.00934861,-0.0327957,0.000101667,0.103913,-1.33158e-05,0.0664343,0.0246,0.588203,-0.0280438,0,0.00214683,0,0,0,0.0664359,0.0245872,0.588202,-0.0280948,0.000382982,0.00215608,6.25579e-07,-2.32227e-08,4.70965e-07,-9.25596e+61,-9.25596e+61
0.272649,0.0905461,-1.12031,-0.158841,2.20798,-0.0712066,0.623524,-0.0804856,-0.00776116,-0.0708733,0.00942877,-0.0329667,0.000124908,0.104318,9.87306e-06,0.0664062,0.0246,0.588205,-0.0281458,0,0.0021706,0,0,0,0.0664078,0.0245876,0.588204,-0.0281969,0.000371483,0.00217987,6.34019e-07,-2.33031e-08,4.75742e-07,-9.25596e+61,-9.25596e+61
0.273649,0.0905383,-1.12038,-0.158832,2.20795,-0.0712065,0.623628,-0.0804856,-0.0078099,-0.0711003,0.00950791,-0.0331385,0.000147701,0.104723,3.25359e-05,0.066378,0.0246,0.588207,-0.0282479,0,0.00219454,0,0,0,0.0663796,0.024588,0.588207,-0.028299,0.00036033,0.00220385,6.42446e-07,-2.33866e-08,4.80529e-07,-9.25596e+61,-9.25596e+61
0.27465,0.0905304,-1.12045,-0.158822,2.20792,-0.0712063,0.623734,-0.0804855,-0.00785796,-0.0713268,0.00958599,-0.033311,0.000170059,0.105128,5.46871e-05,0.0663497,0.0246,0.588209,-0.0283498,0,0.00221866,0,0,0,0.0663513,0.0245883,0.588209,-0.028401,0.00034951,0.00222799,6.50727e-07,-2.34682e-08,4.85227e-07,-9.25596e+61,-9.25596e+61
0.275662,0.0905224,-1.12052,-0.158812,2.20788,-0.0712061,0.62384,-0.0804854,-0.00790892,-0.0715825,0.00966762,-0.0334986,0.000192327,0.105577,7.66364e-05,0.0663209,0.0246,0.588211,-0.0284531,0,0.00224326,0,0,0,0.0663229,0.0245887,0.588211,-0.0285149,0.000339011,0.00225342,6.67701e-07,-2.38612e-08,4.96389e-07,-9.25596e+61,-9.25596e+61
0.276662,0.0905144,-1.12059,-0.158802,2.20785,-0.0712059,0.623946,-0.0804853,-0.00795264,-0.0717805,0.00973998,-0.0336595,0.000213783,0.105942,9.77712e-05,0.0662924,0.0246,0.588214,-0.028555,0,0.00226773,0,0,0,0.0662941,0.024589,0.588213,-0.0286058,0.000328709,0.00227708,6.67073e-07,-2.36317e-08,4.945e-07,-9.25596e+61,-9.25596e+61
0.277662,0.0905064,-1.12067,-0.158793,2.20782,-0.0712057,0.624053,-0.0804852,-0.00799883,-0.0720059,0.00981516,-0.0338341,0.000234915,0.106347,0.000118475,0.0662638,0.0246,0.588216,-0.0286569,0,0.00229237,0,0,0,0.0662655,0.0245894,0.588216,-0.0287077,0.000318839,0.00230176,6.75128e-07,-2.37159e-08,4.99084e-07,-9.25596e+61,-9.25596e+61
0.278663,0.0904984,-1.12074,-0.158783,2.20778,-0.0712054,0.62416,-0.0804851,-0.00804444,-0.072231,0.00988944,-0.0340093,0.000255667,0.106753,0.000138731,0.0662351,0.0246,0.588218,-0.0287588,0,0.0023172,0,0,0,0.0662367,0.0245897,0.588218,-0.0288097,0.000309265,0.00232662,6.83112e-07,-2.38011e-08,5.03632e-07,-9.25596e+61,-9.25596e+61
0.279663,0.0904903,-1.12081,-0.158773,2.20775,-0.0712051,0.624267,-0.0804849,-0.00808948,-0.0724557,0.00996285,-0.0341852,0.000276054,0.107159,0.000158551,0.0662063,0.0246,0.588221,-0.0288607,0,0.0023422,0,0,0,0.0662079,0.02459,0.58822,-0.0289116,0.000299978,0.00235166,6.91027e-07,-2.38874e-08,5.08145e-07,-9.25596e+61,-9.25596e+61
0.280663,0.0904822,-1.12088,-0.158763,2.20771,-0.0712048,0.624374,-0.0804847,-0.00813396,-0.0726801,0.0100354,-0.0343618,0.000296086,0.107566,0.00017795,0.0661774,0.0246,0.588223,-0.0289625,0,0.00236738,0,0,0,0.066179,0.0245903,0.588223,-0.0290134,0.00029097,0.00237687,6.98876e-07,-2.39749e-08,5.12624e-07,-9.25596e+61,-9.25596e+61
0.281663,0.090474,-1.12096,-0.158753,2.20768,-0.0712045,0.624482,-0.0804845,-0.00817791,-0.0729041,0.0101071,-0.0345391,0.000315777,0.107972,0.000196943,0.0661483,0.0246,0.588225,-0.0290643,0,0.00239274,0,0,0,0.06615,0.0245906,0.588225,-0.0291153,0.000282232,0.00240227,7.06659e-07,-2.40637e-08,5.17069e-07,-9.25596e+61,-9.25596e+61
0.282663,0.0904658,-1.12103,-0.158743,2.20764,-0.0712042,0.624591,-0.0804843,-0.00822134,-0.0731277,0.0101781,-0.0347171,0.000335138,0.108379,0.000215541,0.0661192,0.0246,0.588228,-0.0291661,0,0.00241828,0,0,0,0.0661209,0.0245909,0.588227,-0.0292171,0.000273756,0.00242785,7.14379e-07,-2.41538e-08,5.21482e-07,-9.25596e+61,-9.25596e+61
0.283663,0.0904575,-1.1211,-0.158732,2.20761,-0.0712038,0.624699,-0.0804841,-0.00826428,-0.0733511,0.0102483,-0.0348959,0.000354184,0.108787,0.00023376,0.06609,0.0246,0.58823,-0.0292679,0,0.002444,0,0,0,0.0660917,0.0245911,0.58823,-0.029319,0.000265534,0.00245362,7.22114e-07,-2.42479e-08,5.25918e-07,-9.25596e+61,-9.25596e+61
0.284663,0.0904492,-1.12118,-0.158722,2.20757,-0.0712035,0.624809,-0.0804838,-0.00830667,-0.0735738,0.0103177,-0.0350751,0.000372919,0.109194,0.000251607,0.0660607,0.0246,0.588233,-0.0293696,0,0.0024699,0,0,0,0.0660623,0.0245914,0.588232,-0.0294207,0.000257559,0.00247955,7.29636e-07,-2.43382e-08,5.30212e-07,-9.25596e+61,-9.25596e+61
0.285663,0.0904408,-1.12125,-0.158712,2.20754,-0.0712031,0.624918,-0.0804836,-0.00834861,-0.0737962,0.0103864,-0.0352552,0.000391358,0.109601,0.000269098,0.0660313,0.0246,0.588235,-0.0294714,0,0.00249598,0,0,0,0.0660329,0.0245917,0.588235,-0.0295224,0.000249823,0.00250568,7.37176e-07,-2.44326e-08,5.3453e-07,-9.25596e+61,-9.25596e+61
0.286663,0.0904325,-1.12132,-0.158701,2.2075,-0.0712027,0.625028,-0.0804833,-0.00839008,-0.0740183,0.0104545,-0.0354359,0.000409511,0.110009,0.000286243,0.0660017,0.0246,0.588238,-0.029573,0,0.00252225,0,0,0,0.0660034,0.0245919,0.588237,-0.0296241,0.000242319,0.00253198,7.44659e-07,-2.45285e-08,5.38818e-07,-9.25596e+61,-9.25596e+61
0.287664,0.090424,-1.1214,-0.158691,2.20747,-0.0712022,0.625139,-0.080483,-0.0084311,-0.07424,0.0105218,-0.0356174,0.000427389,0.110417,0.000303055,0.0659721,0.0246,0.58824,-0.0296747,0,0.0025487,0,0,0,0.0659738,0.0245922,0.58824,-0.0297258,0.000235041,0.00255848,7.52087e-07,-2.4626e-08,5.43077e-07,-9.25596e+61,-9.25596e+61
0.288664,0.0904155,-1.12147,-0.15868,2.20743,-0.0712018,0.62525,-0.0804827,-0.00847167,-0.0744614,0.0105885,-0.0357995,0.000445001,0.110825,0.000319543,0.0659424,0.0246,0.588243,-0.0297763,0,0.00257533,0,0,0,0.065944,0.0245924,0.588242,-0.0298275,0.000227981,0.00258515,7.59462e-07,-2.47251e-08,5.47307e-07,-9.25596e+61,-9.25596e+61
0.289664,0.090407,-1.12155,-0.158669,2.2074,-0.0712013,0.625361,-0.0804823,-0.00851181,-0.0746823,0.0106546,-0.0359823,0.000462356,0.111234,0.000335719,0.0659125,0.0246,0.588245,-0.029878,0,0.00260214,0,0,0,0.0659142,0.0245926,0.588245,-0.0299291,0.000221132,0.00261201,7.66784e-07,-2.48258e-08,5.51508e-07,-9.25596e+61,-9.25596e+61
0.290664,0.0903985,-1.12162,-0.158659,2.20736,-0.0712008,0.625472,-0.080482,-0.00855154,-0.0749028,0.01072,-0.0361658,0.000479465,0.111642,0.000351593,0.0658826,0.0246,0.588248,-0.0299795,0,0.00262914,0,0,0,0.0658843,0.0245928,0.588247,-0.0300307,0.000214489,0.00263906,7.74056e-07,-2.49282e-08,5.55682e-07,-9.25596e+61,-9.25596e+61
0.291664,0.0903899,-1.1217,-0.158648,2.20732,-0.0712004,0.625585,-0.0804816,-0.00859088,-0.0751232,0.0107849,-0.0363501,0.000496338,0.112052,0.000367177,0.0658526,0.0246,0.588251,-0.0300811,0,0.00265633,0,0,0,0.0658542,0.0245931,0.58825,-0.0301324,0.000208045,0.00266631,7.81362e-07,-2.50349e-08,5.59888e-07,-9.25596e+61,-9.25596e+61
0.292664,0.0903813,-1.12177,-0.158637,2.20729,-0.0711998,0.625697,-0.0804812,-0.00862977,-0.0753427,0.0108492,-0.0365348,0.000512978,0.11246,0.000382476,0.0658224,0.0246,0.588253,-0.0301826,0,0.0026837,0,0,0,0.0658241,0.0245933,0.588253,-0.0302338,0.000201794,0.00269372,7.88453e-07,-2.5138e-08,5.63948e-07,-9.25596e+61,-9.25596e+61
0.293664,0.0903726,-1.12185,-0.158626,2.20725,-0.0711993,0.62581,-0.0804808,-0.0086683,-0.075562,0.0109129,-0.0367204,0.000529398,0.11287,0.000397502,0.0657922,0.0246,0.588256,-0.0302841,0,0.00271126,0,0,0,0.0657939,0.0245935,0.588255,-0.0303354,0.000195731,0.00272133,7.95581e-07,-2.52455e-08,5.68042e-07,-9.25596e+61,-9.25596e+61
0.294664,0.0903639,-1.12193,-0.158615,2.20721,-0.0711988,0.625923,-0.0804804,-0.00870645,-0.075781,0.0109761,-0.0369066,0.000545606,0.113279,0.000412264,0.0657619,0.0246,0.588259,-0.0303856,0,0.002739,0,0,0,0.0657635,0.0245937,0.588258,-0.0304369,0.00018985,0.00274912,8.02663e-07,-2.53547e-08,5.7211e-07,-9.25596e+61,-9.25596e+61
0.295664,0.0903551,-1.122,-0.158604,2.20718,-0.0711982,0.626037,-0.08048,-0.00874427,-0.0759998,0.0110389,-0.0370937,0.000561612,0.11369,0.000426775,0.0657314,0.0246,0.588261,-0.0304871,0,0.00276694,0,0,0,0.0657331,0.0245938,0.588261,-0.0305384,0.000184146,0.00277712,8.09788e-07,-2.54683e-08,5.76214e-07,-9.25596e+61,-9.25596e+61
0.296665,0.0903464,-1.12208,-0.158593,2.20714,-0.0711976,0.626151,-0.0804795,-0.00878171,-0.0762179,0.011101,-0.0372813,0.00057742,0.1141,0.000441037,0.0657009,0.0246,0.588264,-0.0305885,0,0.00279506,0,0,0,0.0657025,0.024594,0.588264,-0.0306399,0.000178611,0.00280529,8.16784e-07,-2.5581e-08,5.80232e-07,-9.25596e+61,-9.25596e+61
0.297665,0.0903375,-1.12215,-0.158582,2.2071,-0.071197,0.626266,-0.0804791,-0.00881879,-0.0764356,0.0111628,-0.0374696,0.000593039,0.11451,0.000455062,0.0656702,0.0246,0.588267,-0.0306899,0,0.00282338,0,0,0,0.0656719,0.0245942,0.588267,-0.0307413,0.000173243,0.00283366,8.23739e-07,-2.56955e-08,5.84226e-07,-9.25596e+61,-9.25596e+61
0.298665,0.0903287,-1.12223,-0.158571,2.20706,-0.0711964,0.62638,-0.0804786,-0.00885551,-0.0766527,0.011224,-0.0376585,0.000608472,0.11492,0.000468853,0.0656395,0.0246,0.58827,-0.0307912,0,0.00285188,0,0,0,0.0656412,0.0245944,0.588269,-0.0308425,0.000168036,0.00286221,8.30564e-07,-2.5809e-08,5.88133e-07,-9.25596e+61,-9.25596e+61
0.299665,0.0903198,-1.12231,-0.158559,2.20703,-0.0711958,0.626496,-0.0804781,-0.00889192,-0.0768695,0.0112847,-0.0378482,0.000623732,0.115331,0.000482424,0.0656086,0.0246,0.588273,-0.0308926,0,0.00288057,0,0,0,0.0656103,0.0245946,0.588272,-0.0309439,0.000162986,0.00289095,8.37437e-07,-2.5927e-08,5.92079e-07,-9.25596e+61,-9.25596e+61
0.300665,0.0903109,-1.12238,-0.158548,2.20699,-0.0711952,0.626612,-0.0804776,-0.00892802,-0.077086,0.0113451,-0.0380385,0.000638824,0.115742,0.000495781,0.0655777,0.0246,0.588276,-0.0309939,0,0.00290945,0,0,0,0.0655794,0.0245947,0.588275,-0.0310452,0.000158087,0.00291989,8.44272e-07,-2.60469e-08,5.96001e-07,-9.25596e+61,-9.25596e+61
0.301665,0.0903019,-1.12246,-0.158537,2.20695,-0.0711945,0.626728,-0.0804771,-0.0089638,-0.077302,0.011405,-0.0382296,0.000653755,0.116153,0.000508931,0.0655467,0.0246,0.588278,-0.0310951,0,0.00293852,0,0,0,0.0655483,0.0245949,0.588278,-0.0311465,0.000153335,0.00294902,8.51069e-07,-2.61685e-08,5.99901e-07,-9.25596e+61,-9.25596e+61
0.302665,0.0902929,-1.12254,-0.158525,2.20691,-0.0711938,0.626844,-0.0804766,-0.00899928,-0.0775176,0.0114645,-0.0384213,0.000668531,0.116564,0.00052188,0.0655155,0.0246,0.588281,-0.0311964,0,0.00296778,0,0,0,0.0655172,0.024595,0.588281,-0.0312477,0.000148725,0.00297834,8.5783e-07,-2.62918e-08,6.03778e-07,-9.25596e+61,-9.25596e+61
0.303666,0.0902839,-1.12262,-0.158514,2.20687,-0.0711932,0.626961,-0.0804761,-0.00903446,-0.0777328,0.0115236,-0.0386137,0.000683159,0.116976,0.000534637,0.0654843,0.0246,0.588284,-0.0312976,0,0.00299724,0,0,0,0.0654859,0.0245952,0.588284,-0.031349,0.000144254,0.00300786,8.64556e-07,-2.6417e-08,6.07633e-07,-9.25596e+61,-9.25596e+61
0.304666,0.0902748,-1.12269,-0.158502,2.20683,-0.0711925,0.627079,-0.0804755,-0.00906935,-0.0779475,0.0115824,-0.0388068,0.000697644,0.117388,0.000547208,0.0654529,0.0246,0.588287,-0.0313988,0,0.00302689,0,0,0,0.0654546,0.0245953,0.588287,-0.0314501,0.000139917,0.00303757,8.71247e-07,-2.6544e-08,6.11466e-07,-9.25596e+61,-9.25596e+61
0.305666,0.0902657,-1.12277,-0.15849,2.2068,-0.0711917,0.627197,-0.080475,-0.00910405,-0.0781626,0.0116409,-0.039001,0.000712003,0.117801,0.000559607,0.0654214,0.0246,0.58829,-0.0314999,0,0.00305674,0,0,0,0.0654231,0.0245955,0.58829,-0.0315516,0.00013571,0.00306751,8.78186e-07,-2.66813e-08,6.15474e-07,-9.25596e+61,-9.25596e+61
0.306666,0.0902565,-1.12285,-0.158479,2.20676,-0.071191,0.627315,-0.0804744,-0.00913832,-0.078376,0.0116988,-0.0391953,0.000726218,0.118212,0.000571823,0.0653899,0.0246,0.588294,-0.0316011,0,0.00308679,0,0,0,0.0653916,0.0245956,0.588293,-0.0316526,0.000131628,0.00309759,8.84626e-07,-2.68062e-08,6.19134e-07,-9.25596e+61,-9.25596e+61
0.307666,0.0902474,-1.12293,-0.158467,2.20672,-0.0711903,0.627433,-0.0804738,-0.00917236,-0.0785892,0.0117564,-0.0393904,0.000740309,0.118624,0.000583871,0.0653582,0.0246,0.588297,-0.0317021,0,0.00311702,0,0,0,0.0653599,0.0245957,0.588296,-0.0317536,0.000127669,0.00312788,8.91125e-07,-2.69357e-08,6.22837e-07,-9.25596e+61,-9.25596e+61
0.308666,0.0902382,-1.12301,-0.158455,2.20668,-0.0711895,0.627552,-0.0804732,-0.00920616,-0.0788022,0.0118138,-0.0395862,0.000754282,0.119037,0.000595761,0.0653265,0.0246,0.5883,-0.0318032,0,0.00314745,0,0,0,0.0653281,0.0245959,0.588299,-0.0318546,0.000123829,0.00315837,8.97688e-07,-2.70699e-08,6.26585e-07,-9.25596e+61,-9.25596e+61
0.309667,0.0902289,-1.12309,-0.158443,2.20664,-0.0711888,0.627672,-0.0804726,-0.00923971,-0.0790148,0.0118708,-0.0397828,0.00076814,0.11945,0.000607495,0.0652946,0.0246,0.588303,-0.0319042,0,0.00317808,0,0,0,0.0652963,0.024596,0.588302,-0.0319556,0.000120105,0.00318906,9.0422e-07,-2.72058e-08,6.30312e-07,-9.25596e+61,-9.25596e+61
0.310667,0.0902196,-1.12317,-0.158431,2.2066,-0.071188,0.627792,-0.080472,-0.00927301,-0.0792269,0.0119275,-0.03998,0.00078189,0.119863,0.000619079,0.0652627,0.0246,0.588306,-0.0320052,0,0.0032089,0,0,0,0.0652643,0.0245961,0.588306,-0.0320566,0.000116492,0.00321995,9.10723e-07,-2.73435e-08,6.3402e-07,-9.25596e+61,-9.25596e+61
0.311667,0.0902103,-1.12325,-0.158419,2.20656,-0.0711872,0.627912,-0.0804714,-0.00930606,-0.0794385,0.0119839,-0.040178,0.000795535,0.120276,0.00063052,0.0652306,0.0246,0.588309,-0.0321061,0,0.00323992,0,0,0,0.0652323,0.0245962,0.588309,-0.0321576,0.000112987,0.00325103,9.17198e-07,-2.7483e-08,6.37707e-07,-9.25596e+61,-9.25596e+61
0.312667,0.090201,-1.12333,-0.158407,2.20652,-0.0711864,0.628033,-0.0804707,-0.00933888,-0.0796497,0.01204,-0.0403766,0.00080908,0.12069,0.000641821,0.0651984,0.0246,0.588313,-0.032207,0,0.00327114,0,0,0,0.0652001,0.0245963,0.588312,-0.0322585,0.000109588,0.00328232,9.23645e-07,-2.76242e-08,6.41374e-07,-9.25596e+61,-9.25596e+61
0.313667,0.0901916,-1.12341,-0.158395,2.20648,-0.0711855,0.628154,-0.0804701,-0.00937146,-0.0798605,0.0120959,-0.0405759,0.000822531,0.121103,0.000652989,0.0651662,0.0246,0.588316,-0.0323079,0,0.00330255,0,0,0,0.0651678,0.0245964,0.588315,-0.0323594,0.00010629,0.0033138,9.30065e-07,-2.77673e-08,6.45022e-07,-9.25596e+61,-9.25596e+61
0.314667,0.0901822,-1.12349,-0.158383,2.20644,-0.0711847,0.628275,-0.0804694,-0.00940385,-0.0800711,0.0121515,-0.0407761,0.000835895,0.121518,0.000664031,0.0651338,0.0246,0.588319,-0.0324088,0,0.00333417,0,0,0,0.0651355,0.0245965,0.588319,-0.0324604,0.000103092,0.0033455,9.36559e-07,-2.7915e-08,6.48719e-07,-9.25596e+61,-9.25596e+61
