Kcygt/SemiCircleKinovaTest_Cpp/x64/Debug/data0.csv
t,q1,q2,q3,q4,q5,q6,q7,qp1,qp2,qp3,qp4,qp5,qp6,qp7,xd,yd,zd,vxd,vyd,vzd,wxd,wyd,wzd,x,y,z,vx,vy,vz,wx,wy,wz
3.4e-06,7.7268e-14,-1.10828,2.93391e-14,2.21657,-1.4904e-13,0.610865,1.6141e-13,2.27259e-08,-1.05855e-06,8.62916e-09,-3.59038e-07,-4.38352e-08,1.41758e-06,4.74736e-08,0.0702507,0.0246,0.588057,-3.98163e-07,0,3.36884e-18,0,0,0,0.0702507,-0.0246,0.588057,-3.98163e-07,1.73965e-19,1.69645e-18,-1.6083e-19,-5.0822e-21,4.33708e-19
0.0020805,2.88847e-08,-1.10829,1.09677e-08,2.21657,-5.57147e-08,0.610867,6.03392e-08,1.39062e-05,-0.000647735,5.28029e-06,-0.000219702,-2.68233e-05,0.000867437,2.90497e-05,0.0702505,0.0246,0.588057,-0.00024364,0,7.71874e-10,0,0,0,0.0702507,-0.0246,0.588057,-0.000243641,3.97934e-11,3.89273e-10,-3.67889e-11,-1.06483e-12,9.92179e-11
0.0030806,4.94779e-08,-1.10829,1.87871e-08,2.21657,-9.5436e-08,0.610868,1.03357e-07,2.05911e-05,-0.0009591,7.81865e-06,-0.000325319,-3.97173e-05,0.00128442,4.3014e-05,0.0702502,0.0246,0.588057,-0.000360759,0,2.50582e-09,0,0,0,0.0702502,-0.0246,0.588057,-0.000360759,4.20082e-11,2.10192e-09,-3.88366e-11,-1.1241e-12,1.0474e-10
0.0043489,8.63458e-08,-1.10829,3.27863e-08,2.21657,-1.66549e-07,0.610871,1.80373e-07,2.90687e-05,-0.00135396,1.10378e-05,-0.000459267,-5.60692e-05,0.00181323,6.07232e-05,0.0702496,0.0246,0.588057,-0.000509285,0,7.04988e-09,0,0,0,0.0702499,-0.0246,0.588057,-0.000509285,1.0617e-10,6.02909e-09,-9.81552e-11,-2.84103e-12,2.64717e-10
0.0057647,1.409e-07,-1.10829,5.35016e-08,2.21657,-2.71775e-07,0.610874,2.94333e-07,3.85325e-05,-0.00179474,1.46315e-05,-0.000608808,-7.43228e-05,0.00240354,8.04921e-05,0.0702488,0.0246,0.588057,-0.000675085,0,1.642e-08,0,0,0,0.0702492,-0.0246,0.588057,-0.000675085,2.08247e-10,1.44178e-08,-1.92529e-10,-5.57262e-12,5.19228e-10
0.0069624,1.96639e-07,-1.10829,7.46672e-08,2.21657,-3.79286e-07,0.610878,4.10769e-07,4.65387e-05,-0.0021676,1.76719e-05,-0.000735332,-8.97646e-05,0.00290293,9.72159e-05,0.0702479,0.0246,0.588057,-0.000815343,0,2.89281e-08,0,0,0,0.0702483,-0.0246,0.588057,-0.000815344,2.56976e-10,2.64574e-08,-2.37582e-10,-6.8767e-12,6.40726e-10
0.0085201,2.85353e-07,-1.1083,1.08354e-07,2.21656,-5.50396e-07,0.610883,5.96083e-07,5.69515e-05,-0.00265253,2.16263e-05,-0.000899912,-0.000109848,0.00355244,0.000118967,0.0702465,0.0246,0.588057,-0.000997761,0,5.30124e-08,0,0,0,0.0702473,-0.0246,0.588057,-0.000997762,5.005e-10,4.82003e-08,-4.62737e-10,-1.33937e-11,1.24791e-09
0.0106203,4.34449e-07,-1.1083,1.64973e-07,2.21656,-8.37969e-07,0.610892,9.07528e-07,7.09914e-05,-0.00330631,2.69585e-05,-0.00112187,-0.000136926,0.00442818,0.000148293,0.0702441,0.0246,0.588057,-0.00124371,0,1.02672e-07,0,0,0,0.0702457,-0.0246,0.588057,-0.00124371,1.04851e-09,9.25916e-08,-9.69428e-10,-2.80597e-11,2.61429e-09
0.0116204,5.12136e-07,-1.10831,1.94475e-07,2.21656,-9.87804e-07,0.610897,1.0698e-06,7.76788e-05,-0.00361761,2.94995e-05,-0.00122762,-0.000149821,0.00484523,0.000162259,0.0702428,0.0246,0.588057,-0.00136083,0,1.34495e-07,0,0,0,0.0702431,-0.0246,0.588057,-0.00136083,5.97764e-10,1.28748e-07,-5.52689e-10,-1.59976e-11,1.49043e-09
0.0126205,5.9651e-07,-1.10831,2.26518e-07,2.21656,-1.15054e-06,0.610902,1.24605e-06,8.43656e-05,-0.00392891,3.20398e-05,-0.00133337,-0.000162716,0.00526228,0.000176225,0.0702414,0.0246,0.588057,-0.00147794,0,1.72295e-07,0,0,0,0.0702418,-0.0246,0.588057,-0.00147795,7.05092e-10,1.65516e-07,-6.51935e-10,-1.88705e-11,1.75803e-09
0.0136206,6.87571e-07,-1.10832,2.61102e-07,2.21656,-1.32616e-06,0.610908,1.43626e-06,9.10527e-05,-0.0042402,3.45804e-05,-0.00143915,-0.00017561,0.00567934,0.000190191,0.0702399,0.0246,0.588057,-0.00159506,0,2.16587e-07,0,0,0,0.0702403,-0.0246,0.588057,-0.00159507,8.21278e-10,2.08691e-07,-7.59377e-10,-2.19805e-11,2.04773e-09
0.0146207,7.85321e-07,-1.10832,2.98227e-07,2.21656,-1.51469e-06,0.610914,1.64043e-06,9.77402e-05,-0.00455147,3.71213e-05,-0.00154495,-0.000188505,0.00609642,0.000204157,0.0702382,0.0246,0.588057,-0.00171218,0,2.67885e-07,0,0,0,0.0702387,-0.0246,0.588057,-0.00171218,9.46323e-10,2.58787e-07,-8.75016e-10,-2.53279e-11,2.35951e-09
0.0156304,8.90827e-07,-1.10833,3.38299e-07,2.21655,-1.71817e-06,0.610921,1.86081e-06,0.000104492,-0.00486572,3.96871e-05,-0.0016518,-0.000201524,0.00651752,0.000218258,0.0702364,0.0246,0.588057,-0.00183042,0,3.27306e-07,0,0,0,0.070237,-0.0246,0.588057,-0.00183043,1.09194e-09,3.16808e-07,-1.00968e-09,-2.92261e-11,2.72259e-09
0.0166305,1.00202e-06,-1.10833,3.80532e-07,2.21655,-1.93261e-06,0.610928,2.09306e-06,0.000111181,-0.00517696,4.22289e-05,-0.00175766,-0.000214419,0.00693463,0.000232225,0.0702346,0.0246,0.588057,-0.00194754,0,3.94239e-07,0,0,0,0.0702351,-0.0246,0.588057,-0.00194755,1.22441e-09,3.82467e-07,-1.1322e-09,-3.27728e-11,3.05289e-09
0.0176306,1.1199e-06,-1.10834,4.25308e-07,2.21655,-2.15995e-06,0.610935,2.33927e-06,0.000117869,-0.00548819,4.47711e-05,-0.00186356,-0.000227315,0.00735175,0.000246192,0.0702325,0.0246,0.588057,-0.00206466,0,4.69726e-07,0,0,0,0.0702332,-0.0246,0.588057,-0.00206466,1.37612e-09,4.56496e-07,-1.27252e-09,-3.68348e-11,3.43116e-09
0.0187403,1.25894e-06,-1.10834,4.78121e-07,2.21655,-2.42808e-06,0.610944,2.62967e-06,0.000125291,-0.00583351,4.75922e-05,-0.00198109,-0.000241624,0.00781461,0.000261691,0.0702302,0.0246,0.588057,-0.00219461,0,5.64122e-07,0,0,0,0.0702311,-0.0246,0.588057,-0.00219462,1.72522e-09,5.47536e-07,-1.59539e-09,-4.6181e-11,4.30161e-09
0.0198326,1.40377e-06,-1.10835,5.3314e-07,2.21655,-2.70739e-06,0.610953,2.93218e-06,0.000132598,-0.00617339,5.03701e-05,-0.00209684,-0.000255708,0.00827023,0.000276947,0.0702277,0.0246,0.588057,-0.00232253,0,6.68624e-07,0,0,0,0.0702287,-0.0246,0.588057,-0.00232253,1.90194e-09,6.5034e-07,-1.75886e-09,-5.09135e-11,4.74223e-09
0.0211973,1.59719e-06,-1.10836,6.06616e-07,2.21654,-3.08037e-06,0.610965,3.33614e-06,0.000141727,-0.00659801,5.38405e-05,-0.00224149,-0.000273306,0.00883951,0.000296008,0.0702244,0.0246,0.588057,-0.00248235,0,8.16366e-07,0,0,0,0.0702262,-0.0246,0.588057,-0.00248235,2.71458e-09,7.9027e-07,-2.51048e-09,-7.26709e-11,6.76848e-09
0.0227581,1.83469e-06,-1.10837,6.96848e-07,2.21654,-3.53835e-06,0.61098,3.83218e-06,0.000152169,-0.0070836,5.78111e-05,-0.00240704,-0.000293432,0.00949064,0.000317808,0.0702204,0.0246,0.588057,-0.00266513,0,1.0103e-06,0,0,0,0.0702228,-0.0246,0.588057,-0.00266514,3.57879e-09,9.75899e-07,-3.30989e-09,-9.58124e-11,8.92332e-09
0.0241388,2.05755e-06,-1.10838,7.81521e-07,2.21654,-3.96808e-06,0.610994,4.29761e-06,0.000161408,-0.0075131,6.13264e-05,-0.00255359,-0.000311237,0.0100667,0.000337095,0.0702166,0.0246,0.588057,-0.00282681,0,1.20556e-06,0,0,0,0.0702186,-0.0246,0.588057,-0.00282682,3.56173e-09,1.17133e-06,-3.29428e-09,-9.53623e-11,8.88082e-09
0.0251389,2.22567e-06,-1.10839,8.45403e-07,2.21653,-4.29225e-06,0.611004,4.64871e-06,0.000168103,-0.00782416,6.3875e-05,-0.00265982,-0.000324134,0.010484,0.000351067,0.0702137,0.0246,0.588057,-0.00294393,0,1.3617e-06,0,0,0,0.0702147,-0.0246,0.588057,-0.00294394,2.7982e-09,1.3348e-06,-2.58817e-09,-7.49238e-11,6.97703e-09
0.026139,2.40048e-06,-1.1084,9.11832e-07,2.21653,-4.62931e-06,0.611015,5.01378e-06,0.000174797,-0.00813521,6.64223e-05,-0.00276607,-0.000337031,0.0109013,0.000365038,0.0702107,0.0246,0.588057,-0.00306105,0,1.53077e-06,0,0,0,0.0702118,-0.0246,0.588057,-0.00306106,3.02534e-09,1.50169e-06,-2.79837e-09,-8.10097e-11,7.5434e-09
0.0271391,2.58199e-06,-1.1084,9.80809e-07,2.21653,-4.97927e-06,0.611026,5.39283e-06,0.000181492,-0.00844624,6.89704e-05,-0.00287237,-0.000349928,0.0113186,0.00037901,0.0702076,0.0246,0.588057,-0.00317817,0,1.71328e-06,0,0,0,0.0702087,-0.0246,0.588057,-0.00317818,3.26135e-09,1.68194e-06,-3.0168e-09,-8.73341e-11,8.13189e-09
0.0281392,2.7702e-06,-1.10841,1.05234e-06,2.21652,-5.34214e-06,0.611038,5.78585e-06,0.000188187,-0.00875725,7.15192e-05,-0.00297873,-0.000362826,0.011736,0.000392983,0.0702044,0.0246,0.588057,-0.00329529,0,1.90976e-06,0,0,0,0.0702055,-0.0246,0.588057,-0.0032953,3.50623e-09,1.87606e-06,-3.24345e-09,-9.38969e-11,8.74252e-09
0.0292086,2.9791e-06,-1.10842,1.13173e-06,2.21652,-5.74489e-06,0.611051,6.22209e-06,0.000195347,-0.00908978,7.42449e-05,-0.00309251,-0.000376618,0.0121823,0.000407924,0.0702008,0.0246,0.588057,-0.00342052,0,2.13587e-06,0,0,0,0.0702022,-0.0246,0.588057,-0.00342053,4.03968e-09,2.09704e-06,-3.73709e-09,-1.08189e-10,1.00727e-08
0.030217,3.1829e-06,-1.10843,1.20919e-06,2.21652,-6.13779e-06,0.611064,6.64764e-06,0.0002021,-0.00940331,7.6817e-05,-0.00319987,-0.000389623,0.0126032,0.000422014,0.0701973,0.0246,0.588057,-0.00353861,0,2.36482e-06,0,0,0,0.0701986,-0.0246,0.588057,-0.00353862,4.07693e-09,2.32563e-06,-3.77172e-09,-1.09193e-10,1.01656e-08
0.0313463,3.41967e-06,-1.10844,1.2992e-06,2.21651,-6.59424e-06,0.611079,7.14204e-06,0.000209662,-0.0097544,7.96969e-05,-0.00332015,-0.000404188,0.0130746,0.000437793,0.0701932,0.0246,0.588057,-0.00367086,0,2.63999e-06,0,0,0,0.070195,-0.0246,0.588057,-0.00367087,4.91351e-09,2.59276e-06,-4.54592e-09,-1.31608e-10,1.22516e-08
0.0324352,3.65591e-06,-1.10845,1.38901e-06,2.21651,-7.04965e-06,0.611093,7.63533e-06,0.000216956,-0.0100929,8.24762e-05,-0.00343623,-0.000418232,0.0135291,0.000453009,0.0701891,0.0246,0.588057,-0.00379838,0,2.92478e-06,0,0,0,0.0701909,-0.0246,0.588057,-0.00379839,5.07277e-09,2.87602e-06,-4.69351e-09,-1.35884e-10,1.26487e-08
0.0335343,3.90246e-06,-1.10847,1.48274e-06,2.21651,-7.52491e-06,0.611109,8.15011e-06,0.000224319,-0.0104345,8.52821e-05,-0.00355346,-0.000432408,0.013988,0.000468369,0.0701849,0.0246,0.588057,-0.00392709,0,3.23229e-06,0,0,0,0.0701867,-0.0246,0.588057,-0.0039271,5.47336e-09,3.17969e-06,-5.06442e-09,-1.46625e-10,1.36476e-08
0.0347097,4.17538e-06,-1.10848,1.58651e-06,2.2165,-8.05098e-06,0.611126,8.71994e-06,0.000232193,-0.0107998,8.82834e-05,-0.0036789,-0.000447569,0.0144787,0.000484795,0.0701802,0.0246,0.588057,-0.00406474,0,3.58423e-06,0,0,0,0.0701824,-0.0246,0.588057,-0.00406475,6.27106e-09,3.52396e-06,-5.80288e-09,-1.68007e-10,1.56368e-08
0.0358385,4.44602e-06,-1.10849,1.68942e-06,2.2165,-8.57263e-06,0.611143,9.28498e-06,0.000239758,-0.0111506,9.11682e-05,-0.00379948,-0.000462129,0.0149501,0.000500571,0.0701755,0.0246,0.588057,-0.00419693,0,3.94541e-06,0,0,0,0.0701776,-0.0246,0.588057,-0.00419694,6.42076e-09,3.88371e-06,-5.94175e-09,-1.72031e-10,1.60101e-08
0.0370024,4.73416e-06,-1.1085,1.79899e-06,2.21649,-9.12798e-06,0.61116,9.88653e-06,0.000247559,-0.0115122,9.41431e-05,-0.00392389,-0.000477142,0.0154361,0.000516839,0.0701706,0.0246,0.588057,-0.00433323,0,4.34243e-06,0,0,0,0.0701729,-0.0246,0.588057,-0.00433325,7.05767e-09,4.2746e-06,-6.53157e-09,-1.89112e-10,1.75983e-08
0.0380787,5.00837e-06,-1.10852,1.90328e-06,2.21649,-9.65647e-06,0.611178,1.0459e-05,0.000254775,-0.0118466,9.68968e-05,-0.00403904,-0.000491026,0.0158856,0.000531884,0.0701658,0.0246,0.588057,-0.00445927,0,4.73249e-06,0,0,0,0.0701678,-0.0246,0.588057,-0.00445929,6.91195e-09,4.66606e-06,-6.39709e-09,-1.85223e-10,1.7235e-08
0.0391802,5.29714e-06,-1.10853,2.01312e-06,2.21648,-1.0213e-05,0.611196,1.10618e-05,0.00026216,-0.0121887,9.97148e-05,-0.00415696,-0.000505235,0.0163457,0.000547282,0.0701609,0.0246,0.588057,-0.00458826,0,5.15517e-06,0,0,0,0.070163,-0.0246,0.588057,-0.00458828,7.48923e-09,5.0832e-06,-6.93182e-09,-2.00709e-10,1.86745e-08
0.0421275,6.12799e-06,-1.10857,2.32917e-06,2.21647,-1.18141e-05,0.611247,1.27962e-05,0.000281903,-0.0131043,0.000107235,-0.00447257,-0.000543257,0.0175769,0.000588475,0.0701468,0.0246,0.588057,-0.00493341,0,6.40826e-06,0,0,0,0.070158,-0.0246,0.588057,-0.00493347,2.31689e-08,6.18562e-06,-2.14486e-08,-6.21016e-10,5.77734e-08
0.0436112,6.56105e-06,-1.10859,2.49395e-06,2.21646,-1.26486e-05,0.611274,1.37002e-05,0.000291878,-0.0135647,0.000111061,-0.00463222,-0.000562399,0.0181969,0.000609231,0.0701394,0.0246,0.588057,-0.00510716,0,7.10947e-06,0,0,0,0.0701434,-0.0246,0.588057,-0.00510719,1.25006e-08,6.98935e-06,-1.15734e-08,-3.3513e-10,3.11711e-08
0.0447738,6.90946e-06,-1.10861,2.62654e-06,2.21646,-1.33198e-05,0.611296,1.44274e-05,0.000299685,-0.0139255,0.000114048,-0.00475729,-0.000577399,0.0186828,0.000625491,0.0701334,0.0246,0.588057,-0.0052433,0,7.69334e-06,0,0,0,0.0701359,-0.0246,0.588057,-0.00524333,1.0325e-08,7.59413e-06,-9.55992e-09,-2.76837e-10,2.57462e-08
0.0459001,7.25551e-06,-1.10862,2.75825e-06,2.21645,-1.39865e-05,0.611318,1.51496e-05,0.000307246,-0.0142751,0.00011694,-0.00487849,-0.000591932,0.0191536,0.000641242,0.0701274,0.0246,0.588057,-0.0053752,0,8.28865e-06,0,0,0,0.0701298,-0.0246,0.588057,-0.00537523,1.05127e-08,8.18765e-06,-9.73444e-09,-2.81898e-10,2.62143e-08
0.0470412,7.61485e-06,-1.10864,2.89504e-06,2.21645,-1.46788e-05,0.61134,1.58995e-05,0.000314907,-0.0146292,0.00011987,-0.0050014,-0.000606655,0.0196306,0.000657202,0.0701212,0.0246,0.588057,-0.00550883,0,8.92233e-06,0,0,0,0.0701237,-0.0246,0.588057,-0.00550886,1.11875e-08,8.81484e-06,-1.03601e-08,-3.00025e-10,2.78972e-08
0.0481888,7.98509e-06,-1.10866,3.03598e-06,2.21644,-1.5392e-05,0.611363,1.66721e-05,0.000322613,-0.0149852,0.000122818,-0.00512512,-0.000621463,0.0201103,0.000673253,0.0701148,0.0246,0.588057,-0.00564322,0,9.59139e-06,0,0,0,0.0701174,-0.0246,0.588057,-0.00564325,1.18075e-08,9.47795e-06,-1.09351e-08,-3.16686e-10,2.94433e-08
0.0492276,8.32747e-06,-1.10867,3.16634e-06,2.21644,-1.60515e-05,0.611385,1.73866e-05,0.000329593,-0.0153074,0.000125491,-0.00523726,-0.000634868,0.0205447,0.000687786,0.0701089,0.0246,0.588057,-0.00576487,0,1.02251e-05,0,0,0,0.070111,-0.0246,0.588057,-0.0057649,1.11544e-08,1.0118e-05,-1.03311e-08,-2.99201e-10,2.78148e-08
0.0502932,8.68631e-06,-1.10869,3.30299e-06,2.21643,-1.67427e-05,0.611407,1.81354e-05,0.000336752,-0.0156379,0.000128232,-0.00535236,-0.000648619,0.0209903,0.000702693,0.0701026,0.0246,0.588057,-0.00588966,0,1.09036e-05,0,0,0,0.070105,-0.0246,0.588057,-0.00588969,1.19434e-08,1.07889e-05,-1.10628e-08,-3.20399e-10,2.97826e-08
0.0513315,9.0432e-06,-1.1087,3.43891e-06,2.21642,-1.743e-05,0.611429,1.88801e-05,0.00034373,-0.0159599,0.000130905,-0.00546463,-0.000662018,0.0214246,0.000717219,0.0700965,0.0246,0.588057,-0.00601125,0,1.1593e-05,0,0,0,0.0700987,-0.0246,0.588057,-0.00601128,1.21235e-08,1.14765e-05,-1.12304e-08,-3.25265e-10,3.02318e-08
0.0523903,9.41468e-06,-1.10872,3.58039e-06,2.21642,-1.81454e-05,0.611452,1.96552e-05,0.000350846,-0.0162882,0.000133632,-0.00557921,-0.000675683,0.0218674,0.000732034,0.07009,0.0246,0.588057,-0.00613524,0,1.23252e-05,0,0,0,0.0700925,-0.0246,0.588057,-0.00613528,1.28788e-08,1.22015e-05,-1.19311e-08,-3.45565e-10,3.21153e-08
0.0534613,9.79815e-06,-1.10874,3.72647e-06,2.21641,-1.88839e-05,0.611476,2.04552e-05,0.000358046,-0.0166202,0.000136391,-0.00569524,-0.000689505,0.0223155,0.00074702,0.0700834,0.0246,0.588057,-0.00626066,0,1.30967e-05,0,0,0,0.070086,-0.0246,0.588057,-0.0062607,1.35659e-08,1.29664e-05,-1.25687e-08,-3.64044e-10,3.3829e-08
0.0545502,1.0196e-05,-1.10876,3.87804e-06,2.21641,-1.965e-05,0.611501,2.12853e-05,0.000365368,-0.0169577,0.000139199,-0.00581332,-0.000703559,0.0227711,0.000762258,0.0700765,0.0246,0.588057,-0.00638818,0,1.39134e-05,0,0,0,0.0700793,-0.0246,0.588057,-0.00638822,1.4361e-08,1.37754e-05,-1.33065e-08,-3.85424e-10,3.58119e-08
0.0559747,1.07301e-05,-1.10878,4.08155e-06,2.2164,-2.06784e-05,0.611534,2.23995e-05,0.000374942,-0.0173992,0.000142865,-0.00596788,-0.000721945,0.0233671,0.000782191,0.0700673,0.0246,0.588057,-0.00655499,0,1.5032e-05,0,0,0,0.0700723,-0.0246,0.588057,-0.00655505,1.97822e-08,1.4842e-05,-1.83319e-08,-5.30994e-10,4.93315e-08
0.0594598,1.21184e-05,-1.10885,4.61063e-06,2.21638,-2.33513e-05,0.611621,2.52954e-05,0.000398342,-0.0184794,0.000151809,-0.00634638,-0.000766932,0.0248258,0.00083095,0.0700437,0.0246,0.588057,-0.00696312,0,1.80183e-05,0,0,0,0.070063,-0.0246,0.588057,-0.00696327,5.46189e-08,1.74937e-05,-5.0631e-08,-1.46647e-09,1.3621e-07
0.0618849,1.31241e-05,-1.10889,4.99408e-06,2.21636,-2.52871e-05,0.611683,2.73929e-05,0.000414703,-0.0192298,0.000158119,-0.00661162,-0.000798241,0.0258414,0.00086492,0.0700265,0.0246,0.588057,-0.00724711,0,2.03141e-05,0,0,0,0.0700387,-0.0246,0.588057,-0.00724722,4.11767e-08,1.99186e-05,-3.81784e-08,-1.10596e-09,1.02688e-07
0.0629224,1.35616e-05,-1.10891,5.16097e-06,2.21635,-2.61291e-05,0.611711,2.83054e-05,0.000421735,-0.0195504,0.000160855,-0.00672577,-0.000811637,0.0262762,0.000879471,0.0700189,0.0246,0.588057,-0.0073686,0,2.1353e-05,0,0,0,0.0700211,-0.0246,0.588057,-0.00736865,1.82136e-08,2.11781e-05,-1.68888e-08,-4.89308e-10,4.54213e-08
0.0641332,1.40821e-05,-1.10894,5.35953e-06,2.21634,-2.71308e-05,0.611743,2.93908e-05,0.000429891,-0.0199251,0.000163991,-0.00685832,-0.00082727,0.0267834,0.000896427,0.0700099,0.0246,0.588057,-0.00751039,0,2.26095e-05,0,0,0,0.0700135,-0.0246,0.588057,-0.00751045,2.20832e-08,2.23975e-05,-2.04793e-08,-5.93349e-10,5.5072e-08
0.0651544,1.45282e-05,-1.10896,5.52971e-06,2.21634,-2.79891e-05,0.611771,3.03208e-05,0.000436782,-0.0202409,0.000166649,-0.00697043,-0.000840457,0.0272114,0.000910734,0.0700022,0.0246,0.588057,-0.00762998,0,2.37068e-05,0,0,0,0.0700044,-0.0246,0.588057,-0.00763003,1.92243e-08,2.35223e-05,-1.78298e-08,-5.16609e-10,4.79426e-08
0.0661545,1.49717e-05,-1.10898,5.69897e-06,2.21633,-2.88425e-05,0.611799,3.12457e-05,0.000443527,-0.0205502,0.000169248,-0.00708026,-0.000853371,0.0276305,0.000924745,0.0699945,0.0246,0.588057,-0.00774709,0,2.48154e-05,0,0,0,0.0699966,-0.0246,0.588057,-0.00774715,1.94107e-08,2.4629e-05,-1.80044e-08,-5.21686e-10,4.84077e-08
0.0671547,1.54221e-05,-1.109,5.87086e-06,2.21632,-2.9709e-05,0.611827,3.21846e-05,0.000450275,-0.0208595,0.000171849,-0.00719023,-0.000866287,0.0280497,0.000938758,0.0699867,0.0246,0.588057,-0.00786422,0,2.5958e-05,0,0,0,0.0699888,-0.0246,0.588057,-0.00786428,2.00053e-08,2.5766e-05,-1.85578e-08,-5.37737e-10,4.98908e-08
0.0681548,1.58792e-05,-1.10902,6.04533e-06,2.21632,-3.05883e-05,0.611855,3.31375e-05,0.000457023,-0.0211687,0.000174451,-0.00730032,-0.000879203,0.028469,0.000952772,0.0699788,0.0246,0.588057,-0.00798134,0,2.71351e-05,0,0,0,0.069981,-0.0246,0.588057,-0.00798139,2.06048e-08,2.69373e-05,-1.91158e-08,-5.53926e-10,5.13862e-08
0.0691549,1.6343e-05,-1.10904,6.2224e-06,2.21631,-3.14805e-05,0.611884,3.41044e-05,0.000463774,-0.0214778,0.000177055,-0.00741053,-0.000892119,0.0288883,0.000966786,0.0699707,0.0246,0.588057,-0.00809845,0,2.83473e-05,0,0,0,0.069973,-0.0246,0.588057,-0.00809851,2.12152e-08,2.81436e-05,-1.96842e-08,-5.70415e-10,5.29089e-08
0.070155,1.68136e-05,-1.10906,6.40208e-06,2.2163,-3.23856e-05,0.611913,3.50853e-05,0.000470526,-0.0217868,0.000179661,-0.00752089,-0.000905035,0.0293077,0.000980803,0.0699626,0.0246,0.588057,-0.00821556,0,2.9595e-05,0,0,0,0.0699649,-0.0246,0.588057,-0.00821563,2.18346e-08,2.93854e-05,-2.0261e-08,-5.8715e-10,5.44541e-08
0.0711551,1.72909e-05,-1.10909,6.58437e-06,2.21629,-3.33037e-05,0.611943,3.60802e-05,0.00047728,-0.0220958,0.000182269,-0.00763138,-0.000917953,0.0297272,0.00099482,0.0699543,0.0246,0.588057,-0.00833268,0,3.08788e-05,0,0,0,0.0699567,-0.0246,0.588057,-0.00833274,2.2463e-08,3.06632e-05,-2.08463e-08,-6.04133e-10,5.60216e-08
0.0724518,1.79211e-05,-1.10912,6.82509e-06,2.21628,-3.45157e-05,0.611982,3.73937e-05,0.000486028,-0.0224964,0.00018564,-0.00777466,-0.000934702,0.0302711,0.00101299,0.0699434,0.0246,0.588057,-0.00848453,0,3.25979e-05,0,0,0,0.0699483,-0.0246,0.588057,-0.00848461,3.01983e-08,3.23081e-05,-2.80288e-08,-8.12299e-10,7.53139e-08
0.0743693,1.88779e-05,-1.10916,7.1906e-06,2.21627,-3.63555e-05,0.612042,3.93877e-05,0.000498962,-0.0230888,0.000190621,-0.00798683,-0.000959472,0.0310756,0.00103986,0.0699269,0.0246,0.588057,-0.00870907,0,3.52552e-05,0,0,0,0.0699373,-0.0246,0.588057,-0.0087092,4.70555e-08,3.48036e-05,-4.36846e-08,-1.26603e-09,1.17358e-07
0.0755621,1.94827e-05,-1.10919,7.42174e-06,2.21626,-3.75183e-05,0.61208,4.0648e-05,0.000507059,-0.0234565,0.000193777,-0.00811983,-0.000974882,0.0315764,0.0010566,0.0699164,0.0246,0.588057,-0.00884875,0,3.69789e-05,0,0,0,0.0699206,-0.0246,0.588057,-0.00884884,3.02211e-08,3.66889e-05,-2.80597e-08,-8.13294e-10,7.53725e-08
0.0766925,2.00645e-05,-1.10922,7.64413e-06,2.21625,-3.86368e-05,0.612116,4.18603e-05,0.000514709,-0.0238053,0.000196741,-0.00824564,-0.000989486,0.032051,0.00107246,0.0699064,0.0246,0.588057,-0.00898112,0,3.86634e-05,0,0,0,0.0699101,-0.0246,0.588057,-0.0089812,2.95058e-08,3.83803e-05,-2.7399e-08,-7.94183e-10,7.3589e-08
0.0778443,2.06663e-05,-1.10924,7.87422e-06,2.21624,-3.97937e-05,0.612153,4.31142e-05,0.000522502,-0.0241606,0.000199759,-0.00837398,-0.00100437,0.0325346,0.00108861,0.0698959,0.0246,0.588058,-0.009116,0,4.04317e-05,0,0,0,0.0698999,-0.0246,0.588057,-0.00911609,3.09766e-08,4.01345e-05,-2.87687e-08,-8.33918e-10,7.7258e-08
0.0789711,2.12637e-05,-1.10927,8.10264e-06,2.21623,-4.09418e-05,0.61219,4.43586e-05,0.000530131,-0.0245081,0.000202717,-0.00849975,-0.00101893,0.0330078,0.00110442,0.0698856,0.0246,0.588058,-0.00924795,0,4.2213e-05,0,0,0,0.0698894,-0.0246,0.588058,-0.00924804,3.11904e-08,4.19137e-05,-2.8971e-08,-8.39823e-10,7.77919e-08
0.0800775,2.18585e-05,-1.1093,8.33014e-06,2.21622,-4.20849e-05,0.612227,4.55977e-05,0.000537625,-0.0248491,0.000205624,-0.00862344,-0.00103322,0.0334726,0.00111995,0.0698753,0.0246,0.588058,-0.00937751,0,4.40122e-05,0,0,0,0.069879,-0.0246,0.588058,-0.0093776,3.14924e-08,4.371e-05,-2.92554e-08,-8.48103e-10,7.85456e-08
0.0812591,2.25032e-05,-1.10933,8.57677e-06,2.21621,-4.33238e-05,0.612268,4.69406e-05,0.000545626,-0.0252134,0.000208726,-0.00875567,-0.00104849,0.0339691,0.00113652,0.0698641,0.0246,0.588058,-0.00951587,0,4.59894e-05,0,0,0,0.0698686,-0.0246,0.588058,-0.00951597,3.46355e-08,4.56571e-05,-3.21799e-08,-9.3292e-10,8.6386e-08
0.0823679,2.31166e-05,-1.10936,8.81145e-06,2.2162,-4.45023e-05,0.612306,4.82181e-05,0.000553144,-0.025555,0.000211648,-0.00888007,-0.00106282,0.0344351,0.00115209,0.0698535,0.0246,0.588058,-0.00964571,0,4.78978e-05,0,0,0,0.0698574,-0.0246,0.588058,-0.00964581,3.33974e-08,4.75774e-05,-3.10337e-08,-8.99739e-10,8.32986e-08
0.0834405,2.37177e-05,-1.10938,9.04149e-06,2.21619,-4.56572e-05,0.612343,4.94699e-05,0.000560417,-0.0258853,0.000214476,-0.00900057,-0.00107669,0.0348859,0.00116714,0.0698431,0.0246,0.588058,-0.00977131,0,4.97934e-05,0,0,0,0.0698467,-0.0246,0.588058,-0.00977141,3.31566e-08,4.94754e-05,-3.08141e-08,-8.93412e-10,8.26986e-08
0.0845488,2.43471e-05,-1.10941,9.28243e-06,2.21618,-4.68663e-05,0.612382,5.07807e-05,0.000567932,-0.0262266,0.000217396,-0.00912522,-0.00109101,0.0353519,0.0011827,0.0698322,0.0246,0.588058,-0.00990109,0,5.1804e-05,0,0,0,0.0698362,-0.0246,0.588058,-0.00990119,3.51792e-08,5.14666e-05,-3.26983e-08,-9.48083e-10,8.77442e-08
0.0856679,2.49912e-05,-1.10944,9.52902e-06,2.21617,-4.81035e-05,0.612422,5.21219e-05,0.000575524,-0.0265712,0.000220349,-0.00925131,-0.00110548,0.0358225,0.00119841,0.069821,0.0246,0.588058,-0.0100321,0,5.38884e-05,0,0,0,0.0698252,-0.0246,0.588058,-0.0100322,3.64716e-08,5.35386e-05,-3.39044e-08,-9.83099e-10,9.09686e-08
0.0870692,2.5811e-05,-1.10948,9.84296e-06,2.21616,-4.9678e-05,0.612473,5.38288e-05,0.000585019,-0.0270026,0.000224033,-0.00940924,-0.00112359,0.0364119,0.00121808,0.0698069,0.0246,0.588058,-0.0101962,0,5.65763e-05,0,0,0,0.069814,-0.0246,0.588058,-0.0101964,4.71793e-08,5.61238e-05,-4.38665e-08,-1.272e-09,1.17678e-07
0.0905767,2.7946e-05,-1.10958,1.06608e-05,2.21612,-5.3778e-05,0.612606,5.82738e-05,0.000608716,-0.0280828,0.000233171,-0.00980461,-0.00116894,0.0378875,0.00126728,0.0697704,0.0246,0.588058,-0.0106069,0,6.36928e-05,0,0,0,0.0697997,-0.0246,0.588058,-0.0106073,1.2782e-07,6.24669e-05,-1.18904e-07,-3.44755e-09,3.18837e-07
0.092064,2.88666e-05,-1.10962,1.10137e-05,2.21611,-5.55452e-05,0.612664,6.01898e-05,0.000618957,-0.0285384,0.000237265,-0.00997577,-0.00118817,0.0385142,0.00128824,0.0697545,0.0246,0.588058,-0.0107811,0,6.68821e-05,0,0,0,0.0697625,-0.0246,0.588058,-0.0107813,5.60066e-08,6.63451e-05,-5.21091e-08,-1.51133e-09,1.39702e-07
0.0931112,2.95223e-05,-1.10965,1.12651e-05,2.2161,-5.68036e-05,0.612704,6.15542e-05,0.000626111,-0.0288597,0.000240081,-0.0100956,-0.00120171,0.0389554,0.00130297,0.0697431,0.0246,0.588058,-0.0109037,0,6.91904e-05,0,0,0,0.0697465,-0.0246,0.588058,-0.0109038,4.03404e-08,6.88037e-05,-3.75384e-08,-1.08884e-09,1.00625e-07
0.0941759,3.01966e-05,-1.10968,1.15237e-05,2.21609,-5.80977e-05,0.612746,6.29574e-05,0.000633356,-0.0291867,0.000242913,-0.0102171,-0.00121548,0.0394039,0.00131794,0.0697314,0.0246,0.588058,-0.0110284,0,7.15912e-05,0,0,0,0.0697351,-0.0246,0.588058,-0.0110285,4.19615e-08,7.11889e-05,-3.90527e-08,-1.13281e-09,1.04669e-07
0.095176,3.08368e-05,-1.10971,1.17693e-05,2.21608,-5.93263e-05,0.612786,6.42896e-05,0.000640169,-0.0294937,0.000245582,-0.0103316,-0.00122842,0.0398253,0.001332,0.0697203,0.0246,0.588058,-0.0111455,0,7.38963e-05,0,0,0,0.0697233,-0.0246,0.588058,-0.0111456,4.02606e-08,7.35103e-05,-3.7475e-08,-1.08711e-09,1.00427e-07
0.0961761,3.14839e-05,-1.10974,1.20176e-05,2.21607,-6.05678e-05,0.612826,6.56358e-05,0.000646981,-0.0298007,0.000248248,-0.0104461,-0.00124135,0.0402468,0.00134606,0.0697091,0.0246,0.588059,-0.0112626,0,7.62503e-05,0,0,0,0.0697122,-0.0246,0.588059,-0.0112627,4.11146e-08,7.58561e-05,-3.82754e-08,-1.11038e-09,1.02558e-07
0.0972208,3.21672e-05,-1.10977,1.22799e-05,2.21605,-6.18787e-05,0.612869,6.70573e-05,0.000654097,-0.0301212,0.000251033,-0.0105659,-0.00125487,0.0406872,0.00136075,0.0696973,0.0246,0.588059,-0.0113849,0,7.87621e-05,0,0,0,0.0697009,-0.0246,0.588059,-0.0113851,4.389e-08,7.83414e-05,-4.08653e-08,-1.18556e-09,1.09483e-07
0.0982209,3.28282e-05,-1.1098,1.25336e-05,2.21604,-6.31467e-05,0.61291,6.84323e-05,0.000660917,-0.0304279,0.000253709,-0.0106809,-0.0012678,0.0411089,0.00137481,0.0696859,0.0246,0.588059,-0.011502,0,8.12178e-05,0,0,0,0.069689,-0.0246,0.588059,-0.0115022,4.28889e-08,8.08067e-05,-3.9939e-08,-1.15875e-09,1.06986e-07
0.099221,3.3496e-05,-1.10983,1.279e-05,2.21603,-6.44275e-05,0.612952,6.98213e-05,0.000667738,-0.0307346,0.000256383,-0.010796,-0.00128074,0.0415307,0.00138888,0.0696743,0.0246,0.588059,-0.0116191,0,8.37241e-05,0,0,0,0.0696775,-0.0246,0.588059,-0.0116193,4.37705e-08,8.33046e-05,-4.0766e-08,-1.1828e-09,1.09187e-07
0.100221,3.41706e-05,-1.10987,1.30491e-05,2.21602,-6.57213e-05,0.612994,7.12244e-05,0.00067456,-0.0310411,0.000259061,-0.0109114,-0.00129368,0.0419526,0.00140295,0.0696626,0.0246,0.588059,-0.0117362,0,8.62813e-05,0,0,0,0.0696659,-0.0246,0.588059,-0.0117364,4.46612e-08,8.58533e-05,-4.16018e-08,-1.20711e-09,1.1141e-07
0.101221,3.48521e-05,-1.1099,1.33109e-05,2.21601,-6.70281e-05,0.613036,7.26416e-05,0.000681386,-0.0313476,0.000261741,-0.0110269,-0.00130662,0.0423745,0.00141702,0.0696508,0.0246,0.588059,-0.0118533,0,8.88901e-05,0,0,0,0.0696542,-0.0246,0.588059,-0.0118535,4.5561e-08,8.84535e-05,-4.24463e-08,-1.23167e-09,1.13655e-07
0.102221,3.55404e-05,-1.10993,1.35753e-05,2.216,-6.83478e-05,0.613079,7.40728e-05,0.000688215,-0.0316539,0.000264425,-0.0111426,-0.00131956,0.0427966,0.00143109,0.0696389,0.0246,0.588059,-0.0119704,0,9.1551e-05,0,0,0,0.0696423,-0.0246,0.588059,-0.0119706,4.64699e-08,9.11057e-05,-4.32997e-08,-1.2565e-09,1.15924e-07
0.10359,3.64947e-05,-1.10997,1.39421e-05,2.21598,-7.01774e-05,0.613138,7.60572e-05,0.00069753,-0.0320733,0.000268066,-0.0113008,-0.00133727,0.0433741,0.00145033,0.0696224,0.0246,0.588059,-0.0121306,0,9.52765e-05,0,0,0,0.0696303,-0.0246,0.588059,-0.0121308,6.52937e-08,9.46509e-05,-6.08525e-08,-1.76589e-09,1.62885e-07
0.105062,3.75369e-05,-1.11002,1.43427e-05,2.21597,-7.21752e-05,0.613203,7.82239e-05,0.000707588,-0.0325242,0.000272018,-0.0114718,-0.00135633,0.0439961,0.00147106,0.0696044,0.0246,0.588059,-0.0123031,0,9.93986e-05,0,0,0,0.0696137,-0.0246,0.588059,-0.0123033,7.23125e-08,9.87058e-05,-6.74095e-08,-1.95629e-09,1.80397e-07
0.106316,3.8435e-05,-1.11006,1.46881e-05,2.21595,-7.38962e-05,0.613259,8.00906e-05,0.000716182,-0.0329075,0.000275417,-0.0116182,-0.00137256,0.0445258,0.00148873,0.0695889,0.0246,0.588059,-0.0124499,0,0.000103,0,0,0,0.0695956,-0.0246,0.588059,-0.0124501,6.30468e-08,0.000102396,-5.87835e-08,-1.70611e-09,1.57283e-07
0.107458,3.92616e-05,-1.1101,1.50061e-05,2.21594,-7.54803e-05,0.61331,8.18088e-05,0.000724005,-0.0332566,0.000278509,-0.0117517,-0.00138733,0.0450083,0.00150481,0.0695746,0.0246,0.58806,-0.0125836,0,0.000106354,0,0,0,0.06958,-0.0246,0.58806,-0.0125838,5.86566e-08,0.000105793,-5.47001e-08,-1.58772e-09,1.46333e-07
0.108646,4.01313e-05,-1.11014,1.53407e-05,2.21593,-7.71464e-05,0.613364,8.36161e-05,0.000732132,-0.0336197,0.000281713,-0.0118906,-0.00140271,0.0455103,0.00152154,0.0695596,0.0246,0.58806,-0.0127227,0,0.00010992,0,0,0,0.0695656,-0.0246,0.58806,-0.0127229,6.23829e-08,0.000109323,-5.81863e-08,-1.689e-09,1.55631e-07
0.109779,4.09698e-05,-1.11018,1.56635e-05,2.21591,-7.87527e-05,0.613416,8.53585e-05,0.000739899,-0.0339659,0.000284784,-0.0120235,-0.00141738,0.0459895,0.00153751,0.0695451,0.0246,0.58806,-0.0128554,0,0.000113396,0,0,0,0.0695505,-0.0246,0.58806,-0.0128556,6.07755e-08,0.000112814,-5.66975e-08,-1.64589e-09,1.51622e-07
0.110944,4.1841e-05,-1.11022,1.59989e-05,2.2159,-8.04214e-05,0.61347,8.71687e-05,0.000747879,-0.0343217,0.000287936,-0.0121603,-0.00143246,0.0464822,0.00155392,0.06953,0.0246,0.58806,-0.0129918,0,0.000117044,0,0,0,0.069536,-0.0246,0.58806,-0.012992,6.38099e-08,0.000116433,-5.95397e-08,-1.7285e-09,1.59194e-07
0.112057,4.2682e-05,-1.11026,1.63227e-05,2.21588,-8.20319e-05,0.613523,8.89158e-05,0.000755516,-0.0346615,0.000290961,-0.0122915,-0.00144688,0.0469531,0.00156961,0.0695155,0.0246,0.58806,-0.0131221,0,0.000120603,0,0,0,0.0695208,-0.0246,0.58806,-0.0131223,6.22088e-08,0.000120007,-5.80566e-08,-1.68556e-09,1.55202e-07
0.113149,4.35148e-05,-1.1103,1.66436e-05,2.21587,-8.36266e-05,0.613574,9.06458e-05,0.000763006,-0.0349946,0.000293927,-0.0124203,-0.00146101,0.0474149,0.00158499,0.0695011,0.0246,0.58806,-0.0132499,0,0.000124161,0,0,0,0.0695062,-0.0246,0.58806,-0.0132501,6.22025e-08,0.000123565,-5.80613e-08,-1.6858e-09,1.55188e-07
0.114375,4.44611e-05,-1.11034,1.70082e-05,2.21585,-8.54383e-05,0.613633,9.26114e-05,0.000771411,-0.0353689,0.000297247,-0.0125651,-0.00147689,0.0479341,0.00160228,0.0694848,0.0246,0.58806,-0.0133935,0,0.000128243,0,0,0,0.0694918,-0.0246,0.58806,-0.0133937,7.14393e-08,0.000127559,-6.66973e-08,-1.93663e-09,1.78235e-07
0.115449,4.52971e-05,-1.11038,1.73304e-05,2.21584,-8.70387e-05,0.613685,9.43477e-05,0.000778798,-0.0356961,0.000300188,-0.0126925,-0.0014908,0.0483887,0.00161742,0.0694703,0.0246,0.588061,-0.0135192,0,0.000131888,0,0,0,0.0694753,-0.0246,0.58806,-0.0135194,6.37037e-08,0.000131278,-5.9486e-08,-1.72739e-09,1.58937e-07
0.116671,4.62594e-05,-1.11042,1.77014e-05,2.21583,-8.88804e-05,0.613745,9.63459e-05,0.000787181,-0.0360688,0.000303504,-0.0128374,-0.00150663,0.0489064,0.00163465,0.0694537,0.0246,0.588061,-0.0136623,0,0.000136122,0,0,0,0.0694608,-0.0246,0.588061,-0.0136625,7.40923e-08,0.000135413,-6.92017e-08,-2.00961e-09,1.84859e-07
0.118041,4.73503e-05,-1.11047,1.81222e-05,2.21581,-9.0968e-05,0.613813,9.8611e-05,0.00079658,-0.0364862,0.000307225,-0.0130002,-0.00152437,0.0494865,0.00165396,0.0694349,0.0246,0.588061,-0.0138226,0,0.000140972,0,0,0,0.0694441,-0.0246,0.588061,-0.0138229,8.49795e-08,0.000140158,-7.93896e-08,-2.30559e-09,2.12026e-07
0.120895,4.96793e-05,-1.11058,1.90208e-05,2.21577,-9.54241e-05,0.613957,0.000103446,0.000816054,-0.0373569,0.000314849,-0.0133387,-0.00156134,0.0506958,0.00169415,0.069395,0.0246,0.588061,-0.0141568,0,0.000151446,0,0,0,0.0694252,-0.0246,0.588061,-0.0141573,1.85799e-07,0.000149668,-1.73671e-07,-5.04334e-09,4.63603e-07
0.122956,5.1391e-05,-1.11066,1.96817e-05,2.21574,-9.86977e-05,0.614064,0.000106998,0.000830343,-0.0379827,0.00032061,-0.0135877,-0.00158805,0.0515705,0.0017233,0.0693655,0.0246,0.588062,-0.0143981,0,0.000159326,0,0,0,0.0693848,-0.0246,0.588061,-0.0143985,1.38852e-07,0.000157997,-1.29835e-07,-3.77127e-09,3.46463e-07
0.125298,5.33733e-05,-1.11075,2.04475e-05,2.21571,-0.000102488,0.614187,0.000111112,0.000846458,-0.0386947,0.000327017,-0.0138696,-0.0016184,0.0525644,0.00175635,0.0693315,0.0246,0.588062,-0.0146723,0,0.000168604,0,0,0,0.0693551,-0.0246,0.588062,-0.0146728,1.63849e-07,0.000167036,-1.53277e-07,-4.4526e-09,4.0885e-07
0.127085,5.49083e-05,-1.11082,2.10409e-05,2.21568,-0.000105422,0.614282,0.000114296,0.000858864,-0.0392364,0.000332027,-0.0140871,-0.00164156,0.0533237,0.00178163,0.0693051,0.0246,0.588062,-0.0148815,0,0.000175922,0,0,0,0.0693207,-0.0246,0.588062,-0.0148819,1.28669e-07,0.000174691,-1.20406e-07,-3.4984e-09,3.21068e-07
0.130665,5.80708e-05,-1.11096,2.22641e-05,2.21563,-0.000111465,0.614479,0.000120855,0.000883377,-0.0403248,0.000341676,-0.0145195,-0.00168798,0.0548444,0.00183211,0.0692511,0.0246,0.588063,-0.0153006,0,0.000191211,0,0,0,0.0692941,-0.0246,0.588062,-0.0153014,2.72525e-07,0.000188605,-2.55211e-07,-7.41458e-09,6.8009e-07
0.133387,6.05261e-05,-1.11107,2.32148e-05,2.21559,-0.000116154,0.614631,0.000125945,0.000902327,-0.0411474,0.000349368,-0.0148547,-0.00172326,0.0560023,0.00187064,0.069209,0.0246,0.588064,-0.0156191,0,0.000203407,0,0,0,0.0692394,-0.0246,0.588063,-0.0156198,2.15936e-07,0.000201343,-2.02323e-07,-5.87987e-09,5.38878e-07
0.136131,6.30549e-05,-1.11119,2.41947e-05,2.21555,-0.000120981,0.614788,0.000131186,0.00092135,-0.0419776,0.000357021,-0.015193,-0.00175885,0.0571708,0.00190947,0.0691657,0.0246,0.588064,-0.0159404,0,0.000216223,0,0,0,0.0691969,-0.0246,0.588064,-0.0159411,2.26925e-07,0.000214054,-2.12739e-07,-6.18359e-09,5.66322e-07
0.13788,6.46878e-05,-1.11126,2.4828e-05,2.21552,-0.000124097,0.614889,0.000134569,0.000933634,-0.0425043,0.000362081,-0.0154119,-0.00178154,0.0579164,0.00193429,0.0691376,0.0246,0.588064,-0.0161451,0,0.000224664,0,0,0,0.0691531,-0.0246,0.588064,-0.0161456,1.48388e-07,0.000223246,-1.39158e-07,-4.04601e-09,3.7032e-07
0.139396,6.61186e-05,-1.11133,2.53832e-05,2.2155,-0.000126827,0.614978,0.000137533,0.000944198,-0.0429614,0.000366374,-0.0156008,-0.0018012,0.0585624,0.00195576,0.069113,0.0246,0.588065,-0.0163225,0,0.000232153,0,0,0,0.0691249,-0.0246,0.588065,-0.0163229,1.31435e-07,0.000230897,-1.23298e-07,-3.58539e-09,3.28018e-07
0.141109,6.77574e-05,-1.1114,2.60193e-05,2.21547,-0.000129952,0.615079,0.000140926,0.000956088,-0.0434788,0.000371161,-0.0158142,-0.00182343,0.0592932,0.00198002,0.0690849,0.0246,0.588065,-0.0165231,0,0.000240822,0,0,0,0.0691001,-0.0246,0.588065,-0.0165236,1.52367e-07,0.000239366,-1.42986e-07,-4.15821e-09,3.80267e-07
0.14258,6.91785e-05,-1.11147,2.65713e-05,2.21545,-0.000132662,0.615168,0.000143869,0.000966362,-0.0439217,0.00037535,-0.0159989,-0.00184252,0.0599208,0.00200087,0.0690605,0.0246,0.588066,-0.0166952,0,0.00024843,0,0,0,0.0690718,-0.0246,0.588065,-0.0166956,1.33494e-07,0.000247155,-1.25314e-07,-3.64479e-09,3.33169e-07
0.143744,7.03124e-05,-1.11152,2.70119e-05,2.21543,-0.000134823,0.615238,0.000146216,0.000974515,-0.0442716,0.000378692,-0.0161458,-0.00185761,0.0604175,0.00201738,0.069041,0.0246,0.588066,-0.0168314,0,0.000254561,0,0,0,0.0690473,-0.0246,0.588066,-0.0168317,1.07365e-07,0.000253536,-1.0081e-07,-2.93249e-09,2.67959e-07
0.145182,7.17289e-05,-1.11158,2.75626e-05,2.21541,-0.000137523,0.615326,0.000149148,0.000984501,-0.0447053,0.000382714,-0.0163263,-0.00187629,0.0610317,0.00203775,0.0690166,0.0246,0.588066,-0.0169998,0,0.000262282,0,0,0,0.0690277,-0.0246,0.588066,-0.0170002,1.3546e-07,0.000260988,-1.27231e-07,-3.70122e-09,3.38088e-07
0.146943,7.34841e-05,-1.11166,2.82452e-05,2.21538,-0.000140867,0.615435,0.00015278,0.000996735,-0.0452357,0.000387648,-0.016548,-0.00189915,0.0617839,0.00206269,0.0689865,0.0246,0.588067,-0.0172059,0,0.000271941,0,0,0,0.0690032,-0.0246,0.588066,-0.0172064,1.69873e-07,0.000270319,-1.59616e-07,-4.6436e-09,4.2399e-07
0.148709,7.52662e-05,-1.11174,2.89387e-05,2.21535,-0.000144262,0.615545,0.000156468,0.00100907,-0.0457665,0.000392669,-0.016772,-0.00192207,0.0625388,0.00208773,0.0689559,0.0246,0.588067,-0.0174126,0,0.000281865,0,0,0,0.0689729,-0.0246,0.588067,-0.0174131,1.74522e-07,0.000280198,-1.64049e-07,-4.77312e-09,4.35603e-07
0.151262,7.78873e-05,-1.11186,2.99593e-05,2.2153,-0.000149253,0.615707,0.000161889,0.00102678,-0.0465347,0.000399792,-0.0170953,-0.00195522,0.0636302,0.00212389,0.0689111,0.0246,0.588068,-0.0177113,0,0.000296629,0,0,0,0.0689422,-0.0246,0.588067,-0.0177121,2.61052e-07,0.000294137,-2.45532e-07,-7.14415e-09,6.51617e-07
0.152354,7.90173e-05,-1.11191,3.03996e-05,2.21528,-0.000151403,0.615777,0.000164226,0.00103468,-0.0468591,0.000403212,-0.0172392,-0.0019694,0.0640985,0.00213951,0.0688917,0.0246,0.588068,-0.0178391,0,0.0003031,0,0,0,0.0688969,-0.0246,0.588068,-0.0178395,1.1333e-07,0.000302019,-1.06615e-07,-3.10324e-09,2.82878e-07
0.153401,8.01084e-05,-1.11196,3.0825e-05,2.21527,-0.00015348,0.615845,0.000166482,0.00104203,-0.0471728,0.000406222,-0.0173737,-0.00198299,0.0645468,0.00215437,0.0688729,0.0246,0.588069,-0.0179617,0,0.000309392,0,0,0,0.0688775,-0.0246,0.588068,-0.017962,1.10173e-07,0.000308341,-1.03671e-07,-3.01778e-09,2.75003e-07
0.154526,8.12893e-05,-1.11202,3.12855e-05,2.21525,-0.000155727,0.615918,0.000168923,0.0010499,-0.04751,0.000409434,-0.0175182,-0.0019976,0.0650285,0.00217034,0.0688527,0.0246,0.588069,-0.0180933,0,0.000316248,0,0,0,0.0688587,-0.0246,0.588069,-0.0180937,1.20107e-07,0.000315102,-1.13047e-07,-3.29095e-09,2.99803e-07
0.15585,8.2691e-05,-1.11208,3.18323e-05,2.21522,-0.000158393,0.616005,0.00017182,0.00105914,-0.0479067,0.000413198,-0.0176884,-0.00201479,0.0655954,0.00218912,0.0688286,0.0246,0.588069,-0.0182481,0,0.000324442,0,0,0,0.0688383,-0.0246,0.588069,-0.0182486,1.43766e-07,0.00032307,-1.35358e-07,-3.94067e-09,3.58867e-07
0.157557,8.45191e-05,-1.11216,3.25459e-05,2.21519,-0.00016187,0.616118,0.000175598,0.00107105,-0.0484183,0.000418033,-0.0179084,-0.00203697,0.0663269,0.00221333,0.0687973,0.0246,0.58807,-0.0184479,0,0.000335219,0,0,0,0.0688142,-0.0246,0.58807,-0.0184485,1.89546e-07,0.00033341,-1.78534e-07,-5.19789e-09,4.73159e-07
0.158744,8.58014e-05,-1.11222,3.30466e-05,2.21517,-0.000164308,0.616198,0.000178247,0.0010795,-0.0487721,0.000421578,-0.0180642,-0.0020524,0.0668366,0.00223026,0.0687753,0.0246,0.58807,-0.0185869,0,0.000342857,0,0,0,0.0687827,-0.0246,0.58807,-0.0185873,1.33923e-07,0.000341579,-1.26177e-07,-3.67425e-09,3.3431e-07
0.159789,8.69373e-05,-1.11227,3.34904e-05,2.21515,-0.000166467,0.616268,0.000180593,0.00108688,-0.049084,0.000424635,-0.0182008,-0.00206597,0.0672851,0.00224513,0.0687558,0.0246,0.588071,-0.0187091,0,0.000349673,0,0,0,0.0687606,-0.0246,0.588071,-0.0187095,1.19408e-07,0.000348534,-1.12529e-07,-3.27716e-09,2.98079e-07
0.160919,8.8174e-05,-1.11233,3.39738e-05,2.21513,-0.000168817,0.616344,0.000183148,0.00109481,-0.0494215,0.00042789,-0.0183481,-0.00208065,0.0677699,0.00226118,0.0687346,0.0246,0.588071,-0.0188413,0,0.000357141,0,0,0,0.068741,-0.0246,0.588071,-0.0188417,1.30912e-07,0.000355892,-1.23404e-07,-3.59411e-09,3.26802e-07
0.161936,8.92948e-05,-1.11238,3.4412e-05,2.21511,-0.000170947,0.616414,0.000185462,0.00110199,-0.0497247,0.000430869,-0.0184817,-0.00209387,0.0682066,0.00227565,0.0687154,0.0246,0.588071,-0.0189603,0,0.000363955,0,0,0,0.0687198,-0.0246,0.588071,-0.0189607,1.19385e-07,0.000362816,-1.12566e-07,-3.27878e-09,2.98031e-07
0.163002,9.0478e-05,-1.11243,3.48748e-05,2.21509,-0.000173195,0.616487,0.000187905,0.0011095,-0.0500428,0.000433959,-0.0186215,-0.00210773,0.0686646,0.00229081,0.0686951,0.0246,0.588072,-0.0190851,0,0.000371192,0,0,0,0.0687005,-0.0246,0.588072,-0.0190855,1.26843e-07,0.000369982,-1.19629e-07,-3.48475e-09,3.16653e-07
0.164608,9.22769e-05,-1.11251,3.55787e-05,2.21506,-0.000176611,0.616598,0.000191619,0.00112071,-0.0505226,0.000438509,-0.0188312,-0.00212859,0.069354,0.0023136,0.0686643,0.0246,0.588072,-0.0192729,0,0.000382266,0,0,0,0.0686801,-0.0246,0.588072,-0.0192735,1.94741e-07,0.000380409,-1.83741e-07,-5.35237e-09,4.86176e-07
0.168019,9.61813e-05,-1.11269,3.71073e-05,2.215,-0.000184025,0.61684,0.000199677,0.00114441,-0.0515426,0.000448041,-0.0192772,-0.00217295,0.0708201,0.00236198,0.0685979,0.0246,0.588074,-0.019672,0,0.000406528,0,0,0,0.0686492,-0.0246,0.588073,-0.0196734,4.3137e-07,0.000402416,-4.07369e-07,-1.18652e-08,1.07703e-06
0.169071,9.7393e-05,-1.11274,3.75822e-05,2.21498,-0.000186324,0.616915,0.000202177,0.00115236,-0.0518487,0.000451718,-0.0194253,-0.00218661,0.0712743,0.00237719,0.0685771,0.0246,0.588074,-0.019795,0,0.000414208,0,0,0,0.0685821,-0.0246,0.588074,-0.0197954,1.34664e-07,0.000412924,-1.27198e-07,-3.70697e-09,3.36206e-07
0.170071,9.85526e-05,-1.11279,3.8037e-05,2.21496,-0.000188524,0.616987,0.000204568,0.00115945,-0.0521456,0.000454673,-0.019559,-0.00219961,0.0717049,0.00239144,0.0685573,0.0246,0.588075,-0.019912,0,0.000421601,0,0,0,0.0685612,-0.0246,0.588075,-0.0199124,1.29618e-07,0.000420366,-1.22463e-07,-3.56931e-09,3.23615e-07
0.171103,9.97571e-05,-1.11285,3.85095e-05,2.21494,-0.000190809,0.617061,0.000207053,0.00116675,-0.0524521,0.000457706,-0.0196971,-0.00221304,0.0721496,0.00240614,0.0685366,0.0246,0.588075,-0.0200327,0,0.000429325,0,0,0,0.0685413,-0.0246,0.588075,-0.0200332,1.35452e-07,0.000428034,-1.28009e-07,-3.73122e-09,3.38186e-07
0.172178,0.000101019,-1.11291,3.90048e-05,2.21492,-0.000193202,0.617139,0.000209655,0.00117436,-0.052771,0.000460867,-0.0198413,-0.00222701,0.0726126,0.00242145,0.0685151,0.0246,0.588076,-0.0201585,0,0.000437465,0,0,0,0.0685206,-0.0246,0.588075,-0.0201589,1.42799e-07,0.000436104,-1.3499e-07,-3.93498e-09,3.56534e-07
0.173275,0.000102316,-1.11296,3.95139e-05,2.21489,-0.000195661,0.617219,0.000212328,0.00118214,-0.0530962,0.000464104,-0.0199888,-0.00224128,0.0730854,0.00243708,0.0684929,0.0246,0.588076,-0.0202868,0,0.000445878,0,0,0,0.068499,-0.0246,0.588076,-0.0202872,1.47633e-07,0.000444472,-1.39599e-07,-4.06969e-09,3.6861e-07
0.174488,0.00010376,-1.11303,4.00811e-05,2.21487,-0.000198398,0.617309,0.000215305,0.00119072,-0.0534559,0.000467666,-0.0201522,-0.00225706,0.0736084,0.00245436,0.0684682,0.0246,0.588077,-0.0204286,0,0.000455307,0,0,0,0.0684767,-0.0246,0.588076,-0.0204292,1.65579e-07,0.000453729,-1.56618e-07,-4.56615e-09,4.13425e-07
0.175543,0.000105024,-1.11309,4.05779e-05,2.21485,-0.000200794,0.617387,0.000217911,0.00119825,-0.0537677,0.00047084,-0.0202956,-0.00227078,0.0740636,0.00246942,0.0684466,0.0246,0.588077,-0.020552,0,0.000463614,0,0,0,0.068452,-0.0246,0.588077,-0.0205525,1.45781e-07,0.000462226,-1.37929e-07,-4.02176e-09,3.63996e-07
0.176558,0.000106247,-1.11314,4.10586e-05,2.21483,-0.000203111,0.617462,0.00022043,0.00120547,-0.0540677,0.000473867,-0.0204334,-0.00228397,0.0745015,0.0024839,0.0684256,0.0246,0.588078,-0.0206707,0,0.000471698,0,0,0,0.0684303,-0.0246,0.588077,-0.0206711,1.41829e-07,0.000470347,-1.34227e-07,-3.91415e-09,3.54135e-07
0.177558,0.00010746,-1.11319,4.15355e-05,2.21481,-0.000205408,0.617537,0.000222929,0.00121258,-0.0543633,0.000476849,-0.0205695,-0.00229698,0.0749332,0.00249817,0.0684049,0.0246,0.588078,-0.0207876,0,0.000479758,0,0,0,0.0684093,-0.0246,0.588078,-0.0207881,1.41424e-07,0.000478412,-1.33879e-07,-3.90433e-09,3.53128e-07
0.17856,0.000108683,-1.11325,4.20166e-05,2.21479,-0.000207724,0.617613,0.000225448,0.00121972,-0.0546596,0.000479839,-0.0207063,-0.00231003,0.0753662,0.00251247,0.068384,0.0246,0.588078,-0.0209049,0,0.00048793,0,0,0,0.0683885,-0.0246,0.588078,-0.0209054,1.43403e-07,0.000486565,-1.35788e-07,-3.96034e-09,3.58075e-07
0.17982,0.00011023,-1.11332,4.26256e-05,2.21476,-0.000210654,0.617708,0.000228635,0.00122863,-0.0550322,0.00048353,-0.0208776,-0.00232642,0.0759102,0.00253042,0.0683576,0.0246,0.588079,-0.0210522,0,0.000498327,0,0,0,0.0683675,-0.0246,0.588079,-0.0210528,1.82725e-07,0.000496587,-1.73083e-07,-5.04828e-09,4.56275e-07
0.181954,0.000112885,-1.11344,4.36708e-05,2.21471,-0.00021568,0.617872,0.000234101,0.00124362,-0.0556645,0.000489671,-0.0211674,-0.0023542,0.0768323,0.00256079,0.0683124,0.0246,0.58808,-0.0213018,0,0.000516282,0,0,0,0.068341,-0.0246,0.588079,-0.0213028,3.17133e-07,0.000513263,-3.0058e-07,-8.76674e-09,7.91948e-07
0.182974,0.000114161,-1.11349,4.41737e-05,2.21469,-0.000218094,0.617951,0.000236728,0.00125119,-0.0559614,0.000493062,-0.0213125,-0.00236746,0.0772743,0.00257548,0.0682906,0.0246,0.588081,-0.0214211,0,0.000525011,0,0,0,0.0682956,-0.0246,0.588081,-0.0214216,1.53272e-07,0.000523553,-1.45308e-07,-4.23948e-09,3.82743e-07
0.183992,0.000115442,-1.11355,4.46788e-05,2.21467,-0.000220518,0.61803,0.000239365,0.00125846,-0.0562611,0.000496128,-0.0214533,-0.00238071,0.0777148,0.00259003,0.0682687,0.0246,0.588081,-0.0215401,0,0.000533823,0,0,0,0.0682737,-0.0246,0.588081,-0.0215406,1.5473e-07,0.00053235,-1.46732e-07,-4.2814e-09,3.86392e-07
0.184995,0.000116711,-1.11361,4.51792e-05,2.21465,-0.000222918,0.618109,0.000241976,0.00126563,-0.0565561,0.000499156,-0.0215924,-0.00239376,0.0781489,0.00260435,0.0682471,0.0246,0.588082,-0.0216573,0,0.000542596,0,0,0,0.0682518,-0.0246,0.588082,-0.0216578,1.54062e-07,0.00054113,-1.46138e-07,-4.26445e-09,3.84728e-07
0.186096,0.000118114,-1.11367,4.57326e-05,2.21463,-0.00022557,0.618195,0.000244861,0.00127348,-0.0568802,0.000502453,-0.0217451,-0.0024081,0.0786257,0.00262008,0.0682232,0.0246,0.588082,-0.0217861,0,0.000552344,0,0,0,0.0682301,-0.0246,0.588082,-0.0217867,1.7129e-07,0.000550714,-1.62531e-07,-4.74312e-09,4.27759e-07
0.187663,0.000120126,-1.11376,4.6527e-05,2.21459,-0.000229375,0.61832,0.000249001,0.00128457,-0.057342,0.000507052,-0.0219618,-0.0024285,0.0793042,0.00264242,0.0681889,0.0246,0.588083,-0.0219693,0,0.000566409,0,0,0,0.0682061,-0.0246,0.588083,-0.0219701,2.47817e-07,0.000564052,-2.35252e-07,-6.86548e-09,6.18895e-07
0.188663,0.000121418,-1.11382,4.70373e-05,2.21457,-0.000231817,0.618399,0.000251658,0.00129189,-0.0576336,0.000510264,-0.0221041,-0.00244151,0.0797381,0.00265679,0.0681669,0.0246,0.588084,-0.0220862,0,0.000575512,0,0,0,0.0681717,-0.0246,0.588084,-0.0220867,1.59915e-07,0.000573991,-1.51847e-07,-4.4324e-09,3.99367e-07
0.189663,0.000122718,-1.11388,4.75507e-05,2.21455,-0.000234271,0.618479,0.00025433,0.00129906,-0.0579269,0.000513304,-0.0222445,-0.00245453,0.0801718,0.00267109,0.0681447,0.0246,0.588084,-0.0222031,0,0.000584711,0,0,0,0.0681496,-0.0246,0.588084,-0.0222036,1.61638e-07,0.000583174,-1.53527e-07,-4.4818e-09,4.03676e-07
0.190901,0.000124336,-1.11395,4.81906e-05,2.21452,-0.00023733,0.618579,0.000257658,0.00130788,-0.0582905,0.000516998,-0.0224177,-0.00247065,0.0807086,0.00268877,0.0681171,0.0246,0.588085,-0.0223478,0,0.000596233,0,0,0,0.0681274,-0.0246,0.588085,-0.0223485,2.02706e-07,0.000594305,-1.92604e-07,-5.62283e-09,5.06256e-07
0.191901,0.000125652,-1.11401,4.87109e-05,2.2145,-0.000239814,0.618661,0.000260362,0.00131513,-0.0585826,0.000520127,-0.0225599,-0.00248368,0.0811429,0.00270311,0.0680947,0.0246,0.588086,-0.0224647,0,0.000605652,0,0,0,0.0680997,-0.0246,0.588086,-0.0224653,1.65544e-07,0.000604078,-1.57338e-07,-4.59394e-09,4.13447e-07
0.192901,0.000126974,-1.11407,4.92341e-05,2.21447,-0.000242311,0.618742,0.000263079,0.00132232,-0.0588752,0.000523185,-0.0227014,-0.0024967,0.0815771,0.00271742,0.0680722,0.0246,0.588086,-0.0225816,0,0.000615169,0,0,0,0.0680772,-0.0246,0.588086,-0.0225822,1.67281e-07,0.000613578,-1.59036e-07,-4.64389e-09,4.17792e-07
0.193901,0.000128304,-1.11413,4.97604e-05,2.21445,-0.000244821,0.618824,0.000265811,0.00132951,-0.0591677,0.000526248,-0.0228433,-0.00250972,0.0820115,0.00273174,0.0680496,0.0246,0.588087,-0.0226985,0,0.000624785,0,0,0,0.0680546,-0.0246,0.588087,-0.0226991,1.69045e-07,0.000623178,-1.60759e-07,-4.69461e-09,4.22202e-07
0.195265,0.00013013,-1.11421,5.04835e-05,2.21442,-0.000248267,0.618937,0.000269563,0.00133922,-0.0595675,0.00053031,-0.0230358,-0.00252749,0.0826037,0.00275122,0.0680185,0.0246,0.588088,-0.0228579,0,0.000638057,0,0,0,0.0680319,-0.0246,0.588087,-0.0228587,2.33778e-07,0.000635835,-2.2241e-07,-6.49518e-09,5.83898e-07
0.19778,0.000133543,-1.11436,5.18356e-05,2.21436,-0.000254705,0.619147,0.000276571,0.001357,-0.0603056,0.000537656,-0.0233902,-0.00256026,0.0836963,0.00278708,0.0679606,0.0246,0.58809,-0.0231518,0,0.000663023,0,0,0,0.0680008,-0.0246,0.588088,-0.0231533,4.42414e-07,0.000658818,-4.21229e-07,-1.23006e-08,1.10509e-06
0.198866,0.000135025,-1.11442,5.24238e-05,2.21433,-0.000257502,0.619239,0.000279616,0.00136527,-0.0606166,0.000541507,-0.023553,-0.00257439,0.0841701,0.00280284,0.0679354,0.0246,0.58809,-0.0232788,0,0.000674005,0,0,0,0.0679426,-0.0246,0.58809,-0.0232794,1.93257e-07,0.000672168,-1.84055e-07,-5.37713e-09,4.82714e-07
0.199866,0.000136398,-1.11448,5.29685e-05,2.21431,-0.000260089,0.619323,0.000282433,0.00137252,-0.0609075,0.000544633,-0.0236976,-0.00258742,0.0846055,0.00281718,0.0679121,0.0246,0.588091,-0.0233956,0,0.000684223,0,0,0,0.0679173,-0.0246,0.588091,-0.0233962,1.7976e-07,0.000682515,-1.71252e-07,-5.00362e-09,4.49007e-07
0.200866,0.000137778,-1.11455,5.35162e-05,2.21429,-0.00026269,0.619408,0.000285265,0.00137975,-0.0611985,0.000547734,-0.0238421,-0.00260045,0.0850411,0.00283152,0.0678886,0.0246,0.588092,-0.0235125,0,0.000694543,0,0,0,0.0678939,-0.0246,0.588091,-0.0235131,1.8159e-07,0.000692818,-1.73047e-07,-5.05653e-09,4.53585e-07
0.201866,0.000139165,-1.11461,5.40671e-05,2.21426,-0.000265304,0.619494,0.000288111,0.00138698,-0.0614892,0.000550841,-0.023987,-0.00261348,0.0854768,0.00284586,0.0678651,0.0246,0.588092,-0.0236294,0,0.000704967,0,0,0,0.0678704,-0.0246,0.588092,-0.02363,1.83429e-07,0.000703225,-1.74853e-07,-5.10976e-09,4.58188e-07
0.202866,0.00014056,-1.11467,5.46212e-05,2.21424,-0.000267931,0.61958,0.000290972,0.00139422,-0.0617798,0.000553954,-0.0241323,-0.00262651,0.0859127,0.0028602,0.0678414,0.0246,0.588093,-0.0237462,0,0.000715495,0,0,0,0.0678467,-0.0246,0.588093,-0.0237468,1.85278e-07,0.000713735,-1.7667e-07,-5.1633e-09,4.62814e-07
0.203958,0.00014209,-1.11474,5.52296e-05,2.21421,-0.000270814,0.619674,0.000294112,0.0014021,-0.0620971,0.000557325,-0.024291,-0.00264074,0.0863886,0.00287585,0.0678154,0.0246,0.588094,-0.0238738,0,0.000727107,0,0,0,0.067823,-0.0246,0.588093,-0.0238745,2.04481e-07,0.000725165,-1.95046e-07,-5.70077e-09,5.10792e-07
0.204958,0.0001435,-1.1148,5.57902e-05,2.21419,-0.000273468,0.619761,0.000297002,0.00140938,-0.0623868,0.000560483,-0.0244376,-0.00265377,0.0868249,0.00289021,0.0677914,0.0246,0.588095,-0.0239906,0,0.000737853,0,0,0,0.0677969,-0.0246,0.588094,-0.0239913,1.89177e-07,0.000736057,-1.80504e-07,-5.27633e-09,4.7257e-07
0.206035,0.000145026,-1.11487,5.63973e-05,2.21416,-0.000276341,0.619855,0.000300131,0.00141717,-0.0626992,0.000563825,-0.024595,-0.0026678,0.0872947,0.00290566,0.0677655,0.0246,0.588095,-0.0241164,0,0.000749542,0,0,0,0.0677729,-0.0246,0.588095,-0.0241171,2.05863e-07,0.000747587,-1.96491e-07,-5.74407e-09,5.14261e-07
0.207095,0.000146537,-1.11493,5.69987e-05,2.21414,-0.000279184,0.619948,0.000303228,0.00142487,-0.0630062,0.000567156,-0.0247508,-0.00268162,0.0877576,0.00292088,0.0677399,0.0246,0.588096,-0.0242403,0,0.000761171,0,0,0,0.0677469,-0.0246,0.588096,-0.024241,2.04833e-07,0.000759226,-1.95572e-07,-5.71778e-09,5.11696e-07
0.208449,0.000148479,-1.11502,5.77723e-05,2.2141,-0.000282839,0.620068,0.00030721,0.00143461,-0.0633993,0.0005713,-0.024949,-0.00269928,0.0883488,0.00294028,0.067707,0.0246,0.588097,-0.0243985,0,0.000776197,0,0,0,0.0677212,-0.0246,0.588097,-0.0243994,2.65088e-07,0.000773681,-2.53212e-07,-7.40331e-09,6.62243e-07
0.20949,0.000149981,-1.11509,5.83705e-05,2.21408,-0.000285663,0.62016,0.000310286,0.00144229,-0.0636988,0.0005747,-0.0251046,-0.00271284,0.0888039,0.00295527,0.0676815,0.0246,0.588098,-0.0245201,0,0.00078788,0,0,0,0.0676882,-0.0246,0.588098,-0.0245208,2.05837e-07,0.000785927,-1.96678e-07,-5.75139e-09,5.14224e-07
0.212401,0.000154239,-1.11527,6.00682e-05,2.214,-0.000293671,0.620422,0.00031901,0.00146286,-0.0645473,0.00058316,-0.0255275,-0.00275083,0.0900754,0.00299683,0.0676096,0.0246,0.5881,-0.0248601,0,0.000821178,0,0,0,0.0676627,-0.0246,0.588098,-0.0248621,5.91949e-07,0.00081556,-5.66166e-07,-1.65526e-08,1.47899e-06
0.21359,0.000155989,-1.11535,6.07665e-05,2.21397,-0.000296958,0.62053,0.000322592,0.00147212,-0.064882,0.000587621,-0.0257144,-0.00276629,0.090597,0.00301416,0.06758,0.0246,0.588101,-0.0249988,0,0.000835034,0,0,0,0.0675903,-0.0246,0.588101,-0.0249997,2.44418e-07,0.000832715,-2.3385e-07,-6.84071e-09,6.10653e-07
0.214754,0.000157712,-1.11543,6.14547e-05,2.21394,-0.000300195,0.620636,0.000326119,0.00148062,-0.0652169,0.000591333,-0.0258891,-0.00278146,0.0911066,0.0030309,0.0675508,0.0246,0.588102,-0.0251348,0,0.000848755,0,0,0,0.0675606,-0.0246,0.588102,-0.0251356,2.42037e-07,0.000846459,-2.31659e-07,-6.77739e-09,6.04716e-07
0.215754,0.0001592,-1.11549,6.20493e-05,2.21391,-0.00030299,0.620727,0.000329165,0.00148799,-0.0655037,0.000594587,-0.0260405,-0.0027945,0.0915448,0.00304531,0.0675256,0.0246,0.588103,-0.0252515,0,0.000860665,0,0,0,0.0675313,-0.0246,0.588103,-0.0252523,2.09969e-07,0.000858673,-2.0103e-07,-5.88211e-09,5.24601e-07
0.216754,0.000160695,-1.11556,6.26472e-05,2.21389,-0.000305798,0.620819,0.000332225,0.0014953,-0.0657911,0.000597781,-0.0261914,-0.00280754,0.0919831,0.00305969,0.0675003,0.0246,0.588104,-0.0253683,0,0.000872686,0,0,0,0.0675061,-0.0246,0.588104,-0.025369,2.11952e-07,0.000870676,-2.02995e-07,-5.94015e-09,5.29564e-07
0.217754,0.000162198,-1.11562,6.32483e-05,2.21386,-0.000308619,0.620912,0.0003353,0.00150263,-0.0660783,0.000600981,-0.0263427,-0.00282058,0.0924216,0.00307408,0.0674749,0.0246,0.588105,-0.0254851,0,0.000884819,0,0,0,0.0674807,-0.0246,0.588105,-0.0254858,2.13966e-07,0.00088279,-2.04992e-07,-5.99912e-09,5.34606e-07
0.218754,0.000163708,-1.11569,6.38525e-05,2.21384,-0.000311453,0.621005,0.000338388,0.00150995,-0.0663652,0.000604187,-0.0264944,-0.00283362,0.0928602,0.00308847,0.0674493,0.0246,0.588106,-0.0256019,0,0.000897063,0,0,0,0.0674552,-0.0246,0.588105,-0.0256026,2.15947e-07,0.000895016,-2.06958e-07,-6.05722e-09,5.39565e-07
0.219754,0.000165226,-1.11576,6.446e-05,2.21381,-0.0003143,0.621098,0.000341492,0.00151728,-0.0666519,0.000607399,-0.0266465,-0.00284666,0.0932991,0.00310287,0.0674237,0.0246,0.588107,-0.0257186,0,0.00090942,0,0,0,0.0674296,-0.0246,0.588106,-0.0257194,2.17959e-07,0.000907353,-2.08955e-07,-6.11625e-09,5.44601e-07
0.220754,0.000166751,-1.11582,6.50707e-05,2.21378,-0.00031716,0.621192,0.000344609,0.00152462,-0.0669383,0.000610618,-0.0267991,-0.00285971,0.093738,0.00311726,0.0673979,0.0246,0.588108,-0.0258354,0,0.000921889,0,0,0,0.0674039,-0.0246,0.588107,-0.0258361,2.19981e-07,0.000919804,-2.10964e-07,-6.17562e-09,5.49662e-07
0.221755,0.000168283,-1.11589,6.56846e-05,2.21375,-0.000320033,0.621286,0.000347741,0.00153196,-0.0672245,0.000613842,-0.0269521,-0.00287275,0.0941773,0.00313167,0.067372,0.0246,0.588109,-0.0259521,0,0.000934473,0,0,0,0.0673781,-0.0246,0.588108,-0.0259529,2.22035e-07,0.000932369,-2.13004e-07,-6.23594e-09,5.54803e-07
0.222755,0.000169822,-1.11596,6.63018e-05,2.21373,-0.000322919,0.621381,0.000350888,0.00153931,-0.0675105,0.000617073,-0.0271055,-0.0028858,0.0946166,0.00314607,0.067346,0.0246,0.588109,-0.0260688,0,0.00094717,0,0,0,0.0673521,-0.0246,0.588109,-0.0260696,2.24054e-07,0.000945046,-2.15013e-07,-6.29535e-09,5.59857e-07
0.223833,0.000171491,-1.11603,6.69709e-05,2.2137,-0.000326047,0.621483,0.000354297,0.00154721,-0.0678189,0.000620528,-0.0272709,-0.00289986,0.0950905,0.00316159,0.0673178,0.0246,0.58811,-0.0261947,0,0.000960989,0,0,0,0.067326,-0.0246,0.58811,-0.0261956,2.43978e-07,0.000958677,-2.3422e-07,-6.85825e-09,6.09658e-07
0.224833,0.000173046,-1.1161,6.75948e-05,2.21367,-0.00032896,0.621579,0.000357474,0.0015546,-0.0681039,0.000623807,-0.0274256,-0.00291291,0.0955303,0.00317602,0.0672916,0.0246,0.588111,-0.0263114,0,0.000973924,0,0,0,0.0672978,-0.0246,0.588111,-0.0263122,2.28327e-07,0.00097176,-2.19268e-07,-6.42118e-09,5.70555e-07
0.226529,0.000175703,-1.11622,6.86615e-05,2.21362,-0.000333937,0.621742,0.000362901,0.00156682,-0.0685909,0.000629005,-0.027684,-0.00293505,0.0962757,0.00320035,0.0672468,0.0246,0.588113,-0.0265093,0,0.000996122,0,0,0,0.0672715,-0.0246,0.588112,-0.0265107,3.93118e-07,0.000992398,-3.77748e-07,-1.10619e-08,9.82401e-07
0.22788,0.000177833,-1.11631,6.95173e-05,2.21359,-0.000337926,0.621873,0.00036725,0.00157692,-0.0689737,0.000633566,-0.0278961,-0.00295266,0.0968706,0.00321987,0.0672109,0.0246,0.588114,-0.026667,0,0.00101404,0,0,0,0.0672265,-0.0246,0.588114,-0.0266681,3.1692e-07,0.00101104,-3.04668e-07,-8.9238e-09,7.9199e-07
0.229083,0.00017974,-1.11639,7.02842e-05,2.21355,-0.000341496,0.62199,0.000371144,0.00158586,-0.069315,0.000637566,-0.0280847,-0.00296835,0.0974005,0.00323725,0.0671787,0.0246,0.588116,-0.0268073,0,0.00103018,0,0,0,0.0671905,-0.0246,0.588115,-0.0268083,2.85286e-07,0.00102748,-2.74369e-07,-8.03759e-09,7.12945e-07
0.230154,0.000181448,-1.11647,7.09711e-05,2.21352,-0.000344691,0.622095,0.000374629,0.00159383,-0.0696186,0.000641137,-0.0282533,-0.00298232,0.0978726,0.00325272,0.0671499,0.0246,0.588117,-0.0269323,0,0.00104469,0,0,0,0.0671582,-0.0246,0.588116,-0.0269332,2.56502e-07,0.00104227,-2.46778e-07,-7.23032e-09,6.41022e-07
0.231226,0.000183166,-1.11654,7.16625e-05,2.21349,-0.000347905,0.6222,0.000378134,0.00160176,-0.069923,0.000644658,-0.0284217,-0.00299631,0.0983454,0.00326819,0.067121,0.0246,0.588118,-0.0270574,0,0.00105936,0,0,0,0.0671294,-0.0246,0.588117,-0.0270583,2.59231e-07,0.00105691,-2.49497e-07,-7.31072e-09,6.47853e-07
0.232317,0.000184921,-1.11662,7.23693e-05,2.21346,-0.000351187,0.622308,0.000381715,0.00160982,-0.0702322,0.000648237,-0.0285933,-0.00301054,0.0988263,0.00328393,0.0670914,0.0246,0.588119,-0.0271846,0,0.00107442,0,0,0,0.0671004,-0.0246,0.588119,-0.0271856,2.66093e-07,0.0010719,-2.56199e-07,-7.50787e-09,6.65016e-07
0.233431,0.000186725,-1.1167,7.30959e-05,2.21343,-0.000354559,0.622419,0.000385393,0.00161807,-0.070548,0.0006519,-0.0287692,-0.00302509,0.0993181,0.00330001,0.067061,0.0246,0.58812,-0.0273146,0,0.00108995,0,0,0,0.0670707,-0.0246,0.58812,-0.0273156,2.74662e-07,0.00108735,-2.64553e-07,-7.75346e-09,6.86444e-07
0.23453,0.000188511,-1.11678,7.38161e-05,2.2134,-0.000357898,0.622528,0.000389036,0.00162622,-0.0708588,0.000655538,-0.0289434,-0.00303942,0.099803,0.00331588,0.0670309,0.0246,0.588122,-0.0274428,0,0.0011054,0,0,0,0.0670403,-0.0246,0.588121,-0.0274437,2.7332e-07,0.00110282,-2.63363e-07,-7.71943e-09,6.83103e-07
0.23553,0.000190145,-1.11685,7.4475e-05,2.21337,-0.000360951,0.622629,0.000392367,0.00163368,-0.0711409,0.000658898,-0.029103,-0.00305247,0.100245,0.00333034,0.0670034,0.0246,0.588123,-0.0275594,0,0.0011196,0,0,0,0.0670101,-0.0246,0.588122,-0.0275603,2.50982e-07,0.00111723,-2.41924e-07,-7.09192e-09,6.27282e-07
0.236576,0.000191862,-1.11692,7.51679e-05,2.21334,-0.000364159,0.622734,0.000395866,0.00164143,-0.0714366,0.000662346,-0.0292695,-0.00306612,0.100707,0.00334544,0.0669745,0.0246,0.588124,-0.0276814,0,0.00113458,0,0,0,0.0669826,-0.0246,0.588123,-0.0276824,2.64904e-07,0.00113207,-2.5544e-07,-7.4888e-09,6.62093e-07
0.237691,0.000193701,-1.117,7.59103e-05,2.2133,-0.000367593,0.622847,0.000399613,0.00164969,-0.0717515,0.000666018,-0.0294472,-0.00308067,0.1012,0.00336153,0.0669436,0.0246,0.588125,-0.0278114,0,0.00115069,0,0,0,0.0669536,-0.0246,0.588125,-0.0278124,2.84989e-07,0.00114799,-2.74918e-07,-8.06056e-09,7.12308e-07
0.238752,0.00019546,-1.11708,7.6621e-05,2.21327,-0.000370877,0.622955,0.000403198,0.00165761,-0.0720503,0.000669582,-0.0296178,-0.00309452,0.101669,0.00337688,0.066914,0.0246,0.588126,-0.0279352,0,0.00116616,0,0,0,0.0669226,-0.0246,0.588126,-0.0279361,2.73838e-07,0.00116357,-2.64261e-07,-7.74903e-09,6.84447e-07
0.239787,0.000197184,-1.11715,7.73178e-05,2.21324,-0.000374095,0.623061,0.000406709,0.00166533,-0.0723415,0.000673052,-0.0297845,-0.00310803,0.102127,0.00339184,0.066885,0.0246,0.588128,-0.0280559,0,0.00118139,0,0,0,0.066893,-0.0246,0.588127,-0.0280568,2.69443e-07,0.00117885,-2.60118e-07,-7.62836e-09,6.73474e-07
0.240841,0.000198947,-1.11723,7.80304e-05,2.21321,-0.000377383,0.623169,0.000410297,0.00167317,-0.0726379,0.000676567,-0.0299543,-0.00312177,0.102593,0.00340707,0.0668554,0.0246,0.588129,-0.0281787,0,0.00119702,0,0,0,0.0668639,-0.0246,0.588128,-0.0281796,2.76613e-07,0.00119441,-2.67142e-07,-7.83511e-09,6.91408e-07
0.242224,0.000201275,-1.11733,7.89725e-05,2.21317,-0.000381726,0.623311,0.000415038,0.00168335,-0.0730285,0.000681036,-0.030176,-0.00313984,0.103205,0.00342701,0.0668163,0.0246,0.58813,-0.0283399,0,0.00121776,0,0,0,0.0668342,-0.0246,0.58813,-0.0283412,3.67554e-07,0.00121429,-3.55152e-07,-1.04168e-08,9.18756e-07
0.244117,0.000204488,-1.11747,8.02732e-05,2.21311,-0.000387717,0.623508,0.000421577,0.00169726,-0.0735625,0.000687135,-0.0304803,-0.00316456,0.104044,0.0034543,0.0667625,0.0246,0.588133,-0.0285606,0,0.00124652,0,0,0,0.066795,-0.0246,0.588131,-0.0285624,5.10937e-07,0.00124169,-4.94049e-07,-1.44913e-08,1.27723e-06
0.245117,0.000206193,-1.11754,8.09643e-05,2.21308,-0.000390894,0.623613,0.000425046,0.00170514,-0.0738371,0.000690984,-0.0306499,-0.00317758,0.104488,0.00346893,0.0667339,0.0246,0.588134,-0.0286771,0,0.0012619,0,0,0,0.066741,-0.0246,0.588134,-0.0286781,2.72233e-07,0.00125933,-2.63326e-07,-7.7266e-09,6.8051e-07
0.246117,0.000207906,-1.11762,8.16587e-05,2.21305,-0.000394085,0.623718,0.00042853,0.00171263,-0.074117,0.000694366,-0.0308137,-0.00319063,0.104932,0.00348341,0.0667051,0.0246,0.588135,-0.0287937,0,0.0012774,0,0,0,0.0667123,-0.0246,0.588135,-0.0287947,2.74502e-07,0.00127481,-2.65619e-07,-7.79466e-09,6.86193e-07
0.247117,0.000209627,-1.11769,8.23565e-05,2.21302,-0.000397289,0.623823,0.000432028,0.00172012,-0.0743965,0.000697755,-0.0309779,-0.00320369,0.105375,0.00349788,0.0666763,0.0246,0.588137,-0.0289102,0,0.00129303,0,0,0,0.0666835,-0.0246,0.588136,-0.0289112,2.7678e-07,0.00129041,-2.67924e-07,-7.86308e-09,6.91901e-07
0.248118,0.000211354,-1.11777,8.30578e-05,2.21299,-0.000400506,0.623929,0.000435541,0.00172762,-0.0746757,0.000701152,-0.0311427,-0.00321674,0.105819,0.00351236,0.0666473,0.0246,0.588138,-0.0290267,0,0.00130879,0,0,0,0.0666546,-0.0246,0.588137,-0.0290277,2.79069e-07,0.00130615,-2.70241e-07,-7.93185e-09,6.97633e-07
0.249118,0.00021309,-1.11784,8.37624e-05,2.21296,-0.000403737,0.624035,0.000439068,0.00173512,-0.0749547,0.000704555,-0.0313078,-0.00322979,0.106264,0.00352684,0.0666182,0.0246,0.588139,-0.0291432,0,0.00132467,0,0,0,0.0666255,-0.0246,0.588139,-0.0291443,2.81367e-07,0.00132201,-2.72569e-07,-8.00098e-09,7.0339e-07
0.250149,0.000214888,-1.11792,8.44929e-05,2.21292,-0.000407083,0.624145,0.000442722,0.00174285,-0.0752424,0.000708055,-0.0314785,-0.00324326,0.106722,0.00354178,0.0665881,0.0246,0.588141,-0.0292634,0,0.00134119,0,0,0,0.0665964,-0.0246,0.58814,-0.0292645,2.92712e-07,0.00133842,-2.8367e-07,-8.32764e-09,7.31767e-07
0.251149,0.000216638,-1.118,8.52045e-05,2.21289,-0.00041034,0.624253,0.000446279,0.00175039,-0.0755206,0.00071149,-0.0316449,-0.00325632,0.107167,0.00355627,0.0665587,0.0246,0.588142,-0.0293799,0,0.00135733,0,0,0,0.0665662,-0.0246,0.588141,-0.029381,2.86094e-07,0.00135463,-2.77362e-07,-8.14334e-09,7.15234e-07
0.25215,0.000218398,-1.11807,8.59201e-05,2.21286,-0.000413612,0.62436,0.000449854,0.00175792,-0.075799,0.000714916,-0.0318117,-0.00326938,0.107612,0.00357078,0.0665293,0.0246,0.588143,-0.0294965,0,0.00137362,0,0,0,0.0665368,-0.0246,0.588143,-0.0294976,2.88655e-07,0.00137089,-2.79951e-07,-8.22019e-09,7.21649e-07
0.253156,0.000220173,-1.11815,8.66422e-05,2.21283,-0.000416912,0.624469,0.000453458,0.00176548,-0.0760782,0.000718362,-0.0319796,-0.0032825,0.108059,0.00358535,0.0664996,0.0246,0.588145,-0.0296136,0,0.0013901,0,0,0,0.0665073,-0.0246,0.588144,-0.0296147,2.92227e-07,0.00138734,-2.83525e-07,-8.32596e-09,7.30593e-07
0.254157,0.000221948,-1.11822,8.7365e-05,2.2128,-0.000420212,0.624578,0.000457062,0.00177303,-0.0763561,0.000721807,-0.0321475,-0.00329557,0.108505,0.00359986,0.0664699,0.0246,0.588146,-0.0297302,0,0.00140666,0,0,0,0.0664775,-0.0246,0.588146,-0.0297313,2.93446e-07,0.00140388,-2.84818e-07,-8.36477e-09,7.33654e-07
0.255237,0.000223871,-1.11831,8.81482e-05,2.21276,-0.000423785,0.624695,0.000460965,0.00178113,-0.0766558,0.00072548,-0.0323283,-0.00330967,0.108985,0.0036155,0.0664377,0.0246,0.588148,-0.0298559,0,0.00142465,0,0,0,0.0664478,-0.0246,0.588147,-0.0298571,3.19138e-07,0.00142163,-3.09884e-07,-9.10171e-09,7.97904e-07
0.256437,0.00022602,-1.1184,8.90241e-05,2.21272,-0.000427777,0.624827,0.000465327,0.00179013,-0.076989,0.000729555,-0.0325298,-0.00332534,0.10952,0.00363288,0.0664018,0.0246,0.588149,-0.0299957,0,0.00144483,0,0,0,0.0664155,-0.0246,0.588148,-0.029997,3.58285e-07,0.00144145,-3.4806e-07,-1.02239e-08,8.95804e-07
0.258009,0.000228853,-1.11852,9.01792e-05,2.21267,-0.000433037,0.625,0.000471074,0.00180183,-0.0774262,0.000734778,-0.0327931,-0.00334588,0.11022,0.00365561,0.0663545,0.0246,0.588152,-0.0301787,0,0.00147156,0,0,0,0.0663795,-0.0246,0.58815,-0.0301805,4.75056e-07,0.00146707,-4.61786e-07,-1.35651e-08,1.18781e-06
0.26002,0.000232506,-1.11868,9.16702e-05,2.2126,-0.000439818,0.625223,0.000478483,0.00181682,-0.0779841,0.000741499,-0.0331318,-0.00337215,0.111117,0.0036847,0.0662935,0.0246,0.588155,-0.0304128,0,0.00150621,0,0,0,0.0663321,-0.0246,0.588153,-0.0304151,6.17295e-07,0.00150039,-6.00535e-07,-1.7642e-08,1.54355e-06
0.261169,0.000234605,-1.11877,9.25277e-05,2.21257,-0.000443711,0.625352,0.000482737,0.00182597,-0.0782947,0.000746026,-0.033335,-0.00338711,0.111631,0.00370155,0.0662585,0.0246,0.588156,-0.0305466,0,0.00152626,0,0,0,0.0662709,-0.0246,0.588156,-0.0305479,3.56076e-07,0.0015229,-3.46557e-07,-1.01848e-08,8.90353e-07
0.262227,0.000236544,-1.11885,9.33205e-05,2.21253,-0.000447307,0.62547,0.000486668,0.00183404,-0.0785849,0.000749777,-0.0335171,-0.00340091,0.112103,0.00371692,0.0662261,0.0246,0.588158,-0.0306696,0,0.00154487,0,0,0,0.0662358,-0.0246,0.588157,-0.0306709,3.3029e-07,0.00154175,-3.21595e-07,-9.45248e-09,8.25889e-07
0.26332,0.000238559,-1.11894,9.41445e-05,2.21249,-0.000451041,0.625593,0.000490749,0.00184232,-0.0788856,0.000753584,-0.0337049,-0.00341518,0.112592,0.00373279,0.0661925,0.0246,0.58816,-0.0307968,0,0.00156426,0,0,0,0.0662034,-0.0246,0.588159,-0.0307981,3.44447e-07,0.00156101,-3.35525e-07,-9.86291e-09,8.61304e-07
0.264598,0.000240925,-1.11904,9.51128e-05,2.21245,-0.000455426,0.625738,0.000495542,0.00185193,-0.0792375,0.000757955,-0.0339239,-0.00343186,0.113163,0.00375131,0.0661531,0.0246,0.588162,-0.0309455,0,0.00158713,0,0,0,0.0661697,-0.0246,0.588161,-0.030947,4.06462e-07,0.00158329,-3.96139e-07,-1.16455e-08,1.01641e-06
0.265641,0.000242865,-1.11912,9.59074e-05,2.21241,-0.000459019,0.625856,0.00049947,0.00185999,-0.0795216,0.000761773,-0.0341065,-0.00344546,0.113629,0.00376651,0.0661208,0.0246,0.588163,-0.0310668,0,0.00160596,0,0,0,0.0661302,-0.0246,0.588163,-0.0310681,3.34508e-07,0.0016028,-3.26148e-07,-9.5897e-09,8.36486e-07
0.26668,0.000244806,-1.1192,9.67029e-05,2.21238,-0.000462614,0.625975,0.0005034,0.00186791,-0.0798061,0.000765441,-0.034287,-0.00345903,0.114094,0.00378161,0.0660884,0.0246,0.588165,-0.0311877,0,0.00162487,0,0,0,0.0660978,-0.0246,0.588164,-0.031189,3.35989e-07,0.0016217,-3.27729e-07,-9.63724e-09,8.40204e-07
0.267723,0.000246762,-1.11929,9.75049e-05,2.21234,-0.000466235,0.626094,0.00050736,0.00187585,-0.0800912,0.000769125,-0.0344687,-0.00347264,0.114561,0.00379676,0.0660558,0.0246,0.588167,-0.031309,0,0.001644,0,0,0,0.0660653,-0.0246,0.588166,-0.0313103,3.39817e-07,0.00164079,-3.31604e-07,-9.75221e-09,8.49792e-07
0.268751,0.000248699,-1.11937,9.82997e-05,2.21231,-0.000469821,0.626213,0.00051128,0.0018837,-0.080372,0.000772778,-0.0346485,-0.00348606,0.115022,0.00381172,0.0660236,0.0246,0.588168,-0.0314286,0,0.001663,0,0,0,0.0660327,-0.0246,0.588168,-0.0314299,3.37791e-07,0.00165982,-3.29765e-07,-9.69921e-09,8.44742e-07
0.269798,0.000250679,-1.11945,9.91124e-05,2.21227,-0.000473484,0.626334,0.000515285,0.00189168,-0.0806576,0.000776482,-0.0348318,-0.00349972,0.115491,0.00382693,0.0659906,0.0246,0.58817,-0.0315503,0,0.0016825,0,0,0,0.0660004,-0.0246,0.588169,-0.0315516,3.46474e-07,0.00167923,-3.38386e-07,-9.9538e-09,8.66471e-07
0.270862,0.0002527,-1.11954,9.99424e-05,2.21223,-0.000477221,0.626457,0.000519372,0.0018998,-0.0809475,0.000780255,-0.0350187,-0.0035136,0.115967,0.00384239,0.065957,0.0246,0.588172,-0.031674,0,0.00170246,0,0,0,0.0659673,-0.0246,0.588171,-0.0316753,3.54975e-07,0.00169912,-3.4684e-07,-1.02035e-08,8.87748e-07
0.271903,0.000254686,-1.11963,0.000100758,2.2122,-0.000480893,0.626578,0.000523388,0.00190778,-0.0812306,0.000783982,-0.0352025,-0.00352719,0.116434,0.00385753,0.0659239,0.0246,0.588174,-0.031795,0,0.00172215,0,0,0,0.0659337,-0.0246,0.588173,-0.0317963,3.50132e-07,0.00171885,-3.42255e-07,-1.00698e-08,8.75652e-07
0.273188,0.000257151,-1.11973,0.000101772,2.21215,-0.000485449,0.626729,0.000528372,0.00191748,-0.0815818,0.000788415,-0.0354278,-0.00354398,0.117011,0.00387618,0.065883,0.0246,0.588176,-0.0319445,0,0.00174668,0,0,0,0.0659006,-0.0246,0.588175,-0.0319461,4.36609e-07,0.00174257,-4.27018e-07,-1.25644e-08,1.09196e-06
0.274633,0.000259938,-1.11985,0.000102919,2.2121,-0.000490598,0.626899,0.000534003,0.00192847,-0.0819751,0.000793487,-0.0356831,-0.00356285,0.11766,0.00389717,0.0658367,0.0246,0.588179,-0.0321124,0,0.00177453,0,0,0,0.0658595,-0.0246,0.588177,-0.0321143,4.96012e-07,0.00176985,-4.8541e-07,-1.42839e-08,1.24057e-06
0.276523,0.000263609,-1.12,0.00010443,2.21203,-0.000497377,0.627123,0.000541419,0.00194271,-0.0824903,0.00079998,-0.0360165,-0.00358754,0.118508,0.00392458,0.0657758,0.0246,0.588182,-0.032332,0,0.00181139,0,0,0,0.0658131,-0.0246,0.58818,-0.0323345,6.57778e-07,0.00180519,-6.44238e-07,-1.89586e-08,1.64525e-06
0.277605,0.000265721,-1.12009,0.000105301,2.21199,-0.000501275,0.627251,0.000545684,0.00195149,-0.0827763,0.000804436,-0.0362177,-0.0036016,0.118995,0.00394051,0.0657407,0.0246,0.588184,-0.0324577,0,0.00183272,0,0,0,0.065752,-0.0246,0.588183,-0.0324592,3.79748e-07,0.00182914,-3.72092e-07,-1.09541e-08,9.49818e-07
0.278687,0.00026784,-1.12018,0.000106175,2.21195,-0.000505185,0.627381,0.000549962,0.00195981,-0.0830681,0.000808348,-0.0364121,-0.00361571,0.119482,0.00395625,0.0657056,0.0246,0.588186,-0.0325834,0,0.00185421,0,0,0,0.0657169,-0.0246,0.588185,-0.0325848,3.82493e-07,0.0018506,-3.74953e-07,-1.10395e-08,9.56702e-07
0.279761,0.000269954,-1.12027,0.000107047,2.21191,-0.000509083,0.627509,0.000554228,0.00196809,-0.0833575,0.000812246,-0.0366059,-0.00362972,0.119965,0.00397189,0.0656705,0.0246,0.588188,-0.0327081,0,0.00187571,0,0,0,0.0656816,-0.0246,0.588187,-0.0327096,3.82837e-07,0.0018721,-3.75461e-07,-1.10558e-08,9.57579e-07
0.280843,0.000272094,-1.12036,0.000107931,2.21187,-0.000513028,0.62764,0.000558545,0.00197642,-0.083649,0.000816173,-0.0368018,-0.00364385,0.120452,0.00398766,0.065635,0.0246,0.58819,-0.0328338,0,0.00189755,0,0,0,0.0656465,-0.0246,0.588189,-0.0328353,3.88995e-07,0.00189389,-3.81677e-07,-1.124e-08,9.73002e-07
0.281887,0.000274165,-1.12045,0.000108787,2.21183,-0.000516845,0.627766,0.000562723,0.0019845,-0.0839293,0.000820002,-0.0369916,-0.00365746,0.120922,0.00400287,0.0656007,0.0246,0.588192,-0.032955,0,0.00191877,0,0,0,0.0656109,-0.0246,0.588191,-0.0329565,3.77908e-07,0.00191522,-3.70965e-07,-1.09259e-08,9.45286e-07
0.282954,0.00027629,-1.12054,0.000109666,2.2118,-0.000520761,0.627896,0.000567009,0.00199272,-0.0842158,0.000823879,-0.0371856,-0.00367138,0.121403,0.00401841,0.0655655,0.0246,0.588194,-0.0330789,0,0.00194062,0,0,0,0.0655765,-0.0246,0.588193,-0.0330804,3.89153e-07,0.00193696,-3.82179e-07,-1.12573e-08,9.73433e-07
0.284065,0.000278515,-1.12064,0.000110586,2.21175,-0.000524859,0.628031,0.000571494,0.00200128,-0.0845143,0.000827913,-0.0373882,-0.00368589,0.121904,0.0040346,0.0655286,0.0246,0.588196,-0.0332079,0,0.00196357,0,0,0,0.0655413,-0.0246,0.588195,-0.0332095,4.08869e-07,0.00195972,-4.01734e-07,-1.18346e-08,1.02277e-06
0.286318,0.000283061,-1.12083,0.000112468,2.21167,-0.000533229,0.628308,0.000580657,0.00201802,-0.0851269,0.000835351,-0.0377909,-0.00371536,0.122919,0.00406719,0.0654535,0.0246,0.588201,-0.0334694,0,0.00201062,0,0,0,0.0655043,-0.0246,0.588197,-0.0334727,8.41929e-07,0.00200269,-8.28077e-07,-2.43906e-08,2.10627e-06
0.287384,0.000285221,-1.12092,0.000113363,2.21163,-0.000537202,0.628439,0.000585007,0.00202701,-0.0854009,0.000840146,-0.0379987,-0.00372916,0.123401,0.00408299,0.0654178,0.0246,0.588203,-0.0335931,0,0.00203313,0,0,0,0.0654289,-0.0246,0.588202,-0.0335946,4.0129e-07,0.00202935,-3.94857e-07,-1.16363e-08,1.00387e-06
0.288509,0.000287513,-1.12101,0.000114314,2.21159,-0.000541417,0.628579,0.000589622,0.00203571,-0.0857016,0.000844258,-0.0382065,-0.00374385,0.12391,0.00409939,0.0653799,0.0246,0.588205,-0.0337237,0,0.0020571,0,0,0,0.0653931,-0.0246,0.588204,-0.0337254,4.27399e-07,0.00205308,-4.20756e-07,-1.24007e-08,1.06921e-06
0.290127,0.000290825,-1.12115,0.000115688,2.21152,-0.000547505,0.62878,0.000596289,0.00204796,-0.0861363,0.000849879,-0.0385021,-0.00376498,0.12464,0.00412287,0.0653252,0.0246,0.588208,-0.0339113,0,0.00209185,0,0,0,0.0653552,-0.0246,0.588206,-0.0339137,6.20936e-07,0.00208601,-6.1173e-07,-1.80293e-08,1.55346e-06
0.291576,0.00029381,-1.12128,0.000116928,2.21147,-0.00055299,0.628962,0.000602296,0.00205933,-0.0865198,0.000855388,-0.0387741,-0.00378387,0.125295,0.00414405,0.065276,0.0246,0.588212,-0.0340794,0,0.00212333,0,0,0,0.0653003,-0.0246,0.58821,-0.0340816,5.62249e-07,0.00211805,-5.54268e-07,-1.63391e-08,1.40666e-06
0.292836,0.000296417,-1.12139,0.000118012,2.21142,-0.000557778,0.629121,0.000607541,0.00206927,-0.0868521,0.000860227,-0.0390121,-0.00380028,0.125866,0.00416248,0.0652329,0.0246,0.588214,-0.0342255,0,0.00215096,0,0,0,0.0652509,-0.0246,0.588213,-0.0342275,4.93154e-07,0.00214632,-4.86423e-07,-1.4342e-08,1.23381e-06
0.293958,0.000298749,-1.12149,0.000118982,2.21137,-0.000562059,0.629262,0.00061223,0.0020781,-0.0871478,0.000864524,-0.0392243,-0.00381489,0.126374,0.00417889,0.0651944,0.0246,0.588217,-0.0343556,0,0.00217575,0,0,0,0.0652078,-0.0246,0.588215,-0.0343574,4.42559e-07,0.00217159,-4.36736e-07,-1.28791e-08,1.10724e-06
0.294981,0.000300883,-1.12158,0.00011987,2.21133,-0.000565975,0.629392,0.000616519,0.00208614,-0.0874172,0.000868431,-0.0394182,-0.00382822,0.126837,0.00419385,0.0651592,0.0246,0.588219,-0.0344742,0,0.00219852,0,0,0,0.0651693,-0.0246,0.588218,-0.0344758,4.06349e-07,0.00219471,-4.01186e-07,-1.18325e-08,1.01666e-06
0.296065,0.000303152,-1.12167,0.000120815,2.21129,-0.000570138,0.62953,0.000621081,0.00209457,-0.0877037,0.000872451,-0.0396226,-0.00384235,0.127328,0.00420965,0.0651218,0.0246,0.588221,-0.0345998,0,0.00222282,0,0,0,0.065134,-0.0246,0.58822,-0.0346015,4.33698e-07,0.00221874,-4.28398e-07,-1.26362e-08,1.08511e-06
0.297149,0.000305433,-1.12177,0.000121766,2.21125,-0.000574321,0.629669,0.000625664,0.00210304,-0.0879895,0.00087653,-0.0398283,-0.00385649,0.12782,0.00422549,0.0650842,0.0246,0.588224,-0.0347255,0,0.00224731,0,0,0,0.0650965,-0.0246,0.588223,-0.0347272,4.37314e-07,0.0022432,-4.32182e-07,-1.27493e-08,1.09418e-06
0.298183,0.000307616,-1.12186,0.000122676,2.21121,-0.000578322,0.629801,0.000630048,0.00211117,-0.0882611,0.000880468,-0.0400257,-0.00386996,0.128288,0.0042406,0.0650483,0.0246,0.588226,-0.0348453,0,0.00227083,0,0,0,0.0650588,-0.0246,0.588225,-0.034847,4.19883e-07,0.00226689,-4.1515e-07,-1.22484e-08,1.05058e-06
0.299282,0.000309946,-1.12196,0.000123649,2.21116,-0.000582592,0.629943,0.000634728,0.00211973,-0.0885506,0.000884571,-0.0402349,-0.00388429,0.128787,0.00425665,0.0650099,0.0246,0.588229,-0.0349727,0,0.00229602,0,0,0,0.0650228,-0.0246,0.588227,-0.0349745,4.49894e-07,0.00229179,-4.45046e-07,-1.31317e-08,1.1257e-06
0.300401,0.000312328,-1.12205,0.000124643,2.21112,-0.000586955,0.630088,0.00063951,0.00212849,-0.0888444,0.000888794,-0.040449,-0.00389888,0.129295,0.00427299,0.0649707,0.0246,0.588231,-0.0351023,0,0.00232185,0,0,0,0.0649844,-0.0246,0.58823,-0.0351042,4.61378e-07,0.00231751,-4.5664e-07,-1.34753e-08,1.15445e-06
0.301483,0.00031464,-1.12215,0.00012561,2.21107,-0.000591189,0.630228,0.00064415,0.00213701,-0.0891274,0.000892932,-0.0406573,-0.00391297,0.129786,0.00428881,0.0649326,0.0246,0.588234,-0.0352276,0,0.002347,0,0,0,0.0649451,-0.0246,0.588232,-0.0352294,4.49373e-07,0.00234278,-4.4498e-07,-1.31329e-08,1.12444e-06
0.302562,0.000316954,-1.12225,0.000126577,2.21103,-0.000595424,0.630369,0.000648792,0.00214548,-0.0894094,0.000897039,-0.0408652,-0.00392702,0.130276,0.00430456,0.0648946,0.0246,0.588236,-0.0353525,0,0.00237225,0,0,0,0.064907,-0.0246,0.588235,-0.0353543,4.51201e-07,0.00236801,-4.47012e-07,-1.31944e-08,1.12903e-06
0.303635,0.000319266,-1.12234,0.000127544,2.21098,-0.000599654,0.630509,0.000653429,0.00215392,-0.0896897,0.000901139,-0.0410729,-0.003941,0.130764,0.00432026,0.0648566,0.0246,0.588239,-0.0354768,0,0.00239756,0,0,0,0.0648688,-0.0246,0.588238,-0.0354786,4.52415e-07,0.00239331,-4.48438e-07,-1.3238e-08,1.13209e-06
0.304701,0.000321571,-1.12244,0.000128509,2.21094,-0.00060387,0.630649,0.000658051,0.00216232,-0.0899676,0.00090522,-0.0412797,-0.00395489,0.131249,0.00433584,0.0648187,0.0246,0.588241,-0.0356002,0,0.00242288,0,0,0,0.0648308,-0.0246,0.58824,-0.035602,4.52442e-07,0.00241863,-4.48687e-07,-1.32469e-08,1.13218e-06
0.306199,0.000324827,-1.12257,0.000129873,2.21088,-0.000609823,0.630847,0.000664578,0.00217381,-0.0903618,0.000910602,-0.0415666,-0.00397444,0.13193,0.00435763,0.0647652,0.0246,0.588245,-0.0357735,0,0.00245874,0,0,0,0.0647928,-0.0246,0.588243,-0.0357762,6.42147e-07,0.00245272,-6.37269e-07,-1.88147e-08,1.60697e-06
0.308197,0.0003292,-1.12276,0.000131707,2.21079,-0.000617815,0.631112,0.000673342,0.00218922,-0.0908856,0.000917865,-0.0419521,-0.00400051,0.13284,0.00438673,0.0646935,0.0246,0.58825,-0.0360047,0,0.00250713,0,0,0,0.0647392,-0.0246,0.588246,-0.0360083,8.67927e-07,0.00249899,-8.62156e-07,-2.54552e-08,2.17212e-06
0.309351,0.000331738,-1.12286,0.000132772,2.21075,-0.000622448,0.631266,0.000678423,0.00219894,-0.0911757,0.000923037,-0.0421882,-0.00401545,0.133366,0.00440381,0.0646519,0.0246,0.588253,-0.0361382,0,0.00253537,0,0,0,0.0646673,-0.0246,0.588251,-0.0361403,5.05192e-07,0.00253063,-5.02095e-07,-1.48306e-08,1.26429e-06
0.31043,0.00033412,-1.12296,0.000133772,2.2107,-0.000626796,0.63141,0.000683192,0.00220752,-0.091454,0.000927278,-0.0424018,-0.00402948,0.133858,0.00441961,0.0646128,0.0246,0.588256,-0.036263,0,0.00256196,0,0,0,0.0646256,-0.0246,0.588254,-0.0362649,4.75779e-07,0.0025575,-4.73102e-07,-1.39763e-08,1.19069e-06
0.311511,0.000336516,-1.12306,0.000134779,2.21065,-0.000631168,0.631555,0.000687988,0.00221608,-0.0917331,0.000931471,-0.0426157,-0.00404356,0.134351,0.00443543,0.0645736,0.0246,0.588258,-0.036388,0,0.00258879,0,0,0,0.0645865,-0.0246,0.588257,-0.03639,4.8015e-07,0.00258429,-4.77694e-07,-1.41135e-08,1.20165e-06
0.312569,0.00033887,-1.12316,0.00013577,2.21061,-0.000635462,0.631698,0.000692698,0.00222448,-0.0920057,0.000935607,-0.042826,-0.00405733,0.134834,0.00445092,0.064535,0.0246,0.588261,-0.0365104,0,0.00261524,0,0,0,0.0645471,-0.0246,0.58826,-0.0365123,4.73296e-07,0.0026108,-4.71114e-07,-1.39208e-08,1.18452e-06
0.313607,0.000341187,-1.12325,0.000136745,2.21056,-0.000639686,0.631839,0.000697332,0.00223273,-0.0922724,0.00093967,-0.0430328,-0.00407083,0.135307,0.00446611,0.064497,0.0246,0.588264,-0.0366303,0,0.00264134,0,0,0,0.0645085,-0.0246,0.588263,-0.0366323,4.6715e-07,0.00263696,-4.65227e-07,-1.37485e-08,1.16916e-06
0.314678,0.000343587,-1.12335,0.000137755,2.21052,-0.000644061,0.631984,0.000702132,0.0022412,-0.0925479,0.000943825,-0.0432463,-0.00408477,0.135796,0.00448177,0.0644577,0.0246,0.588267,-0.0367541,0,0.00266846,0,0,0,0.0644705,-0.0246,0.588265,-0.0367561,4.85513e-07,0.00266391,-4.83763e-07,-1.42977e-08,1.21514e-06
0.315735,0.000345965,-1.12345,0.000138758,2.21047,-0.000648394,0.632128,0.000706887,0.00224962,-0.092819,0.000947978,-0.0434582,-0.00409853,0.136279,0.00449725,0.0644188,0.0246,0.58827,-0.0368763,0,0.00269542,0,0,0,0.0644311,-0.0246,0.588268,-0.0368783,4.82646e-07,0.00269089,-4.81152e-07,-1.42222e-08,1.20799e-06
0.316789,0.000348345,-1.12355,0.000139761,2.21043,-0.000652728,0.632272,0.000711643,0.002258,-0.0930889,0.000952118,-0.04367,-0.00411224,0.136761,0.00451268,0.0643799,0.0246,0.588272,-0.0369981,0,0.00272247,0,0,0,0.0643921,-0.0246,0.588271,-0.0370001,4.8443e-07,0.00271793,-4.83176e-07,-1.42837e-08,1.21247e-06
0.317814,0.000350668,-1.12364,0.000140741,2.21038,-0.000656956,0.632413,0.000716283,0.00226618,-0.0933505,0.000956175,-0.0438768,-0.00412556,0.137229,0.00452769,0.0643419,0.0246,0.588275,-0.0371164,0,0.00274894,0,0,0,0.0643531,-0.0246,0.588274,-0.0371184,4.74084e-07,0.0027445,-4.73092e-07,-1.39873e-08,1.1866e-06
0.318858,0.000353043,-1.12374,0.000141744,2.21033,-0.00066128,0.632557,0.000721028,0.00227449,-0.0936174,0.000960276,-0.0440877,-0.00413915,0.137707,0.00454298,0.0643031,0.0246,0.588278,-0.0372371,0,0.0027761,0,0,0,0.0643151,-0.0246,0.588277,-0.0372391,4.86543e-07,0.00277154,-4.85773e-07,-1.43637e-08,1.21781e-06
0.319912,0.00035545,-1.12384,0.000142761,2.21029,-0.000665657,0.632702,0.000725833,0.00228289,-0.0938861,0.000964433,-0.0443013,-0.00415286,0.13819,0.00455841,0.0642638,0.0246,0.588281,-0.0373588,0,0.00280369,0,0,0,0.0642762,-0.0246,0.58828,-0.0373609,4.94244e-07,0.00279906,-4.93716e-07,-1.46001e-08,1.2371e-06
0.321061,0.000358082,-1.12395,0.000143874,2.21024,-0.000670443,0.632862,0.000731088,0.00229199,-0.0941794,0.000968895,-0.0445338,-0.0041678,0.138715,0.00457521,0.0642208,0.0246,0.588284,-0.0374914,0,0.00283396,0,0,0,0.0642368,-0.0246,0.588283,-0.0374937,5.42511e-07,0.00282887,-5.42239e-07,-1.60365e-08,1.35795e-06
0.323054,0.000362681,-1.12414,0.000145819,2.21015,-0.000678803,0.63314,0.000740265,0.00230727,-0.094695,0.000976032,-0.044931,-0.00419383,0.139628,0.00460419,0.0641458,0.0246,0.58829,-0.0377215,0,0.002887,0,0,0,0.0641938,-0.0246,0.588286,-0.0377255,9.53468e-07,0.00287806,-9.53951e-07,-2.82099e-08,2.38681e-06
0.324211,0.000365362,-1.12425,0.000146955,2.21009,-0.000683672,0.633302,0.000745612,0.00231718,-0.0949782,0.000981426,-0.0451785,-0.00420875,0.140159,0.00462135,0.0641021,0.0246,0.588293,-0.037855,0,0.00291809,0,0,0,0.0641186,-0.0246,0.588292,-0.0378573,5.57545e-07,0.00291286,-5.58134e-07,-1.65121e-08,1.39566e-06
0.325247,0.000367771,-1.12435,0.000147976,2.21005,-0.000688047,0.633448,0.000750416,0.00232557,-0.0952385,0.000985682,-0.0453933,-0.0042222,0.140634,0.00463656,0.0640628,0.0246,0.588296,-0.0379745,0,0.00294611,0,0,0,0.0640748,-0.0246,0.588295,-0.0379766,5.02509e-07,0.00294141,-5.03298e-07,-1.48921e-08,1.2579e-06
0.326318,0.000370272,-1.12445,0.000149036,2.21,-0.000692585,0.633599,0.0007554,0.00233414,-0.0955092,0.000989942,-0.0456142,-0.00423613,0.141126,0.00465225,0.0640221,0.0246,0.5883,-0.0380981,0,0.00297529,0,0,0,0.0640354,-0.0246,0.588298,-0.0381003,5.23183e-07,0.00297039,-5.24285e-07,-1.55146e-08,1.30968e-06
0.327376,0.00037275,-1.12455,0.000150088,2.20995,-0.000697079,0.633749,0.000760336,0.00234264,-0.0957753,0.000994202,-0.0458334,-0.00424986,0.141611,0.00466775,0.0639817,0.0246,0.588303,-0.03822,0,0.00300427,0,0,0,0.0639946,-0.0246,0.588301,-0.0382222,5.19822e-07,0.0029994,-5.21193e-07,-1.5425e-08,1.30129e-06
0.328443,0.000375257,-1.12465,0.000151153,2.2099,-0.000701627,0.6339,0.000765331,0.00235121,-0.0960435,0.000998487,-0.046055,-0.00426371,0.142101,0.00468337,0.0639409,0.0246,0.588306,-0.038343,0,0.00303368,0,0,0,0.0639542,-0.0246,0.588304,-0.0383452,5.27742e-07,0.00302874,-5.29418e-07,-1.56701e-08,1.32114e-06
0.329533,0.00037783,-1.12476,0.000152246,2.20985,-0.00070629,0.634056,0.000770454,0.00235996,-0.0963173,0.00100286,-0.0462819,-0.00427787,0.142602,0.00469934,0.063899,0.0246,0.588309,-0.0384686,0,0.00306395,0,0,0,0.0639133,-0.0246,0.588308,-0.038471,5.43085e-07,0.00305886,-5.45109e-07,-1.61363e-08,1.35958e-06
0.330777,0.000380778,-1.12488,0.0001535,2.20979,-0.000711633,0.634234,0.000776324,0.00236985,-0.0966308,0.00100775,-0.0465403,-0.00429405,0.143173,0.00471754,0.0638511,0.0246,0.588313,-0.038612,0,0.00309874,0,0,0,0.0638713,-0.0246,0.588311,-0.0386147,6.2469e-07,0.00309289,-6.27417e-07,-1.85742e-08,1.56391e-06
0.331851,0.000383333,-1.12498,0.000154587,2.20974,-0.000716259,0.634388,0.000781407,0.00237864,-0.0968971,0.00101227,-0.0467678,-0.00430797,0.143667,0.00473333,0.0638095,0.0246,0.588316,-0.0387358,0,0.00312897,0,0,0,0.0638233,-0.0246,0.588315,-0.0387381,5.42735e-07,0.00312389,-5.45399e-07,-1.6149e-08,1.35875e-06
0.332915,0.000385872,-1.12508,0.000155668,2.20969,-0.000720857,0.634542,0.000786459,0.00238723,-0.0971624,0.0010166,-0.0469919,-0.00432177,0.144157,0.00474892,0.0637683,0.0246,0.58832,-0.0388583,0,0.00315911,0,0,0,0.0637817,-0.0246,0.588318,-0.0388606,5.41159e-07,0.00315405,-5.44111e-07,-1.61127e-08,1.35483e-06
0.333973,0.000388409,-1.12519,0.000156749,2.20964,-0.000725447,0.634695,0.000791503,0.00239579,-0.0974259,0.00102092,-0.0472155,-0.00433551,0.144644,0.00476445,0.0637271,0.0246,0.588323,-0.0389802,0,0.0031893,0,0,0,0.0637404,-0.0246,0.588322,-0.0389826,5.42071e-07,0.00318423,-5.45323e-07,-1.61504e-08,1.35713e-06
0.335072,0.00039105,-1.12529,0.000157875,2.20959,-0.000730224,0.634854,0.000796753,0.00240463,-0.0976994,0.00102537,-0.0474477,-0.00434977,0.145149,0.00478054,0.0636842,0.0246,0.588327,-0.0391067,0,0.00322082,0,0,0,0.0636991,-0.0246,0.588325,-0.0391091,5.66078e-07,0.00321553,-5.69795e-07,-1.6877e-08,1.41727e-06
0.336104,0.000393541,-1.1254,0.000158938,2.20954,-0.000734728,0.635004,0.000801703,0.00241304,-0.0979547,0.00102966,-0.0476679,-0.00436315,0.145625,0.00479569,0.0636438,0.0246,0.58833,-0.0392255,0,0.00325064,0,0,0,0.0636561,-0.0246,0.588328,-0.0392279,5.35468e-07,0.00324563,-5.3927e-07,-1.5975e-08,1.34065e-06
0.337521,0.000396976,-1.12554,0.000160405,2.20947,-0.000740937,0.635212,0.000808528,0.0024242,-0.0983104,0.00103509,-0.047965,-0.00438158,0.146278,0.00481637,0.0635881,0.0246,0.588335,-0.0393886,0,0.00329186,0,0,0,0.0636156,-0.0246,0.588332,-0.0393918,7.41332e-07,0.00328493,-7.47151e-07,-2.21332e-08,1.85616e-06
0.339861,0.000402691,-1.12577,0.000162847,2.20936,-0.000751262,0.635557,0.000819879,0.0024424,-0.0988999,0.00104378,-0.0484547,-0.00441207,0.147357,0.00485046,0.0634956,0.0246,0.588342,-0.0396578,0,0.0033607,0,0,0,0.0635598,-0.0246,0.588336,-0.0396633,1.24161e-06,0.00334909,-1.25291e-06,-3.71118e-08,3.10905e-06
0.340974,0.000405421,-1.12588,0.000164016,2.20931,-0.000756188,0.635721,0.000825296,0.00245248,-0.0991577,0.00104965,-0.0487106,-0.0044263,0.147871,0.00486709,0.0634514,0.0246,0.588346,-0.0397858,0,0.00339377,0,0,0,0.063467,-0.0246,0.588344,-0.0397884,5.94489e-07,0.00338821,-6.00231e-07,-1.77895e-08,1.48854e-06
0.342027,0.000408012,-1.12598,0.000165125,2.20925,-0.000760862,0.635877,0.000830436,0.0024611,-0.0994154,0.00105408,-0.0489389,-0.00443993,0.148357,0.00488255,0.0634094,0.0246,0.58835,-0.0399069,0,0.00342525,0,0,0,0.0634227,-0.0246,0.588348,-0.0399093,5.65887e-07,0.00341996,-5.71667e-07,-1.69452e-08,1.41694e-06
0.34308,0.000410613,-1.12609,0.00016624,2.2092,-0.000765554,0.636034,0.000835596,0.00246967,-0.0996735,0.00105845,-0.0491673,-0.00445358,0.148843,0.004898,0.0633673,0.0246,0.588353,-0.040028,0,0.00345695,0,0,0,0.0633807,-0.0246,0.588352,-0.0400305,5.69886e-07,0.00345162,-5.76026e-07,-1.70763e-08,1.42698e-06
0.344127,0.000413207,-1.12619,0.000167352,2.20915,-0.000770228,0.63619,0.000840737,0.00247821,-0.0999294,0.00106282,-0.049395,-0.00446713,0.149327,0.00491335,0.0633254,0.0246,0.588357,-0.0401482,0,0.00348862,0,0,0,0.0633386,-0.0246,0.588355,-0.0401507,5.69577e-07,0.0034833,-5.76032e-07,-1.70784e-08,1.42623e-06
0.345227,0.000415944,-1.1263,0.000168527,2.2091,-0.00077516,0.636355,0.000846162,0.00248714,-0.100199,0.00106736,-0.0496343,-0.00448139,0.149836,0.00492949,0.0632811,0.0246,0.588361,-0.0402747,0,0.00352214,0,0,0,0.0632965,-0.0246,0.588359,-0.0402773,6.02995e-07,0.00351651,-6.10186e-07,-1.80928e-08,1.50994e-06
0.346253,0.000418504,-1.1264,0.000169626,2.20904,-0.00077977,0.636509,0.000851234,0.00249558,-0.100448,0.00107173,-0.0498598,-0.00449465,0.15031,0.00494455,0.0632397,0.0246,0.588365,-0.0403925,0,0.00355358,0,0,0,0.0632522,-0.0246,0.588363,-0.040395,5.65378e-07,0.00354829,-5.72431e-07,-1.69756e-08,1.41576e-06
0.347386,0.000421343,-1.12652,0.000170847,2.20899,-0.000784882,0.63668,0.000856858,0.00250474,-0.100725,0.00107637,-0.0501071,-0.00450934,0.150835,0.00496115,0.0631939,0.0246,0.588369,-0.0405227,0,0.00358853,0,0,0,0.0632108,-0.0246,0.588366,-0.0405255,6.28975e-07,0.00358265,-6.37209e-07,-1.88981e-08,1.57506e-06
0.348475,0.00042408,-1.12663,0.000172024,2.20893,-0.000789808,0.636845,0.000862278,0.00251369,-0.100988,0.001081,-0.0503475,-0.00452343,0.151339,0.00497714,0.0631497,0.0246,0.588372,-0.0406477,0,0.00362233,0,0,0,0.0631649,-0.0246,0.588371,-0.0406504,6.08216e-07,0.00361664,-6.16536e-07,-1.82874e-08,1.52309e-06
0.349556,0.000426806,-1.12674,0.000173197,2.20888,-0.00079471,0.637009,0.000867673,0.00252254,-0.10125,0.00108556,-0.0505862,-0.00453741,0.151839,0.004993,0.0631057,0.0246,0.588376,-0.0407717,0,0.00365606,0,0,0,0.0631206,-0.0246,0.588374,-0.0407744,6.07183e-07,0.00365039,-6.15846e-07,-1.82691e-08,1.52053e-06
0.350729,0.000429776,-1.12686,0.000174476,2.20882,-0.00080005,0.637188,0.000873549,0.00253207,-0.101535,0.00109042,-0.0508448,-0.00455259,0.152382,0.00501018,0.0630578,0.0246,0.588381,-0.0409063,0,0.00369292,0,0,0,0.0630765,-0.0246,0.588378,-0.0409093,6.63684e-07,0.00368672,-6.73581e-07,-1.99835e-08,1.66206e-06
0.352162,0.000433421,-1.127,0.000176047,2.20875,-0.000806602,0.637407,0.00088076,0.0025436,-0.101884,0.0010962,-0.0511599,-0.00457117,0.153046,0.00503114,0.062999,0.0246,0.588386,-0.0410707,0,0.0037383,0,0,0,0.0630285,-0.0246,0.588383,-0.0410744,8.17731e-07,0.00373066,-8.30574e-07,-2.46424e-08,2.04792e-06
0.3536,0.000437096,-1.12715,0.000177632,2.20867,-0.000813201,0.637628,0.000888024,0.00255541,-0.102229,0.00110231,-0.051481,-0.00458976,0.153713,0.00505224,0.0629399,0.0246,0.588391,-0.0412356,0,0.00378419,0,0,0,0.0629697,-0.0246,0.588388,-0.0412393,8.27264e-07,0.00377646,-8.40914e-07,-2.49528e-08,2.07184e-06
0.35484,0.000440277,-1.12728,0.000179006,2.20861,-0.000818913,0.63782,0.000894312,0.00256579,-0.102524,0.00110782,-0.0517618,-0.00460575,0.154289,0.00507049,0.0628886,0.0246,0.588396,-0.0413778,0,0.00382407,0,0,0,0.0629104,-0.0246,0.588394,-0.041381,7.18594e-07,0.00381736,-7.30941e-07,-2.1694e-08,1.7997e-06
0.356065,0.000443434,-1.1274,0.00018037,2.20854,-0.000824576,0.63801,0.000900548,0.00257589,-0.102817,0.00111307,-0.0520377,-0.00462158,0.154857,0.00508847,0.0628379,0.0246,0.588401,-0.0415182,0,0.00386375,0,0,0,0.0628591,-0.0246,0.588398,-0.0415214,7.15089e-07,0.00385707,-7.27865e-07,-2.16056e-08,1.79095e-06
0.357207,0.000446386,-1.12752,0.000181646,2.20848,-0.00082987,0.638187,0.000906377,0.00258538,-0.103088,0.00111806,-0.0522967,-0.00463631,0.155388,0.00510525,0.0627904,0.0246,0.588405,-0.0416491,0,0.00390097,0,0,0,0.0628082,-0.0246,0.588403,-0.0416521,6.70736e-07,0.00389471,-6.83145e-07,-2.02813e-08,1.67989e-06
0.358282,0.000449175,-1.12763,0.000182853,2.20843,-0.00083487,0.638355,0.000911883,0.00259431,-0.103343,0.00112275,-0.0525411,-0.00465017,0.155887,0.00512104,0.0627455,0.0246,0.58841,-0.0417722,0,0.00393623,0,0,0,0.0627606,-0.0246,0.588407,-0.0417751,6.35386e-07,0.0039303,-6.47524e-07,-1.92264e-08,1.59137e-06
0.359322,0.00045188,-1.12774,0.000184025,2.20837,-0.000839716,0.638517,0.000917221,0.00260293,-0.103589,0.00112727,-0.0527777,-0.00466358,0.15637,0.0051363,0.0627021,0.0246,0.588414,-0.0418912,0,0.00397051,0,0,0,0.0627157,-0.0246,0.588412,-0.041894,6.1781e-07,0.00396474,-6.29974e-07,-1.87076e-08,1.54737e-06
0.360417,0.000454742,-1.12785,0.000185265,2.20831,-0.000844842,0.638689,0.000922867,0.00261193,-0.10385,0.00113194,-0.0530265,-0.00467773,0.156879,0.00515237,0.0626561,0.0246,0.588418,-0.0420166,0,0.00400687,0,0,0,0.0626722,-0.0246,0.588416,-0.0420196,6.55514e-07,0.00400075,-6.68827e-07,-1.98632e-08,1.64184e-06
0.361541,0.000457689,-1.12797,0.000186543,2.20825,-0.000850116,0.638866,0.000928676,0.0026212,-0.104116,0.00113677,-0.053283,-0.00469223,0.157402,0.00516885,0.0626088,0.0246,0.588423,-0.0421453,0,0.0040444,0,0,0,0.0626261,-0.0246,0.58842,-0.0421484,6.76664e-07,0.00403809,-6.9084e-07,-2.05191e-08,1.69484e-06
0.36266,0.000460632,-1.12809,0.00018782,2.20819,-0.000855382,0.639043,0.000934478,0.00263048,-0.10438,0.00114162,-0.0535396,-0.00470666,0.157923,0.00518527,0.0625616,0.0246,0.588427,-0.0422733,0,0.00408199,0,0,0,0.0625788,-0.0246,0.588425,-0.0422764,6.77852e-07,0.00407566,-6.92485e-07,-2.05703e-08,1.69785e-06
0.363766,0.000463551,-1.1282,0.000189088,2.20814,-0.000860603,0.639218,0.000940231,0.00263966,-0.10464,0.00114645,-0.0537942,-0.00472092,0.158438,0.0052015,0.0625147,0.0246,0.588432,-0.0423998,0,0.00411937,0,0,0,0.0625315,-0.0246,0.588429,-0.0424029,6.74149e-07,0.00411308,-6.89128e-07,-2.04731e-08,1.6886e-06
0.364953,0.000466695,-1.12833,0.000190455,2.20807,-0.000866224,0.639406,0.000946424,0.00264943,-0.10492,0.00115152,-0.0540668,-0.00473623,0.15899,0.00521889,0.0624643,0.0246,0.588437,-0.0425355,0,0.00415973,0,0,0,0.0624846,-0.0246,0.588434,-0.0425388,7.28217e-07,0.00415294,-7.44896e-07,-2.21319e-08,1.82407e-06
0.366066,0.000469656,-1.12844,0.000191742,2.20801,-0.000871514,0.639584,0.000952254,0.00265875,-0.10518,0.00115648,-0.0543258,-0.00475056,0.159509,0.00523525,0.0624169,0.0246,0.588441,-0.0426628,0,0.00419784,0,0,0,0.0624341,-0.0246,0.588439,-0.042666,6.87621e-07,0.00419143,-7.03811e-07,-2.09142e-08,1.7224e-06
0.367362,0.000473114,-1.12858,0.000193248,2.20794,-0.000877689,0.639791,0.00095906,0.00266934,-0.105486,0.00116193,-0.0546239,-0.00476729,0.160113,0.00525421,0.0623615,0.0246,0.588447,-0.0428108,0,0.00424247,0,0,0,0.0623866,-0.0246,0.588443,-0.0428145,8.05643e-07,0.00423495,-8.2522e-07,-2.45234e-08,2.01809e-06
0.370242,0.000480866,-1.12889,0.000196625,2.20778,-0.000891527,0.640257,0.000974313,0.00269178,-0.106181,0.00117267,-0.0552727,-0.00480472,0.161457,0.00529606,0.0622378,0.0246,0.588459,-0.0431398,0,0.00434281,0,0,0,0.0623311,-0.0246,0.588449,-0.0431482,1.81965e-06,0.00432584,-1.867e-06,-5.54636e-08,4.55881e-06
0.371414,0.000484036,-1.12901,0.000198009,2.20772,-0.000897178,0.640446,0.000980544,0.00270324,-0.106426,0.00117995,-0.0555746,-0.00481941,0.162004,0.0053137,0.0621871,0.0246,0.588464,-0.0432736,0,0.00438411,0,0,0,0.0622069,-0.0246,0.588461,-0.0432771,7.45699e-07,0.00437716,-7.65586e-07,-2.27618e-08,1.86803e-06
0.372962,0.000488239,-1.12918,0.000199845,2.20763,-0.000904668,0.640698,0.000988803,0.0027158,-0.106789,0.00118634,-0.0559339,-0.0048394,0.162727,0.00533631,0.06212,0.0246,0.588471,-0.0434502,0,0.00443902,0,0,0,0.0621561,-0.0246,0.588467,-0.0434548,9.92657e-07,0.00442976,-1.02005e-06,-3.03275e-08,2.4868e-06
0.374091,0.000491317,-1.1293,0.00020119,2.20757,-0.000910149,0.640883,0.000994847,0.00272566,-0.107043,0.00119188,-0.0562079,-0.00485382,0.163254,0.00535298,0.0620709,0.0246,0.588476,-0.043579,0,0.00447936,0,0,0,0.0620889,-0.0246,0.588473,-0.0435824,7.28678e-07,0.00447257,-7.49264e-07,-2.2283e-08,1.82545e-06
0.375171,0.000494269,-1.12941,0.000202482,2.2075,-0.000915404,0.641059,0.00100064,0.00273475,-0.10729,0.00119675,-0.0564651,-0.00486768,0.163758,0.00536882,0.0620238,0.0246,0.588481,-0.0437021,0,0.00451816,0,0,0,0.0620397,-0.0246,0.588478,-0.0437054,7.00835e-07,0.00451163,-7.21085e-07,-2.14477e-08,1.75572e-06
0.376245,0.000497216,-1.12953,0.000203773,2.20744,-0.000920647,0.641236,0.00100643,0.00274376,-0.107536,0.00120156,-0.0567212,-0.00488147,0.164261,0.00538458,0.0619767,0.0246,0.588486,-0.0438245,0,0.00455699,0,0,0,0.0619925,-0.0246,0.588483,-0.0438278,7.014e-07,0.00455045,-7.22116e-07,-2.14808e-08,1.75716e-06
0.377245,0.000499969,-1.12964,0.000204979,2.20739,-0.000925542,0.641401,0.00101183,0.00275222,-0.107763,0.00120613,-0.0569614,-0.0048943,0.164728,0.00539927,0.0619329,0.0246,0.58849,-0.0439385,0,0.00459334,0,0,0,0.0619454,-0.0246,0.588488,-0.0439416,6.56558e-07,0.00458722,-6.76343e-07,-2.01218e-08,1.64484e-06
0.378245,0.00050273,-1.12975,0.00020619,2.20733,-0.00093045,0.641566,0.00101724,0.00276062,-0.107992,0.00121062,-0.0572011,-0.00490713,0.165196,0.00541393,0.0618889,0.0246,0.588495,-0.0440524,0,0.00462988,0,0,0,0.0619015,-0.0246,0.588493,-0.0440555,6.60104e-07,0.00462373,-6.80393e-07,-2.02443e-08,1.65375e-06
0.37945,0.000506068,-1.12988,0.000207655,2.20726,-0.000936381,0.641766,0.00102379,0.00277054,-0.108269,0.00121578,-0.0574875,-0.00492265,0.16576,0.00543155,0.0618357,0.0246,0.588501,-0.0441896,0,0.00467416,0,0,0,0.0618574,-0.0246,0.588497,-0.0441934,8.00427e-07,0.0046667,-8.25615e-07,-2.45662e-08,2.00536e-06
0.380614,0.000509305,-1.13,0.000209077,2.20719,-0.00094213,0.641959,0.00103013,0.00278037,-0.108533,0.00122108,-0.0577691,-0.00493757,0.166306,0.00544863,0.0617842,0.0246,0.588506,-0.0443222,0,0.00471721,0,0,0,0.0618042,-0.0246,0.588503,-0.0443259,7.78294e-07,0.00470995,-8.03334e-07,-2.39064e-08,1.94993e-06
0.381658,0.000512217,-1.13012,0.000210356,2.20713,-0.000947298,0.642133,0.00103583,0.00278928,-0.108767,0.00122595,-0.0580236,-0.00495092,0.166794,0.00546397,0.0617378,0.0246,0.588511,-0.044441,0,0.00475603,0,0,0,0.0617526,-0.0246,0.588509,-0.0444443,7.01716e-07,0.00474949,-7.24737e-07,-2.15707e-08,1.75808e-06
0.382953,0.000515843,-1.13026,0.000211951,2.20706,-0.000953731,0.64235,0.00104293,0.00279994,-0.109064,0.00123149,-0.0583339,-0.00496759,0.167402,0.00548289,0.0616802,0.0246,0.588517,-0.0445883,0,0.00480448,0,0,0,0.0617062,-0.0246,0.588514,-0.0445925,8.76502e-07,0.00479631,-9.05956e-07,-2.69652e-08,2.19607e-06
0.38442,0.000519967,-1.13042,0.000213767,2.20697,-0.000961044,0.642597,0.00105101,0.00281213,-0.109397,0.00123793,-0.0586885,-0.00498642,0.168089,0.00550434,0.0616147,0.0246,0.588524,-0.0447551,0,0.00485975,0,0,0,0.0616484,-0.0246,0.58852,-0.0447598,1.00037e-06,0.00485043,-1.0349e-06,-3.08053e-08,2.50651e-06
0.385559,0.000523182,-1.13054,0.000215184,2.2069,-0.000966742,0.642789,0.0010573,0.0028221,-0.109647,0.00124355,-0.0589726,-0.00500092,0.168623,0.00552112,0.0615636,0.0246,0.58853,-0.0448846,0,0.00490297,0,0,0,0.0615828,-0.0246,0.588527,-0.0448883,7.81833e-07,0.00489569,-8.09357e-07,-2.40977e-08,1.95892e-06
0.386663,0.000526308,-1.13066,0.000216562,2.20684,-0.000972278,0.642975,0.00106341,0.00283147,-0.109893,0.00124864,-0.059244,-0.00501504,0.169141,0.00553731,0.061514,0.0246,0.588535,-0.04501,0,0.00494509,0,0,0,0.0615316,-0.0246,0.588532,-0.0450136,7.61956e-07,0.004938,-7.893e-07,-2.35035e-08,1.90914e-06
0.387765,0.000529437,-1.13079,0.000217943,2.20677,-0.000977818,0.643162,0.00106953,0.00284079,-0.110139,0.00125369,-0.0595152,-0.00502913,0.169658,0.00555345,0.0614643,0.0246,0.588541,-0.0451351,0,0.00498736,0,0,0,0.0614819,-0.0246,0.588538,-0.0451388,7.64706e-07,0.00498024,-7.92672e-07,-2.36064e-08,1.91606e-06
0.38895,0.000532815,-1.13092,0.000219435,2.2067,-0.000983795,0.643364,0.00107613,0.00285074,-0.110404,0.00125902,-0.0598064,-0.00504431,0.170215,0.00557079,0.0614108,0.0246,0.588547,-0.0452697,0,0.0050331,0,0,0,0.0614322,-0.0246,0.588543,-0.0452737,8.27783e-07,0.00502539,-8.58669e-07,-2.5574e-08,2.07415e-06
0.390167,0.000536298,-1.13105,0.000220974,2.20663,-0.000989955,0.643572,0.00108293,0.00286103,-0.110675,0.00126458,-0.0601075,-0.00505988,0.170787,0.00558862,0.0613556,0.0246,0.588553,-0.0454078,0,0.00508038,0,0,0,0.0613786,-0.0246,0.588549,-0.045412,8.55827e-07,0.00507241,-8.88413e-07,-2.64626e-08,2.14446e-06
0.391298,0.000539545,-1.13118,0.000222411,2.20656,-0.000995694,0.643766,0.00108927,0.00287072,-0.110924,0.00126991,-0.0603901,-0.00507431,0.171318,0.00560521,0.0613042,0.0246,0.588559,-0.0455362,0,0.00512457,0,0,0,0.0613233,-0.0246,0.588556,-0.04554,7.99851e-07,0.00511712,-8.30873e-07,-2.47524e-08,2.00422e-06
0.392394,0.000542701,-1.1313,0.000223808,2.20649,-0.00100127,0.643954,0.00109543,0.00288007,-0.111165,0.00127503,-0.0606639,-0.00508829,0.171833,0.00562127,0.0612542,0.0246,0.588564,-0.0456604,0,0.00516762,0,0,0,0.0612718,-0.0246,0.588561,-0.0456642,7.79302e-07,0.00516036,-8.10066e-07,-2.41354e-08,1.95275e-06
0.39343,0.000545695,-1.13141,0.000225134,2.20643,-0.00100656,0.644133,0.00110127,0.00288895,-0.111392,0.00127992,-0.0609241,-0.00510151,0.17232,0.00563646,0.0612068,0.0246,0.58857,-0.0457779,0,0.00520855,0,0,0,0.0612218,-0.0246,0.588567,-0.0457815,7.40946e-07,0.00520165,-7.70681e-07,-2.29648e-08,1.85665e-06
