Kcygt/SemiCircleKinovaTest_Cpp/x64/Debug/data1.csv
t,q1,q2,q3,q4,q5,q6,q7,qp1,qp2,qp3,qp4,qp5,qp6,qp7,xd,yd,zd,vxd,vyd,vzd,wxd,wyd,wzd,x,y,z,vx,vy,vz,wx,wy,wz
3.4e-06,3.12188e-07,-1.10828,-5.47885e-07,2.21657,-2.4313e-07,0.610865,-2.75764e-07,0.0918201,0.00111232,-0.161143,0.00693951,-0.0715089,-0.00805183,-0.0811072,0.0702507,0.0246,0.588057,-3.98163e-07,0,3.36884e-18,0,0,0,0.0702507,-0.0246,0.588057,-3.82504e-07,0.0492,-3.58834e-08,2.29085e-09,5.6332e-08,-2.41315e-09
0.0014917,0.000136982,-1.10828,-0.00024037,2.21658,-0.000106698,0.610854,-0.000120956,0.0918298,0.00064859,-0.161138,0.00678212,-0.0715278,-0.00743077,-0.0810861,0.0702506,0.0246,0.588057,-0.000174688,0,2.84504e-10,0,0,0,0.0702507,-0.0245998,0.588057,-0.000167961,0.0491992,-1.57035e-05,8.46392e-07,2.46597e-05,-1.14039e-06
0.0024919,0.000228701,-1.10828,-0.000401299,2.21658,-0.000178147,0.610847,-0.000201923,0.0916998,0.000326061,-0.160897,0.00663213,-0.0714352,-0.00698287,-0.0809511,0.0702504,0.0246,0.588057,-0.000291818,0,1.32628e-09,0,0,0,0.0702505,-0.0245266,0.588057,-0.000287331,0.0491262,-1.05099e-05,4.94052e-07,1.65238e-05,-7.97261e-07
0.003492,0.000320324,-1.10828,-0.00056205,2.21659,-0.000249532,0.610841,-0.000282788,0.0916146,7.02595e-06,-0.160735,0.00649673,-0.0713773,-0.00654492,-0.0808559,0.07025,0.0246,0.588057,-0.000408936,0,3.64977e-09,0,0,0,0.0702502,-0.0244775,0.588057,-0.000404519,0.0490771,-1.04798e-05,4.20758e-07,1.64898e-05,-8.30285e-07
0.0044922,0.000411872,-1.10828,-0.000722654,2.2166,-0.000320866,0.610835,-0.000363565,0.0915294,-0.000312028,-0.160572,0.00636139,-0.0713194,-0.00610696,-0.0807609,0.0702496,0.0246,0.588057,-0.000526067,0,7.76999e-09,0,0,0,0.0702498,-0.0244284,0.588057,-0.000521718,0.049028,-1.04501e-05,3.47681e-07,1.64592e-05,-8.63396e-07
0.0054923,0.000503325,-1.10828,-0.00088308,2.2166,-0.000392134,0.610829,-0.000444238,0.0914441,-0.000631038,-0.160409,0.00622613,-0.0712616,-0.00566908,-0.0806659,0.070249,0.0246,0.588057,-0.000643185,0,1.42006e-08,0,0,0,0.0702493,-0.0243794,0.588057,-0.000638906,0.048979,-1.04162e-05,2.74681e-07,1.64253e-05,-8.96245e-07
0.0064924,0.000594693,-1.10828,-0.00104334,2.21661,-0.000463345,0.610824,-0.000524817,0.0913589,-0.000950034,-0.160247,0.00609094,-0.0712039,-0.00523123,-0.0805709,0.0702483,0.0246,0.588057,-0.000760303,0,2.34563e-08,0,0,0,0.0702486,-0.0243304,0.588057,-0.000756093,0.04893,-1.03807e-05,2.01855e-07,1.63932e-05,-9.29096e-07
0.0074926,0.000685985,-1.10829,-0.00120346,2.21662,-0.000534506,0.610819,-0.00060531,0.0912736,-0.00126905,-0.160084,0.00595579,-0.0711462,-0.00479336,-0.0804761,0.0702475,0.0246,0.588057,-0.000877433,0,3.6053e-08,0,0,0,0.0702479,-0.0242814,0.588057,-0.000873291,0.0488811,-1.0343e-05,1.29175e-07,1.63627e-05,-9.61962e-07
0.0084927,0.000777183,-1.10829,-0.0013634,2.21662,-0.000605601,0.610814,-0.000685699,0.0911883,-0.00158801,-0.159922,0.00582072,-0.0710885,-0.00435557,-0.0803813,0.0702465,0.0246,0.588057,-0.000994552,0,5.25026e-08,0,0,0,0.070247,-0.0242325,0.588057,-0.000990479,0.0488322,-1.02996e-05,5.66158e-08,1.6329e-05,-9.94546e-07
0.0094928,0.000868295,-1.10829,-0.00152317,2.21663,-0.000676639,0.610811,-0.000765994,0.091103,-0.00190696,-0.159759,0.00568571,-0.071031,-0.0039178,-0.0802867,0.0702455,0.0246,0.588057,-0.00111167,0,7.33206e-08,0,0,0,0.070246,-0.0241837,0.588057,-0.00110767,0.0487834,-1.02529e-05,-1.57908e-08,1.6297e-05,-1.02714e-06
0.0105737,0.000966676,-1.10829,-0.00169568,2.21663,-0.000753356,0.610807,-0.000852672,0.0910182,-0.00225131,-0.159597,0.00554212,-0.0709745,-0.00344601,-0.0801909,0.0702442,0.0246,0.588057,-0.00123825,0,1.01327e-07,0,0,0,0.0702449,-0.0241349,0.588057,-0.00123405,0.0487346,-1.10348e-05,-1.01348e-07,1.75791e-05,-1.14855e-06
0.0117834,0.00107667,-1.1083,-0.00188853,2.21664,-0.000839141,0.610803,-0.000949553,0.0909267,-0.00263657,-0.159421,0.00538254,-0.0709141,-0.00291857,-0.080087,0.0702426,0.0246,0.588057,-0.00137991,0,1.40235e-07,0,0,0,0.0702436,-0.0240822,0.588057,-0.00137539,0.0486819,-1.22952e-05,-2.18728e-07,1.96323e-05,-1.33366e-06
0.0149647,0.00136565,-1.10831,-0.00239505,2.21666,-0.0010646,0.610798,-0.00120388,0.0908358,-0.00364469,-0.159218,0.00500799,-0.0708701,-0.0015553,-0.0799452,0.0702376,0.0246,0.588057,-0.00175247,0,2.87242e-07,0,0,0,0.0702419,-0.0240233,0.588057,-0.00174237,0.0486226,-3.24038e-05,-1.29629e-06,5.1511e-05,-3.86766e-06
0.0166122,0.00151483,-1.10831,-0.00265652,2.21666,-0.00118103,0.610797,-0.00133513,0.0905539,-0.0041742,-0.158706,0.00474382,-0.070668,-0.000812373,-0.0796666,0.0702346,0.0246,0.588057,-0.0019454,0,3.92939e-07,0,0,0,0.0702363,-0.0238687,0.588057,-0.00193975,0.0484683,-1.636e-05,-8.67421e-07,2.65079e-05,-2.07582e-06
0.0180552,0.0016453,-1.10832,-0.00288515,2.21667,-0.00128286,0.610797,-0.00144987,0.0904117,-0.00463469,-0.158439,0.00454397,-0.0705713,-0.000178109,-0.0795145,0.0702317,0.0246,0.588057,-0.00211438,0,5.04487e-07,0,0,0,0.0702331,-0.0237888,0.588057,-0.0021094,0.0483886,-1.4097e-05,-9.08328e-07,2.31423e-05,-1.88286e-06
0.0194287,0.00176931,-1.10833,-0.00310244,2.21668,-0.00137967,0.610797,-0.0015589,0.0902879,-0.00507263,-0.158205,0.00435725,-0.0704881,0.000423829,-0.0793799,0.0702286,0.0246,0.588057,-0.00227523,0,6.286e-07,0,0,0,0.0702301,-0.023719,0.588057,-0.00227054,0.0483188,-1.32156e-05,-9.98691e-07,2.19651e-05,-1.85152e-06
0.0209206,0.00190383,-1.10834,-0.00333814,2.21668,-0.00148472,0.610799,-0.00167713,0.0901711,-0.00554802,-0.157982,0.00415964,-0.0704114,0.00107528,-0.0792494,0.0702251,0.0246,0.588057,-0.00244994,0,7.84812e-07,0,0,0,0.070227,-0.0236526,0.588057,-0.00244514,0.0482524,-1.42137e-05,-1.24254e-06,2.37943e-05,-2.08252e-06
0.0220518,0.00200569,-1.10834,-0.00351657,2.21669,-0.00156427,0.610801,-0.00176663,0.0900412,-0.00590873,-0.157741,0.00399805,-0.0703219,0.00157429,-0.0791147,0.0702223,0.0246,0.588057,-0.00258241,0,9.19127e-07,0,0,0,0.0702233,-0.0235806,0.588057,-0.00257843,0.0481805,-1.03805e-05,-1.03251e-06,1.79883e-05,-1.61693e-06
0.023217,0.00211049,-1.10835,-0.00370016,2.21669,-0.00164613,0.610803,-0.00185869,0.0899446,-0.00627997,-0.157558,0.00384229,-0.0702581,0.00208369,-0.0790083,0.0702192,0.0246,0.588057,-0.00271887,0,1.07266e-06,0,0,0,0.0702204,-0.0235261,0.588057,-0.00271491,0.048126,-1.05392e-05,-1.15928e-06,1.84878e-05,-1.70838e-06
0.0243636,0.00221351,-1.10836,-0.0038806,2.2167,-0.00172662,0.610806,-0.00194915,0.0898447,-0.00664525,-0.157369,0.00368771,-0.0701918,0.00258549,-0.0788997,0.070216,0.0246,0.588057,-0.00285314,0,1.23956e-06,0,0,0,0.0702172,-0.0234701,0.588057,-0.0028493,0.04807,-1.0153e-05,-1.23325e-06,1.81509e-05,-1.72211e-06
0.0256381,0.00232789,-1.10837,-0.00408093,2.2167,-0.001816,0.61081,-0.00204957,0.0897473,-0.00705131,-0.157182,0.00351971,-0.0701285,0.00314183,-0.0787908,0.0702123,0.0246,0.588057,-0.00300239,0,1.44444e-06,0,0,0,0.0702139,-0.0234149,0.588057,-0.00299847,0.0480149,-1.1201e-05,-1.48492e-06,2.01301e-05,-1.96582e-06
0.0266599,0.00241948,-1.10837,-0.00424132,2.2167,-0.00188758,0.610814,-0.00212996,0.0896366,-0.00737652,-0.156977,0.00337603,-0.0700531,0.00359111,-0.0786754,0.0702091,0.0246,0.588057,-0.00312205,0,1.62412e-06,0,0,0,0.0702101,-0.0233537,0.588057,-0.00311855,0.0479537,-8.45292e-06,-1.26338e-06,1.60982e-05,-1.6069e-06
0.0276784,0.00251069,-1.10838,-0.00440104,2.21671,-0.00195887,0.610818,-0.00221,0.0895491,-0.00770084,-0.156811,0.00323916,-0.0699954,0.00403664,-0.0785802,0.0702059,0.0246,0.588057,-0.00324132,0,1.81747e-06,0,0,0,0.0702069,-0.0233047,0.588057,-0.0032379,0.0479047,-8.20234e-06,-1.33177e-06,1.60139e-05,-1.63381e-06
0.0287363,0.00260533,-1.10839,-0.00456675,2.21671,-0.00203285,0.610823,-0.00229303,0.089462,-0.00803775,-0.156646,0.00309808,-0.0699384,0.00449905,-0.0784848,0.0702024,0.0246,0.588057,-0.00336521,0,2.03393e-06,0,0,0,0.0702036,-0.023256,0.588057,-0.00336182,0.047856,-8.3549e-06,-1.46135e-06,1.66e-05,-1.73182e-06
0.0298264,0.00270275,-1.1084,-0.00473733,2.21671,-0.00210903,0.610828,-0.00237848,0.0893715,-0.00838487,-0.156475,0.0029525,-0.0698792,0.00497562,-0.0783859,0.0701987,0.0246,0.588057,-0.00349287,0,2.27429e-06,0,0,0,0.0702001,-0.0232053,0.588057,-0.00348953,0.0478053,-8.40936e-06,-1.58855e-06,1.70697e-05,-1.82132e-06
0.0309042,0.00279898,-1.10841,-0.00490579,2.21672,-0.00218428,0.610834,-0.00246285,0.089278,-0.00872794,-0.156298,0.00280749,-0.0698176,0.00544715,-0.0782848,0.0701948,0.0246,0.588057,-0.00361909,0,2.52986e-06,0,0,0,0.0701963,-0.0231532,0.588057,-0.00361583,0.0477533,-8.00451e-06,-1.65125e-06,1.68408e-05,-1.83631e-06
0.0319044,0.00288818,-1.10842,-0.00506194,2.21672,-0.00225405,0.61084,-0.00254105,0.0891851,-0.00904608,-0.156124,0.00267132,-0.069756,0.00588514,-0.0781858,0.0701911,0.0246,0.588057,-0.00373622,0,2.78352e-06,0,0,0,0.0701924,-0.0231017,0.588057,-0.00373309,0.0477018,-6.95527e-06,-1.60154e-06,1.5595e-05,-1.73419e-06
0.0329045,0.00297729,-1.10843,-0.00521792,2.21672,-0.00232375,0.610846,-0.00261915,0.0890993,-0.00936435,-0.155962,0.00253707,-0.0696997,0.00632256,-0.078093,0.0701873,0.0246,0.588057,-0.00385334,0,3.05358e-06,0,0,0,0.0701886,-0.023054,0.588057,-0.00385028,0.0476541,-6.6617e-06,-1.67052e-06,1.55627e-05,-1.76449e-06
0.0339046,0.00306631,-1.10844,-0.00537373,2.21672,-0.00239341,0.610853,-0.00269716,0.0890135,-0.00968258,-0.155801,0.00240284,-0.0696436,0.00675998,-0.0780003,0.0701834,0.0246,0.588057,-0.00397045,0,3.34056e-06,0,0,0,0.0701848,-0.0230064,0.588057,-0.00396746,0.0476065,-6.35234e-06,-1.73952e-06,1.55319e-05,-1.79488e-06
0.0351163,0.00317407,-1.10845,-0.00556232,2.21673,-0.00247773,0.610862,-0.00279156,0.0889289,-0.0100689,-0.155638,0.00224525,-0.0695902,0.00728886,-0.0779047,0.0701785,0.0246,0.588057,-0.00411235,0,3.71167e-06,0,0,0,0.0701808,-0.0229588,0.588057,-0.00410938,0.0475589,-8.04479e-06,-2.20916e-06,1.87812e-05,-2.22078e-06
0.0363465,0.00328334,-1.10846,-0.00575355,2.21673,-0.00256325,0.610871,-0.00288726,0.0888249,-0.0104603,-0.155442,0.00208054,-0.0695226,0.0078269,-0.0777923,0.0701734,0.0246,0.588057,-0.00425642,0,4.11558e-06,0,0,0,0.0701758,-0.0229011,0.588057,-0.00425354,0.0475013,-7.79036e-06,-2.34689e-06,1.90223e-05,-2.3005e-06
0.0375383,0.00338907,-1.10847,-0.00593856,2.21673,-0.00264603,0.610881,-0.00297984,0.0887191,-0.0108392,-0.155243,0.00191965,-0.0694532,0.00834838,-0.0776791,0.0701682,0.0246,0.588057,-0.00439598,0,4.53385e-06,0,0,0,0.0701706,-0.0228427,0.588057,-0.00439321,0.0474429,-6.96204e-06,-2.37085e-06,1.83837e-05,-2.27106e-06
0.038742,0.00349574,-1.10849,-0.0061252,2.21673,-0.00272955,0.610892,-0.00307321,0.0886168,-0.0112221,-0.15505,0.00175833,-0.0693868,0.00887487,-0.0775689,0.0701629,0.0246,0.588057,-0.00453694,0,4.98413e-06,0,0,0,0.0701654,-0.0227862,0.588057,-0.00453427,0.0473864,-6.59732e-06,-2.49359e-06,1.85236e-05,-2.33721e-06
0.0399126,0.00359936,-1.1085,-0.00630647,2.21674,-0.00281069,0.610903,-0.00316388,0.0885132,-0.0115941,-0.154856,0.00160041,-0.0693192,0.00938703,-0.0774583,0.0701575,0.0246,0.588057,-0.00467403,0,5.44971e-06,0,0,0,0.0701599,-0.0227291,0.588057,-0.00467144,0.0473293,-5.77701e-06,-2.51834e-06,1.79713e-05,-2.31353e-06
0.0411027,0.00370458,-1.10852,-0.00649054,2.21674,-0.00289311,0.610915,-0.00325593,0.0884128,-0.0119726,-0.154667,0.00144108,-0.0692542,0.00990757,-0.0773502,0.0701518,0.0246,0.588057,-0.0048134,0,5.95188e-06,0,0,0,0.0701544,-0.0226737,0.588057,-0.00481091,0.047274,-5.43552e-06,-2.65669e-06,1.82284e-05,-2.39431e-06
0.0426658,0.00384262,-1.10854,-0.006732,2.21674,-0.00300127,0.610931,-0.00337666,0.0883124,-0.0124717,-0.154473,0.00123964,-0.0691927,0.0105907,-0.0772354,0.0701442,0.0246,0.588057,-0.00499645,0,6.65707e-06,0,0,0,0.0701487,-0.0226175,0.588057,-0.00499432,0.0472178,-8.32904e-06,-3.65692e-06,2.38856e-05,-3.22108e-06
0.0445448,0.00400831,-1.10856,-0.00702178,2.21674,-0.00313113,0.610953,-0.00352151,0.0881796,-0.013071,-0.154219,0.000994259,-0.0691098,0.0114125,-0.0770872,0.0701346,0.0246,0.588057,-0.00521649,0,7.5759e-06,0,0,0,0.0701409,-0.0225436,0.588057,-0.00521483,0.0471441,-1.04238e-05,-4.63676e-06,2.86244e-05,-3.98014e-06
0.0460469,0.00414051,-1.10858,-0.00725297,2.21674,-0.00323477,0.610971,-0.00363705,0.088016,-0.0135456,-0.153917,0.000784011,-0.0690006,0.01207,-0.0769199,0.0701266,0.0246,0.588057,-0.00539239,0,8.36844e-06,0,0,0,0.0701311,-0.0224551,0.588057,-0.00539052,0.0470555,-5.9124e-06,-3.85676e-06,2.27973e-05,-3.24371e-06
0.0475083,0.00426895,-1.1086,-0.00747755,2.21674,-0.00333549,0.610989,-0.00374926,0.0878865,-0.0140095,-0.153675,0.000586709,-0.0689168,0.0127094,-0.0767827,0.0701186,0.0246,0.588057,-0.00556353,0,9.19076e-06,0,0,0,0.070123,-0.0223844,0.588057,-0.00556175,0.0469848,-4.65082e-06,-3.89549e-06,2.21136e-05,-3.21754e-06
0.048917,0.00439258,-1.10862,-0.0076937,2.21674,-0.00343246,0.611008,-0.00385723,0.0877604,-0.0144564,-0.153439,0.000396201,-0.0688353,0.0133258,-0.0766496,0.0701106,0.0246,0.588057,-0.0057285,0,1.00328e-05,0,0,0,0.0701148,-0.0223157,0.588057,-0.00572678,0.0469162,-3.25802e-06,-3.88762e-06,2.12544e-05,-3.15842e-06
0.0504441,0.00452641,-1.10864,-0.00792767,2.21674,-0.00353746,0.61103,-0.00397409,0.0876397,-0.0149422,-0.153211,0.000193395,-0.0687589,0.0139942,-0.0765191,0.0701018,0.0246,0.588057,-0.00590733,0,1.10021e-05,0,0,0,0.0701068,-0.0222496,0.588057,-0.00590595,0.0468502,-3.38453e-06,-4.37084e-06,2.29766e-05,-3.49242e-06
0.0521443,0.0046752,-1.10867,-0.00818774,2.21674,-0.00365422,0.611055,-0.00410394,0.0875091,-0.0154834,-0.152964,-3.1671e-05,-0.0686769,0.0147387,-0.0763772,0.0700915,0.0246,0.588057,-0.00610643,0,1.21524e-05,0,0,0,0.0700977,-0.0221781,0.588057,-0.00610554,0.0467787,-3.84392e-06,-5.05998e-06,2.55038e-05,-3.97334e-06
0.0537634,0.00481665,-1.1087,-0.00843496,2.21674,-0.00376526,0.61108,-0.00422736,0.0873622,-0.0159964,-0.15269,-0.000251296,-0.0685822,0.0154472,-0.0762232,0.0700815,0.0246,0.588057,-0.00629604,0,1.332e-05,0,0,0,0.0700874,-0.0220985,0.588057,-0.00629516,0.0466992,-1.84473e-06,-4.9919e-06,2.42053e-05,-3.85749e-06
0.055293,0.00495006,-1.10872,-0.00866812,2.21674,-0.00387003,0.611104,-0.00434372,0.0872222,-0.0164806,-0.152429,-0.000459097,-0.0684919,0.0161164,-0.0760769,0.0700717,0.0246,0.588057,-0.00647516,0,1.44895e-05,0,0,0,0.0700772,-0.0220229,0.588057,-0.00647425,0.0466236,2.28287e-07,-4.86996e-06,2.27937e-05,-3.70947e-06
0.0568707,0.00508746,-1.10875,-0.00890822,2.21674,-0.00397796,0.611131,-0.00446353,0.0870906,-0.0169814,-0.152182,-0.000670635,-0.0684086,0.0168072,-0.0759371,0.0700614,0.0246,0.588057,-0.00665992,0,1.57655e-05,0,0,0,0.0700673,-0.0219516,0.588057,-0.00665928,0.0465523,1.09348e-06,-5.18748e-06,2.34392e-05,-3.89683e-06
0.0586432,0.00524159,-1.10878,-0.00917751,2.21674,-0.00409906,0.611162,-0.00459787,0.0869555,-0.0175455,-0.151927,-0.000905624,-0.0683246,0.0175842,-0.075791,0.0700494,0.0246,0.588057,-0.00686749,0,1.72861e-05,0,0,0,0.0700567,-0.0218782,0.588057,-0.00686755,0.046479,8.17895e-07,-6.03613e-06,2.62509e-05,-4.46866e-06
0.0607071,0.00542075,-1.10882,-0.00949048,2.21674,-0.00423988,0.6112,-0.00475395,0.0868039,-0.0182031,-0.15164,-0.00117828,-0.0682313,0.0184898,-0.0756261,0.070035,0.0246,0.588057,-0.00710918,0,1.91761e-05,0,0,0,0.0700446,-0.0217958,0.588057,-0.00711032,0.0463968,1.69228e-08,-7.31051e-06,3.04594e-05,-5.32658e-06
0.0623279,0.00556115,-1.10885,-0.00973572,2.21674,-0.00435028,0.611231,-0.00487624,0.0866238,-0.0187109,-0.15131,-0.00140575,-0.0681128,0.0191965,-0.0754453,0.0700233,0.0246,0.588057,-0.00729898,0,2.07534e-05,0,0,0,0.0700299,-0.0217,0.588057,-0.00729896,0.0463009,5.84379e-06,-5.90799e-06,2.38214e-05,-4.24975e-06
0.0635386,0.00566585,-1.10887,-0.0099186,2.21673,-0.00443263,0.611255,-0.00496741,0.0864821,-0.0190888,-0.151051,-0.00157713,-0.0680191,0.0197235,-0.0753045,0.0700144,0.0246,0.588057,-0.00744076,0,2.19865e-05,0,0,0,0.070018,-0.021625,0.588057,-0.00743952,0.0462257,1.09727e-05,-4.5053e-06,1.77364e-05,-3.21067e-06
0.0646351,0.00576056,-1.10889,-0.010084,2.21673,-0.00450714,0.611277,-0.00504986,0.0863771,-0.0194343,-0.150857,-0.00172739,-0.0679517,0.0202027,-0.0751968,0.0700061,0.0246,0.588057,-0.00756917,0,2.31445e-05,0,0,0,0.070009,-0.021569,0.588057,-0.00756762,0.0461696,1.32267e-05,-4.15739e-06,1.60246e-05,-2.93965e-06
0.0656705,0.0058499,-1.10891,-0.01024,2.21673,-0.00457744,0.611299,-0.00512762,0.0862823,-0.019761,-0.150681,-0.00186842,-0.0678913,0.0206555,-0.0750988,0.0699982,0.0246,0.588057,-0.00769042,0,2.42747e-05,0,0,0,0.0700007,-0.0215184,0.588057,-0.00768873,0.046119,1.49497e-05,-3.99456e-06,1.50986e-05,-2.8045e-06
0.0667957,0.00594688,-1.10893,-0.0104094,2.21673,-0.00465377,0.611323,-0.00521201,0.0861933,-0.0201182,-0.150514,-0.00201884,-0.0678362,0.021149,-0.0750042,0.0699895,0.0246,0.588057,-0.00782218,0,2.55439e-05,0,0,0,0.0699928,-0.0214706,0.588057,-0.00782091,0.0460713,1.54009e-05,-4.42324e-06,1.63743e-05,-3.08289e-06
0.0680908,0.00605839,-1.10896,-0.0106041,2.21672,-0.00474154,0.611351,-0.00530902,0.0860969,-0.0205303,-0.150332,-0.00219087,-0.0677773,0.0217179,-0.0749005,0.0699793,0.0246,0.588057,-0.00797384,0,2.70588e-05,0,0,0,0.069984,-0.0214188,0.588057,-0.00797332,0.0460196,1.53566e-05,-5.2004e-06,1.88047e-05,-3.59549e-06
0.0691755,0.00615166,-1.10898,-0.0107669,2.21672,-0.00481498,0.611375,-0.00539014,0.0859842,-0.02087,-0.150125,-0.00234153,-0.0677044,0.0221908,-0.0747869,0.0699706,0.0246,0.588057,-0.00810086,0,2.83726e-05,0,0,0,0.0699736,-0.0213592,0.588057,-0.00809959,0.0459599,1.86555e-05,-4.42942e-06,1.57089e-05,-3.04104e-06
0.0702196,0.00624133,-1.10901,-0.0109235,2.21672,-0.00488561,0.611398,-0.00546812,0.0858904,-0.0211993,-0.149951,-0.00248364,-0.0676452,0.0226477,-0.07469,0.069962,0.0246,0.588057,-0.00822313,0,2.96768e-05,0,0,0,0.0699649,-0.0213094,0.588057,-0.00822177,0.04591,2.03571e-05,-4.33305e-06,1.50882e-05,-2.956e-06
0.0713115,0.00633502,-1.10903,-0.011087,2.21672,-0.00495941,0.611424,-0.00554957,0.0858004,-0.0215451,-0.149783,-0.0026307,-0.0675893,0.0231265,-0.0745956,0.069953,0.0246,0.588057,-0.00835099,0,3.10829e-05,0,0,0,0.0699563,-0.0212614,0.588057,-0.00834991,0.0458622,2.13397e-05,-4.60785e-06,1.57461e-05,-3.12352e-06
0.0725558,0.00644166,-1.10906,-0.0112732,2.21671,-0.00504344,0.611453,-0.00564227,0.0857067,-0.0219406,-0.149606,-0.00279668,-0.0675323,0.0236734,-0.0744955,0.0699425,0.0246,0.588057,-0.0084967,0,3.27385e-05,0,0,0,0.0699471,-0.0212113,0.588057,-0.00849639,0.0458122,2.16075e-05,-5.35091e-06,1.79049e-05,-3.60215e-06
0.0736477,0.00653513,-1.10908,-0.0114363,2.21671,-0.00511711,0.611479,-0.00572349,0.0855986,-0.0222829,-0.149407,-0.00294749,-0.0674632,0.02415,-0.0743862,0.0699332,0.0246,0.588057,-0.00862457,0,3.42389e-05,0,0,0,0.0699366,-0.0211543,0.588057,-0.00862365,0.0457551,2.45408e-05,-4.77e-06,1.56728e-05,-3.19097e-06
0.075254,0.00667248,-1.10912,-0.011676,2.2167,-0.00522539,0.611519,-0.00584281,0.0855063,-0.0227987,-0.149229,-0.00315664,-0.067411,0.0248605,-0.0742812,0.0699191,0.0246,0.588057,-0.00881267,0,3.65284e-05,0,0,0,0.0699272,-0.0211044,0.588057,-0.0088143,0.0457056,2.21123e-05,-7.18681e-06,2.30067e-05,-4.76919e-06
0.077559,0.00686926,-1.10917,-0.0120194,2.2167,-0.00538059,0.611579,-0.00601367,0.0853701,-0.0235385,-0.148967,-0.00345816,-0.0673335,0.0258807,-0.0741277,0.0698985,0.0246,0.588057,-0.00908259,0,3.99888e-05,0,0,0,0.069913,-0.021031,0.588057,-0.00908795,0.0456327,1.91922e-05,-1.06608e-05,3.29092e-05,-6.99637e-06
0.0789396,0.00698684,-1.10921,-0.0122246,2.21669,-0.00547336,0.611616,-0.00611575,0.0851672,-0.0239571,-0.148602,-0.00366177,-0.0671977,0.0264727,-0.0739348,0.0698859,0.0246,0.588058,-0.00924426,0,4.21625e-05,0,0,0,0.069892,-0.0209258,0.588057,-0.00924499,0.0455269,2.9925e-05,-6.4948e-06,1.96197e-05,-4.22833e-06
0.0800954,0.00708514,-1.10923,-0.0123961,2.21669,-0.00555094,0.611647,-0.00620106,0.085047,-0.0243173,-0.148382,-0.00382295,-0.0671207,0.026976,-0.0738149,0.0698751,0.0246,0.588058,-0.0093796,0,4.40417e-05,0,0,0,0.0698793,-0.0208629,0.588057,-0.00937923,0.0454639,3.38898e-05,-5.51875e-06,1.63796e-05,-3.57181e-06
0.0815654,0.00721001,-1.10927,-0.0126139,2.21668,-0.00564953,0.611687,-0.00630941,0.0849482,-0.0247866,-0.148195,-0.0040182,-0.0670628,0.0276256,-0.0737076,0.0698612,0.0246,0.588058,-0.00955174,0,4.65114e-05,0,0,0,0.0698684,-0.0208104,0.588057,-0.00955323,0.0454116,3.35157e-05,-7.15781e-06,2.07845e-05,-4.60221e-06
0.0826629,0.0073031,-1.1093,-0.0127763,2.21668,-0.00572304,0.611718,-0.00639017,0.0848197,-0.025125,-0.147961,-0.00417401,-0.0669794,0.0281008,-0.0735821,0.0698506,0.0246,0.588058,-0.00968026,0,4.84143e-05,0,0,0,0.0698544,-0.0207436,0.588057,-0.00967972,0.0453446,3.88438e-05,-5.41547e-06,1.54718e-05,-3.46286e-06
0.0838222,0.00740132,-1.10933,-0.0129476,2.21667,-0.00580062,0.611751,-0.00647536,0.084725,-0.0254913,-0.147785,-0.00433131,-0.0669216,0.0286103,-0.0734838,0.0698393,0.0246,0.588058,-0.00981601,0,5.04799e-05,0,0,0,0.0698438,-0.0206939,0.588057,-0.00981592,0.0452949,4.03675e-05,-5.80447e-06,1.63072e-05,-3.69249e-06
0.0848458,0.00748794,-1.10935,-0.0130987,2.21667,-0.00586905,0.611781,-0.00655047,0.0846242,-0.0258107,-0.1476,-0.00447334,-0.066858,0.0290569,-0.0733828,0.0698292,0.0246,0.588058,-0.00993587,0,5.23519e-05,0,0,0,0.0698324,-0.0206414,0.588057,-0.00993505,0.0452423,4.34915e-05,-5.18869e-06,1.43649e-05,-3.28535e-06
0.0858459,0.00757249,-1.10938,-0.0132462,2.21666,-0.00593586,0.611811,-0.00662377,0.0845356,-0.026125,-0.147436,-0.00461047,-0.0668031,0.0294952,-0.0732924,0.0698192,0.0246,0.588058,-0.010053,0,5.4225e-05,0,0,0,0.0698222,-0.020595,0.588057,-0.0100521,0.0451959,4.55941e-05,-5.13114e-06,1.40063e-05,-3.23476e-06
0.086846,0.00765694,-1.10941,-0.0133934,2.21666,-0.00600262,0.611841,-0.00669698,0.0844491,-0.0264396,-0.147276,-0.00474733,-0.0667498,0.0299339,-0.0732038,0.0698091,0.0246,0.588058,-0.0101701,0,5.61423e-05,0,0,0,0.0698121,-0.0205498,0.588057,-0.0101693,0.0451508,4.75271e-05,-5.19279e-06,1.39783e-05,-3.2597e-06
0.087871,0.00774341,-1.10943,-0.0135442,2.21665,-0.00607098,0.611872,-0.00677193,0.0843626,-0.0267625,-0.147116,-0.00488732,-0.0666969,0.0303841,-0.0731149,0.0697986,0.0246,0.588058,-0.0102901,0,5.81537e-05,0,0,0,0.069802,-0.0205047,0.588058,-0.0102895,0.0451056,4.93294e-05,-5.38693e-06,1.42976e-05,-3.36718e-06
0.0888712,0.00782771,-1.10946,-0.0136912,2.21665,-0.00613764,0.611903,-0.00684496,0.0842739,-0.0270764,-0.146952,-0.00502479,-0.0666422,0.0308226,-0.0730247,0.0697883,0.0246,0.588058,-0.0104072,0,6.01622e-05,0,0,0,0.0697914,-0.0204585,0.588058,-0.0104065,0.0450594,5.15778e-05,-5.31775e-06,1.3923e-05,-3.3102e-06
0.0898713,0.0079119,-1.10949,-0.013838,2.21664,-0.00620423,0.611934,-0.00691791,0.0841873,-0.0273907,-0.146792,-0.00516198,-0.066589,0.0312615,-0.0729363,0.0697778,0.0246,0.588058,-0.0105243,0,6.22162e-05,0,0,0,0.069781,-0.0204134,0.588058,-0.0105237,0.0450143,5.36481e-05,-5.37845e-06,1.38937e-05,-3.33447e-06
0.0914906,0.00804809,-1.10953,-0.0140755,2.21663,-0.00631199,0.611986,-0.00703586,0.0841028,-0.0279134,-0.146628,-0.00537518,-0.0665439,0.0319848,-0.0728392,0.0697606,0.0246,0.588058,-0.010714,0,6.56402e-05,0,0,0,0.0697705,-0.0203684,0.588058,-0.0107176,0.04497,5.15205e-05,-8.87836e-06,2.24514e-05,-5.47275e-06
0.0935327,0.00821955,-1.10959,-0.0143744,2.21662,-0.00644771,0.612053,-0.0071843,0.0839639,-0.0285646,-0.146366,-0.00565003,-0.0664635,0.0328906,-0.0726904,0.0697385,0.0246,0.588058,-0.0109531,0,7.01343e-05,0,0,0,0.0697531,-0.0202955,0.588058,-0.01096,0.0448976,5.22595e-05,-1.14589e-05,2.82221e-05,-7.01131e-06
0.0947304,0.0083199,-1.10963,-0.0145493,2.21662,-0.00652718,0.612093,-0.00727116,0.0837842,-0.0289205,-0.146045,-0.00582722,-0.0663446,0.0333983,-0.0725225,0.0697253,0.0246,0.588058,-0.0110933,0,7.28632e-05,0,0,0,0.0697307,-0.0202039,0.588058,-0.0110942,0.0448051,6.26068e-05,-6.79735e-06,1.64839e-05,-4.1368e-06
0.0957532,0.00840549,-1.10966,-0.0146985,2.21661,-0.00659497,0.612127,-0.00734523,0.08368,-0.0292372,-0.145854,-0.00597072,-0.0662791,0.0338437,-0.0724197,0.0697139,0.0246,0.588059,-0.0112131,0,7.52489e-05,0,0,0,0.0697174,-0.0201502,0.588058,-0.0112128,0.0447513,6.65748e-05,-5.86609e-06,1.40428e-05,-3.556e-06
0.0967585,0.00848952,-1.10969,-0.0148449,2.2166,-0.00666154,0.612162,-0.00741794,0.0835914,-0.029552,-0.145691,-0.00610968,-0.066225,0.0342849,-0.0723301,0.0697026,0.0246,0.588059,-0.0113308,0,7.76439e-05,0,0,0,0.069706,-0.0201044,0.588058,-0.0113304,0.0447055,6.91411e-05,-5.82645e-06,1.37742e-05,-3.51907e-06
0.0977735,0.00857428,-1.10972,-0.0149926,2.2166,-0.00672871,0.612197,-0.00749127,0.0835043,-0.0298704,-0.14553,-0.00624974,-0.0661721,0.034731,-0.0722417,0.069691,0.0246,0.588059,-0.0114496,0,8.0113e-05,0,0,0,0.0696946,-0.0200595,0.588058,-0.0114494,0.0446606,7.15386e-05,-5.94473e-06,1.3879e-05,-3.57755e-06
0.0988982,0.0086681,-1.10975,-0.0151561,2.21659,-0.00680307,0.612237,-0.00757242,0.0834167,-0.0302256,-0.145367,-0.00640373,-0.0661201,0.0352278,-0.0721512,0.069678,0.0246,0.588059,-0.0115813,0,8.29096e-05,0,0,0,0.069683,-0.0200142,0.588058,-0.0115821,0.0446154,7.33751e-05,-6.66445e-06,1.53478e-05,-3.99529e-06
0.0999989,0.00875981,-1.10978,-0.0153159,2.21658,-0.00687578,0.612276,-0.00765172,0.0833192,-0.0305698,-0.145188,-0.00655641,-0.0660606,0.035711,-0.072053,0.0696652,0.0246,0.588059,-0.0117102,0,8.57087e-05,0,0,0,0.0696699,-0.019964,0.588058,-0.0117108,0.0445652,7.64054e-05,-6.59445e-06,1.49863e-05,-3.93821e-06
0.101229,0.00886219,-1.10982,-0.0154943,2.21657,-0.00695698,0.612321,-0.00774024,0.0832243,-0.0309584,-0.145011,-0.00672515,-0.0660045,0.0362549,-0.0719548,0.0696507,0.0246,0.588059,-0.0118543,0,8.8911e-05,0,0,0,0.069657,-0.0199149,0.588058,-0.011856,0.0445163,7.84773e-05,-7.4624e-06,1.67125e-05,-4.43849e-06
0.102229,0.00894532,-1.10985,-0.0156392,2.21657,-0.00702293,0.612357,-0.0078121,0.083117,-0.0312654,-0.144816,-0.00686691,-0.0659369,0.0366888,-0.0718505,0.0696388,0.0246,0.588059,-0.0119714,0,9.15723e-05,0,0,0,0.0696425,-0.0198602,0.588059,-0.0119713,0.0444613,8.31953e-05,-6.12358e-06,1.35528e-05,-3.62918e-06
0.103229,0.00902836,-1.10988,-0.0157838,2.21656,-0.00708882,0.612394,-0.00788388,0.0830304,-0.0315783,-0.144656,-0.00700578,-0.0658845,0.0371285,-0.0717632,0.0696268,0.0246,0.588059,-0.0120885,0,9.42864e-05,0,0,0,0.0696305,-0.0198157,0.588059,-0.0120885,0.0444169,8.59225e-05,-6.1836e-06,1.35269e-05,-3.65265e-06
0.10423,0.00911131,-1.10992,-0.0159284,2.21655,-0.00715466,0.612432,-0.00795556,0.0829437,-0.0318911,-0.144497,-0.00714478,-0.0658321,0.0375683,-0.0716759,0.0696146,0.0246,0.588059,-0.0122056,0,9.70534e-05,0,0,0,0.0696184,-0.0197713,0.588059,-0.0122056,0.0443724,8.87042e-05,-6.24224e-06,1.34983e-05,-3.67527e-06
0.105477,0.00921464,-1.10996,-0.0161083,2.21654,-0.00723669,0.61248,-0.00804483,0.0828577,-0.0322878,-0.144335,-0.00731517,-0.065783,0.0381234,-0.0715852,0.0695993,0.0246,0.588059,-0.0123516,0,0.000100579,0,0,0,0.0696062,-0.0197269,0.588059,-0.0123539,0.0443284,9.00681e-05,-7.87876e-06,1.6797e-05,-4.62132e-06
0.107438,0.00937692,-1.11002,-0.016391,2.21653,-0.00736559,0.612556,-0.00818498,0.0827515,-0.0329206,-0.144131,-0.00757969,-0.0657269,0.0390058,-0.0714664,0.0695749,0.0246,0.58806,-0.0125812,0,0.000106294,0,0,0,0.0695908,-0.0196716,0.588059,-0.0125899,0.044274,8.95186e-05,-1.26337e-05,2.63505e-05,-7.36958e-06
0.108438,0.00945951,-1.11005,-0.0165348,2.21652,-0.00743121,0.612595,-0.0082563,0.0825789,-0.0332056,-0.143825,-0.00773113,-0.0656122,0.0394191,-0.0713094,0.0695622,0.0246,0.58806,-0.0126983,0,0.00010929,0,0,0,0.0695661,-0.0195848,0.588059,-0.0126985,0.044186,0.000101002,-6.48999e-06,1.33843e-05,-3.77068e-06
0.109438,0.00954201,-1.11009,-0.0166785,2.21651,-0.00749678,0.612635,-0.00832753,0.0824922,-0.0335178,-0.143666,-0.00787089,-0.0655601,0.0398592,-0.0712225,0.0695495,0.0246,0.58806,-0.0128154,0,0.000112341,0,0,0,0.0695534,-0.0195406,0.588059,-0.0128157,0.0441419,0.000104067,-6.54853e-06,1.33573e-05,-3.79307e-06
0.110438,0.00962442,-1.11012,-0.016822,2.21651,-0.00756229,0.612676,-0.00839867,0.0824055,-0.0338299,-0.143506,-0.0080108,-0.065508,0.0402994,-0.0711356,0.0695366,0.0246,0.58806,-0.0129325,0,0.000115449,0,0,0,0.0695406,-0.0194965,0.588059,-0.0129328,0.0440977,0.000107188,-6.60694e-06,1.33304e-05,-3.81534e-06
0.111438,0.00970675,-1.11016,-0.0169654,2.2165,-0.00762775,0.612716,-0.00846973,0.0823188,-0.0341418,-0.143347,-0.00815086,-0.065456,0.0407397,-0.0710489,0.0695236,0.0246,0.58806,-0.0130496,0,0.000118614,0,0,0,0.0695276,-0.0194524,0.588059,-0.01305,0.0440536,0.000110366,-6.66521e-06,1.33035e-05,-3.83749e-06
0.112438,0.00978899,-1.11019,-0.0171086,2.21649,-0.00769316,0.612758,-0.0085407,0.0822321,-0.0344537,-0.143188,-0.00829108,-0.065404,0.0411801,-0.0709622,0.0695105,0.0246,0.58806,-0.0131667,0,0.000121837,0,0,0,0.0695146,-0.0194083,0.58806,-0.0131671,0.0440096,0.000113602,-6.72334e-06,1.32767e-05,-3.85953e-06
0.113438,0.00987114,-1.11023,-0.0172516,2.21648,-0.00775852,0.612799,-0.00861158,0.0821454,-0.0347654,-0.143028,-0.00843146,-0.0653521,0.0416205,-0.0708756,0.0694973,0.0246,0.58806,-0.0132838,0,0.000125117,0,0,0,0.0695014,-0.0193643,0.58806,-0.0132843,0.0439656,0.000116894,-6.78133e-06,1.32499e-05,-3.88146e-06
0.114464,0.00995533,-1.11026,-0.0173982,2.21647,-0.00782552,0.612842,-0.0086842,0.0820588,-0.0350858,-0.142869,-0.00857534,-0.0653005,0.0420732,-0.0707887,0.0694836,0.0246,0.58806,-0.0134039,0,0.000128542,0,0,0,0.0694881,-0.0193203,0.58806,-0.0134047,0.0439217,0.000120108,-7.01749e-06,1.35643e-05,-4.00482e-06
0.115464,0.0100373,-1.1103,-0.0175409,2.21646,-0.00789077,0.612885,-0.00875491,0.0819698,-0.0353964,-0.142706,-0.00871633,-0.065247,0.042513,-0.0707004,0.0694701,0.0246,0.588061,-0.013521,0,0.000131941,0,0,0,0.0694744,-0.0192753,0.58806,-0.0135216,0.0438766,0.000123744,-6.8984e-06,1.31957e-05,-3.92551e-06
0.116561,0.0101271,-1.11034,-0.0176973,2.21645,-0.00796228,0.612932,-0.00883236,0.0818833,-0.0357409,-0.142546,-0.00886979,-0.0651965,0.0429994,-0.0706127,0.0694552,0.0246,0.588061,-0.0136494,0,0.000135737,0,0,0,0.0694608,-0.0192314,0.58806,-0.0136511,0.0438329,0.000126713,-7.63674e-06,1.44438e-05,-4.33255e-06
0.117675,0.0102182,-1.11038,-0.0178558,2.21644,-0.00803481,0.61298,-0.00891088,0.0817882,-0.0360878,-0.142371,-0.00902667,-0.0651399,0.0434906,-0.0705178,0.06944,0.0246,0.588061,-0.0137798,0,0.000139663,0,0,0,0.0694459,-0.0191833,0.58806,-0.0137817,0.0437848,0.000130511,-7.82304e-06,1.46286e-05,-4.42449e-06
0.118675,0.0102999,-1.11041,-0.017998,2.21643,-0.0080999,0.613024,-0.00898131,0.0816914,-0.0363953,-0.142195,-0.00916913,-0.065081,0.0439278,-0.0704234,0.0694261,0.0246,0.588061,-0.0138968,0,0.000143255,0,0,0,0.0694305,-0.0191345,0.58806,-0.0138977,0.0437359,0.000135099,-7.08275e-06,1.31104e-05,-3.99432e-06
0.119675,0.0103815,-1.11045,-0.0181401,2.21643,-0.00816493,0.613069,-0.00905165,0.0816046,-0.0367062,-0.142035,-0.00931054,-0.0650293,0.0443687,-0.0703373,0.0694122,0.0246,0.588061,-0.0140139,0,0.000146907,0,0,0,0.0694166,-0.0190908,0.58806,-0.0140149,0.0436922,0.000138763,-7.13989e-06,1.30839e-05,-4.01551e-06
0.121001,0.0104896,-1.1105,-0.0183283,2.21641,-0.00825114,0.613128,-0.00914484,0.0815186,-0.0371291,-0.141874,-0.00949503,-0.0649819,0.0449647,-0.0702466,0.0693935,0.0246,0.588061,-0.0141692,0,0.000151847,0,0,0,0.0694026,-0.0190471,0.588061,-0.0141737,0.043649,0.000140896,-9.57698e-06,1.73206e-05,-5.3683e-06
0.123174,0.0106665,-1.11058,-0.018636,2.21639,-0.00839218,0.613228,-0.00929717,0.0814053,-0.0378319,-0.141656,-0.0097949,-0.0649243,0.0459524,-0.0701204,0.0693624,0.0246,0.588062,-0.0144236,0,0.000160173,0,0,0,0.0693838,-0.0189892,0.588061,-0.0144374,0.0435924,0.000141942,-1.59763e-05,2.82888e-05,-8.90996e-06
0.124223,0.0107517,-1.11062,-0.0187842,2.21638,-0.00846015,0.613277,-0.00937054,0.0812143,-0.0381194,-0.141319,-0.00995524,-0.0647982,0.0463759,-0.0699498,0.0693472,0.0246,0.588062,-0.0145464,0,0.000164299,0,0,0,0.0693524,-0.0188945,0.588061,-0.0145479,0.0434961,0.000155794,-7.75959e-06,1.35979e-05,-4.31145e-06
0.12539,0.0108464,-1.11067,-0.018949,2.21637,-0.00853574,0.613332,-0.00945211,0.0811236,-0.0384856,-0.141152,-0.0101204,-0.0647458,0.0468955,-0.0698582,0.0693301,0.0246,0.588062,-0.0146831,0,0.000168976,0,0,0,0.0693371,-0.0188489,0.588061,-0.014686,0.0434506,0.000159465,-8.71652e-06,1.51047e-05,-4.8289e-06
0.126558,0.010941,-1.11071,-0.0191137,2.21636,-0.00861129,0.613387,-0.00953358,0.0810223,-0.0388476,-0.140966,-0.010287,-0.0646859,0.0474111,-0.0697582,0.0693129,0.0246,0.588062,-0.0148198,0,0.000173741,0,0,0,0.06932,-0.0187982,0.588062,-0.0148228,0.0433999,0.000164243,-8.79544e-06,1.50729e-05,-4.85795e-06
0.127558,0.011022,-1.11075,-0.0192545,2.21635,-0.00867593,0.613435,-0.00960325,0.0809206,-0.0391517,-0.140782,-0.0104314,-0.0646239,0.0478466,-0.0696607,0.069298,0.0246,0.588062,-0.0149369,0,0.000177893,0,0,0,0.0693027,-0.0187475,0.588062,-0.0149381,0.043349,0.000169846,-7.58617e-06,1.28779e-05,-4.17874e-06
0.128558,0.0111028,-1.11079,-0.0193951,2.21634,-0.00874051,0.613483,-0.00967284,0.0808339,-0.0394614,-0.140623,-0.0105744,-0.0645727,0.0482883,-0.0695752,0.069283,0.0246,0.588063,-0.0150539,0,0.00018211,0,0,0,0.0692877,-0.0187041,0.588062,-0.0150552,0.0433056,0.000174076,-7.64134e-06,1.28505e-05,-4.19846e-06
0.129559,0.0111836,-1.11083,-0.0195356,2.21633,-0.00880503,0.613532,-0.00974233,0.0807471,-0.0397709,-0.140464,-0.0107176,-0.0645215,0.0487301,-0.0694897,0.0692679,0.0246,0.588063,-0.015171,0,0.000186393,0,0,0,0.0692727,-0.0186608,0.588062,-0.0151724,0.0432624,0.00017837,-7.69713e-06,1.28245e-05,-4.21847e-06
0.130559,0.0112642,-1.11087,-0.0196759,2.21631,-0.00886951,0.613581,-0.00981174,0.0806604,-0.0400803,-0.140306,-0.0108611,-0.0644704,0.0491719,-0.0694044,0.0692527,0.0246,0.588063,-0.0152881,0,0.000190743,0,0,0,0.0692575,-0.0186175,0.588062,-0.0152895,0.0432191,0.000182731,-7.75279e-06,1.27985e-05,-4.23837e-06
0.132027,0.0113825,-1.11093,-0.0198817,2.2163,-0.0089641,0.613654,-0.00991351,0.0805744,-0.0405514,-0.140143,-0.0110679,-0.0644252,0.0498389,-0.0693124,0.0692301,0.0246,0.588063,-0.01546,0,0.00019725,0,0,0,0.0692422,-0.0185743,0.588062,-0.0154671,0.0431766,0.00018526,-1.15114e-05,1.87512e-05,-6.27269e-06
0.133082,0.0114674,-1.11097,-0.0200293,2.21629,-0.00903198,0.613707,-0.00998651,0.0804463,-0.0408622,-0.139913,-0.0112233,-0.0643451,0.0502891,-0.0691933,0.0692138,0.0246,0.588063,-0.0155835,0,0.000202017,0,0,0,0.0692195,-0.0185109,0.588063,-0.0155856,0.0431126,0.000193566,-8.32671e-06,1.34336e-05,-4.52407e-06
0.134082,0.0115478,-1.11101,-0.0201691,2.21627,-0.00909629,0.613758,-0.0100556,0.0803546,-0.0411691,-0.139746,-0.0113678,-0.0642906,0.0507292,-0.0691043,0.0691981,0.0246,0.588064,-0.0157005,0,0.000206606,0,0,0,0.0692031,-0.0184654,0.588063,-0.0157021,0.0430671,0.000198632,-7.94856e-06,1.27085e-05,-4.30791e-06
0.135082,0.011628,-1.11105,-0.0203087,2.21626,-0.00916053,0.613809,-0.0101247,0.0802679,-0.0414779,-0.139588,-0.0115122,-0.0642397,0.0511715,-0.0690192,0.0691823,0.0246,0.588064,-0.0158176,0,0.000211263,0,0,0,0.0691874,-0.0184224,0.588063,-0.0158193,0.043024,0.000203301,-8.0028e-06,1.26815e-05,-4.32683e-06
0.136083,0.0117083,-1.1111,-0.0204482,2.21625,-0.00922475,0.613861,-0.0101936,0.0801811,-0.0417867,-0.139429,-0.0116567,-0.0641888,0.051614,-0.0689343,0.0691665,0.0246,0.588064,-0.0159347,0,0.000215992,0,0,0,0.0691715,-0.0183793,0.588063,-0.0159364,0.042981,0.000208037,-8.06096e-06,1.26608e-05,-4.34781e-06
0.138481,0.0119004,-1.1112,-0.0207822,2.21622,-0.00937863,0.613987,-0.0103587,0.0800964,-0.0425801,-0.139258,-0.0119933,-0.0641557,0.0527333,-0.0688294,0.0691279,0.0246,0.588065,-0.0162155,0,0.000227615,0,0,0,0.0691556,-0.0183363,0.588064,-0.0162352,0.0429404,0.000207821,-1.96917e-05,3.02923e-05,-1.05724e-05
0.139499,0.0119817,-1.11124,-0.0209236,2.21621,-0.00944381,0.614041,-0.0104286,0.079886,-0.0428398,-0.13889,-0.0121518,-0.0640164,0.053126,-0.0686457,0.0691113,0.0246,0.588065,-0.0163346,0,0.000232672,0,0,0,0.0691166,-0.0182333,0.588064,-0.0163366,0.0428351,0.000224607,-8.39281e-06,1.27948e-05,-4.49036e-06
0.140582,0.0120681,-1.11129,-0.0210738,2.2162,-0.00951308,0.614099,-0.0105028,0.0797978,-0.0431759,-0.138728,-0.0123088,-0.0639656,0.0536083,-0.0685586,0.0690936,0.0246,0.588065,-0.0164614,0,0.000238133,0,0,0,0.0691,-0.0181897,0.588064,-0.0164642,0.0427916,0.000229531,-8.99262e-06,1.35823e-05,-4.79936e-06
0.14159,0.0121484,-1.11133,-0.0212135,2.21618,-0.00957749,0.614154,-0.0105718,0.0797037,-0.043483,-0.138557,-0.0124562,-0.0639098,0.0540514,-0.0684681,0.0690769,0.0246,0.588065,-0.0165793,0,0.000243291,0,0,0,0.0690822,-0.0181434,0.588065,-0.0165813,0.0427451,0.000235334,-8.42199e-06,1.26113e-05,-4.48404e-06
0.142654,0.0122331,-1.11138,-0.0213607,2.21617,-0.00964542,0.614212,-0.0106446,0.0796163,-0.0438125,-0.138397,-0.012611,-0.0638595,0.054525,-0.0683822,0.0690592,0.0246,0.588066,-0.0167038,0,0.000248815,0,0,0,0.0690655,-0.0181003,0.588065,-0.0167066,0.0427022,0.000240399,-8.95121e-06,1.32836e-05,-4.75433e-06
0.143654,0.0123127,-1.11142,-0.0214989,2.21616,-0.00970923,0.614267,-0.0107129,0.079524,-0.0441173,-0.138229,-0.0127575,-0.063805,0.0549653,-0.0682933,0.0690425,0.0246,0.588066,-0.0168209,0,0.000254084,0,0,0,0.0690477,-0.0180549,0.588065,-0.0168229,0.0426567,0.000246213,-8.46885e-06,1.24623e-05,-4.4876e-06
0.144708,0.0123964,-1.11147,-0.0216445,2.21614,-0.00977645,0.614325,-0.0107848,0.0794373,-0.0444435,-0.138071,-0.0129115,-0.0637552,0.055435,-0.0682082,0.0690247,0.0246,0.588066,-0.0169443,0,0.00025972,0,0,0,0.0690309,-0.0180122,0.588065,-0.0169471,0.0426141,0.000251403,-8.98934e-06,1.31122e-05,-4.75216e-06
0.145708,0.0124758,-1.11151,-0.0217824,2.21613,-0.00984017,0.614381,-0.0108529,0.0793457,-0.0447485,-0.137904,-0.0130585,-0.0637013,0.055876,-0.0681201,0.0690077,0.0246,0.588066,-0.0170614,0,0.000265143,0,0,0,0.069013,-0.0179673,0.588066,-0.0170635,0.0425691,0.000257291,-8.57998e-06,1.24115e-05,-4.52527e-06
0.146739,0.0125575,-1.11156,-0.0219244,2.21612,-0.00990579,0.614439,-0.0109231,0.079259,-0.0450662,-0.137746,-0.0132096,-0.0636513,0.0563345,-0.0680355,0.06899,0.0246,0.588067,-0.017182,0,0.00027081,0,0,0,0.0689959,-0.0179247,0.588066,-0.0171846,0.0425266,0.000262711,-8.90154e-06,1.27676e-05,-4.68407e-06
0.147763,0.0126385,-1.11161,-0.0220652,2.2161,-0.00997087,0.614497,-0.0109926,0.0791695,-0.0453798,-0.137583,-0.0133601,-0.0635993,0.056788,-0.0679489,0.0689724,0.0246,0.588067,-0.0173018,0,0.000276515,0,0,0,0.0689782,-0.0178809,0.588066,-0.0173043,0.0424827,0.00026849,-8.88988e-06,1.26444e-05,-4.66716e-06
0.148981,0.0127349,-1.11166,-0.0222327,2.21609,-0.0100483,0.614567,-0.0110753,0.0790809,-0.0457616,-0.137419,-0.0135384,-0.0635502,0.0573375,-0.0678601,0.0689512,0.0246,0.588067,-0.0174444,0,0.000283411,0,0,0,0.0689605,-0.0178374,0.588066,-0.0174498,0.0424397,0.000273766,-1.06688e-05,1.50254e-05,-5.5867e-06
0.150565,0.0128599,-1.11174,-0.02245,2.21607,-0.0101488,0.614659,-0.0111826,0.0789756,-0.0462624,-0.137223,-0.0137701,-0.0634936,0.0580576,-0.0677526,0.0689234,0.0246,0.588068,-0.0176297,0,0.000292545,0,0,0,0.0689392,-0.0177857,0.588067,-0.0176404,0.0423887,0.000279865,-1.40095e-05,1.9481e-05,-7.31232e-06
0.151901,0.0129653,-1.1118,-0.022633,2.21605,-0.0102336,0.614738,-0.011273,0.0788379,-0.0466609,-0.136975,-0.0139694,-0.063411,0.0586392,-0.0676233,0.0688998,0.0246,0.588068,-0.0177861,0,0.000300404,0,0,0,0.0689113,-0.0177186,0.588067,-0.0177934,0.0423211,0.000289807,-1.19121e-05,1.6388e-05,-6.19812e-06
0.154804,0.0131938,-1.11194,-0.02303,2.21601,-0.0104175,0.614912,-0.0114689,0.0787233,-0.0476178,-0.136748,-0.014392,-0.0633636,0.0600052,-0.0674888,0.0688476,0.0246,0.588069,-0.0181258,0,0.000317957,0,0,0,0.0688875,-0.017662,0.588068,-0.0181565,0.0422676,0.000294316,-2.6397e-05,3.55023e-05,-1.36641e-05
0.156037,0.0132906,-1.112,-0.0231981,2.21599,-0.0104955,0.614986,-0.0115518,0.0784696,-0.0479198,-0.136305,-0.0145846,-0.0631971,0.0604706,-0.0672698,0.0688252,0.0246,0.588069,-0.0182701,0,0.000325616,0,0,0,0.0688348,-0.0175393,0.588069,-0.0182759,0.0421417,0.000315928,-1.12563e-05,1.49908e-05,-5.80387e-06
0.157158,0.0133784,-1.11205,-0.0233506,2.21597,-0.0105662,0.615055,-0.0116271,0.0783625,-0.0482566,-0.136112,-0.0147524,-0.0631341,0.060963,-0.0671685,0.0688046,0.0246,0.58807,-0.0184012,0,0.000332679,0,0,0,0.0688122,-0.0174873,0.588069,-0.0184053,0.0420895,0.000323939,-1.02889e-05,1.35841e-05,-5.2918e-06
0.158195,0.0134596,-1.1121,-0.0234916,2.21596,-0.0106316,0.615118,-0.0116967,0.0782653,-0.0485693,-0.135936,-0.014908,-0.0630771,0.0614201,-0.0670763,0.0687855,0.0246,0.58807,-0.0185226,0,0.000339311,0,0,0,0.0687916,-0.0174402,0.588069,-0.0185255,0.0420422,0.000331266,-9.58278e-06,1.25513e-05,-4.91736e-06
0.159195,0.0135378,-1.11215,-0.0236274,2.21594,-0.0106947,0.61518,-0.0117637,0.0781753,-0.0488725,-0.135772,-0.015058,-0.0630249,0.061863,-0.0669904,0.0687669,0.0246,0.58807,-0.0186396,0,0.000345787,0,0,0,0.0687724,-0.0173966,0.58807,-0.018642,0.0419986,0.00033806,-9.28845e-06,1.20731e-05,-4.756e-06
0.160195,0.0136159,-1.1122,-0.023763,2.21593,-0.0107577,0.615243,-0.0118306,0.0780885,-0.0491771,-0.135614,-0.0152081,-0.0629751,0.0623079,-0.0669071,0.0687482,0.0246,0.588071,-0.0187566,0,0.000352344,0,0,0,0.0687538,-0.0173546,0.58807,-0.0187591,0.0419566,0.000344626,-9.3401e-06,1.20485e-05,-4.77225e-06
0.161196,0.0136939,-1.11225,-0.0238985,2.21591,-0.0108206,0.615305,-0.0118974,0.0780018,-0.0494817,-0.135457,-0.0153584,-0.0629253,0.062753,-0.066824,0.0687294,0.0246,0.588071,-0.0188737,0,0.000358985,0,0,0,0.068735,-0.0173126,0.58807,-0.0188762,0.0419146,0.000351274,-9.39256e-06,1.20251e-05,-4.78886e-06
0.162196,0.0137718,-1.1123,-0.0240338,2.21589,-0.0108835,0.615369,-0.0119642,0.0779151,-0.049786,-0.135299,-0.015509,-0.0628755,0.0631982,-0.0667409,0.0687105,0.0246,0.588072,-0.0189907,0,0.000365708,0,0,0,0.0687161,-0.0172707,0.588071,-0.0189933,0.0418727,0.000358005,-9.44395e-06,1.20005e-05,-4.80487e-06
0.163196,0.0138497,-1.11235,-0.024169,2.21588,-0.0109463,0.615432,-0.0120308,0.0778283,-0.0500902,-0.135141,-0.0156599,-0.0628258,0.0636434,-0.0666578,0.0686914,0.0246,0.588072,-0.0191077,0,0.000372514,0,0,0,0.0686971,-0.0172288,0.588071,-0.0191104,0.0418309,0.00036482,-9.49426e-06,1.19747e-05,-4.82027e-06
0.164255,0.013932,-1.1124,-0.0243119,2.21586,-0.0110128,0.6155,-0.0121013,0.0777416,-0.0504148,-0.134983,-0.0158196,-0.0627769,0.0641181,-0.066574,0.0686711,0.0246,0.588072,-0.0192316,0,0.000379812,0,0,0,0.068678,-0.017187,0.588071,-0.0192353,0.0417892,0.000371643,-1.01109e-05,1.26529e-05,-5.12214e-06
0.165255,0.0140096,-1.11245,-0.0244468,2.21585,-0.0110755,0.615565,-0.0121678,0.0776498,-0.0507159,-0.134817,-0.0159713,-0.0627236,0.0645606,-0.0664871,0.0686518,0.0246,0.588073,-0.0193486,0,0.000386793,0,0,0,0.0686576,-0.0171427,0.588072,-0.0193514,0.0417448,0.000379114,-9.60127e-06,1.19267e-05,-4.85353e-06
0.167119,0.0141542,-1.11255,-0.0246977,2.21582,-0.0111923,0.615687,-0.0122916,0.0775634,-0.0513233,-0.13465,-0.016251,-0.0626848,0.0654381,-0.0663918,0.0686155,0.0246,0.588073,-0.0195666,0,0.000400025,0,0,0,0.0686383,-0.017101,0.588072,-0.0195837,0.0417049,0.000385271,-1.80936e-05,2.21744e-05,-9.11662e-06
0.168635,0.0142716,-1.11263,-0.0249015,2.21579,-0.0112873,0.615787,-0.012392,0.0774015,-0.0517663,-0.13436,-0.0164832,-0.0625881,0.0660954,-0.0662426,0.0685857,0.0246,0.588074,-0.019744,0,0.000411015,0,0,0,0.0686018,-0.0170233,0.588073,-0.0197556,0.0416265,0.00039913,-1.48336e-05,1.79797e-05,-7.44858e-06
0.170139,0.0143878,-1.11271,-0.0251032,2.21577,-0.0113813,0.615887,-0.0124915,0.07727,-0.0522212,-0.134121,-0.0167128,-0.0625129,0.0667655,-0.0661175,0.0685559,0.0246,0.588075,-0.0199199,0,0.000422107,0,0,0,0.0685718,-0.0169601,0.588074,-0.0199314,0.0415634,0.000410347,-1.4819e-05,1.77691e-05,-7.41799e-06
0.171498,0.0144926,-1.11278,-0.0252851,2.21574,-0.0114661,0.615979,-0.0125811,0.0771395,-0.0526251,-0.133886,-0.0169212,-0.0624368,0.0673636,-0.0659955,0.0685287,0.0246,0.588075,-0.0200789,0,0.000432299,0,0,0,0.0685418,-0.0168976,0.588074,-0.020088,0.0415006,0.000421741,-1.34788e-05,1.6006e-05,-6.72747e-06
0.173026,0.0146103,-1.11286,-0.0254893,2.21572,-0.0115614,0.616083,-0.0126818,0.0770217,-0.0530958,-0.13367,-0.0171552,-0.0623718,0.0680555,-0.0658811,0.0684979,0.0246,0.588076,-0.0202576,0,0.000443957,0,0,0,0.0685145,-0.0168412,0.588075,-0.0202698,0.0414446,0.000432031,-1.52812e-05,1.79517e-05,-7.60397e-06
0.174154,0.0146971,-1.11292,-0.0256399,2.2157,-0.0116317,0.61616,-0.012756,0.0768892,-0.0534163,-0.133434,-0.0173298,-0.0622915,0.0685363,-0.065761,0.068475,0.0246,0.588076,-0.0203896,0,0.0004527,0,0,0,0.0684836,-0.0167779,0.588075,-0.0203949,0.0413804,0.000444042,-1.13396e-05,1.32155e-05,-5.62793e-06
0.175542,0.0148036,-1.11299,-0.0258248,2.21567,-0.0117181,0.616256,-0.0128471,0.0767914,-0.0538484,-0.133253,-0.0175431,-0.0622392,0.0691712,-0.0656645,0.0684466,0.0246,0.588077,-0.0205519,0,0.000463603,0,0,0,0.0684605,-0.0167312,0.588076,-0.0205618,0.0413343,0.000452852,-1.40428e-05,1.62088e-05,-6.95103e-06
0.177181,0.0149293,-1.11308,-0.0260429,2.21564,-0.01182,0.616371,-0.0129546,0.0766711,-0.054356,-0.133032,-0.0177961,-0.062174,0.0699189,-0.0655469,0.0684127,0.0246,0.588078,-0.0207436,0,0.000476712,0,0,0,0.068432,-0.0166739,0.588077,-0.0207582,0.0412776,0.000463928,-1.67359e-05,1.91e-05,-8.2578e-06
0.178493,0.0150297,-1.11315,-0.0262171,2.21562,-0.0119014,0.616463,-0.0130404,0.076529,-0.054734,-0.132778,-0.0180001,-0.0620894,0.0704859,-0.0654172,0.0683854,0.0246,0.588078,-0.020897,0,0.000487379,0,0,0,0.068398,-0.0166062,0.588077,-0.0209058,0.0412092,0.000477268,-1.34686e-05,1.52328e-05,-6.62633e-06
0.179612,0.0151152,-1.11322,-0.0263654,2.2156,-0.0119708,0.616543,-0.0131135,0.0764153,-0.0550606,-0.132574,-0.0181743,-0.0620226,0.0709746,-0.0653125,0.068362,0.0246,0.588079,-0.0210279,0,0.0004966,0,0,0,0.0683705,-0.0165521,0.588078,-0.0210333,0.0411547,0.000488063,-1.15431e-05,1.29555e-05,-5.66532e-06
0.180614,0.0151917,-1.11327,-0.0264981,2.21558,-0.012033,0.616614,-0.0131788,0.0763184,-0.055356,-0.132399,-0.0183305,-0.0619663,0.071416,-0.0652226,0.0683408,0.0246,0.58808,-0.0211451,0,0.000504961,0,0,0,0.068347,-0.0165061,0.588079,-0.0211484,0.0411084,0.000497372,-1.039e-05,1.1582e-05,-5.08854e-06
0.181998,0.0152972,-1.11335,-0.0266811,2.21556,-0.0121187,0.616714,-0.013269,0.0762315,-0.0557924,-0.132238,-0.018546,-0.0619219,0.0720587,-0.0651351,0.0683115,0.0246,0.58808,-0.0213069,0,0.000516656,0,0,0,0.0683258,-0.0164649,0.588079,-0.0213174,0.0410681,0.000505995,-1.44471e-05,1.59558e-05,-7.0576e-06
0.185025,0.0155275,-1.11352,-0.0270807,2.2155,-0.0123059,0.616936,-0.0134657,0.0761111,-0.0567905,-0.132001,-0.0190187,-0.0618745,0.0735171,-0.0649982,0.0682464,0.0246,0.588082,-0.0216608,0,0.00054286,0,0,0,0.0682963,-0.0164081,0.58808,-0.0217023,0.0410153,0.000518925,-3.2146e-05,3.48006e-05,-1.56258e-05
0.186476,0.0156377,-1.1136,-0.0272716,2.21547,-0.0123955,0.617044,-0.0135598,0.0758491,-0.0571385,-0.131544,-0.0192485,-0.0617069,0.0740678,-0.064774,0.0682149,0.0246,0.588083,-0.0218306,0,0.000555736,0,0,0,0.0682306,-0.0162839,0.588081,-0.0218423,0.0408874,0.000544564,-1.54713e-05,1.65862e-05,-7.48998e-06
0.187493,0.0157146,-1.11366,-0.0274051,2.21545,-0.0124582,0.61712,-0.0136255,0.0757235,-0.0574187,-0.131321,-0.0194092,-0.0616307,0.0744958,-0.0646622,0.0681926,0.0246,0.588083,-0.0219494,0,0.000564875,0,0,0,0.0681989,-0.0162246,0.588082,-0.021953,0.040827,0.000557206,-1.08766e-05,1.15823e-05,-5.25317e-06
0.188736,0.0158087,-1.11373,-0.0275682,2.21543,-0.0125347,0.617213,-0.0137058,0.0756354,-0.0578033,-0.131159,-0.0196056,-0.0615839,0.0750677,-0.0645762,0.0681652,0.0246,0.588084,-0.0220948,0,0.000576183,0,0,0,0.0681766,-0.0161831,0.588083,-0.0221027,0.0407861,0.000566707,-1.33762e-05,1.41295e-05,-6.44527e-06
0.189822,0.0158907,-1.1138,-0.0277104,2.2154,-0.0126015,0.617295,-0.0137758,0.0755279,-0.0581189,-0.130965,-0.0197777,-0.0615214,0.0755445,-0.0644775,0.0681412,0.0246,0.588085,-0.0222217,0,0.000586181,0,0,0,0.0681491,-0.0161324,0.588083,-0.0222267,0.040735,0.000577975,-1.17349e-05,1.23086e-05,-5.64142e-06
0.190902,0.0159721,-1.11386,-0.0278516,2.21538,-0.0126679,0.617377,-0.0138453,0.0754339,-0.058441,-0.130795,-0.0199492,-0.0614686,0.0760286,-0.0643895,0.0681171,0.0246,0.588085,-0.0223479,0,0.000596241,0,0,0,0.068125,-0.0160881,0.588084,-0.0223529,0.0406908,0.000588087,-1.17286e-05,1.22166e-05,-5.62611e-06
0.191902,0.0160475,-1.11392,-0.0279822,2.21536,-0.0127293,0.617454,-0.0139096,0.0753405,-0.0587349,-0.130627,-0.0201084,-0.0614151,0.0764723,-0.0643031,0.0680947,0.0246,0.588086,-0.0224648,0,0.000605659,0,0,0,0.0681008,-0.0160442,0.588085,-0.0224683,0.0406467,0.00059815,-1.09076e-05,1.12886e-05,-5.22145e-06
0.192904,0.0161228,-1.11398,-0.0281129,2.21534,-0.0127908,0.617531,-0.0139739,0.075254,-0.0590337,-0.13047,-0.0202681,-0.0613665,0.0769221,-0.0642221,0.0680721,0.0246,0.588086,-0.0225819,0,0.000615192,0,0,0,0.0680784,-0.0160035,0.588085,-0.0225855,0.040606,0.000607675,-1.09726e-05,1.12833e-05,-5.24195e-06
0.19394,0.0162008,-1.11404,-0.0282481,2.21532,-0.0128544,0.617611,-0.0140404,0.0751673,-0.0593448,-0.130313,-0.0204338,-0.0613183,0.0773901,-0.0641405,0.0680487,0.0246,0.588087,-0.0227031,0,0.000625164,0,0,0,0.0680557,-0.0159629,0.588086,-0.0227074,0.0405655,0.000617372,-1.14096e-05,1.16557e-05,-5.43951e-06
0.194941,0.0162759,-1.1141,-0.0283782,2.2153,-0.0129156,0.617689,-0.0141045,0.0750776,-0.0596404,-0.130151,-0.0205939,-0.0612676,0.077837,-0.0640572,0.0680259,0.0246,0.588088,-0.02282,0,0.000634884,0,0,0,0.0680322,-0.0159208,0.588087,-0.0228237,0.0405233,0.000627391,-1.10509e-05,1.1218e-05,-5.25776e-06
0.196058,0.0163597,-1.11417,-0.0285235,2.21528,-0.0129841,0.617776,-0.014176,0.074991,-0.0599798,-0.129993,-0.0207733,-0.0612205,0.0783472,-0.0639747,0.0680003,0.0246,0.588088,-0.0229506,0,0.000645864,0,0,0,0.0680094,-0.0158803,0.588087,-0.0229567,0.0404831,0.000637442,-1.24107e-05,1.25102e-05,-5.89194e-06
0.197058,0.0164346,-1.11423,-0.0286533,2.21526,-0.0130452,0.617855,-0.0142399,0.0748944,-0.0602702,-0.129819,-0.020934,-0.061165,0.0787887,-0.0638862,0.0679773,0.0246,0.588089,-0.0230675,0,0.000655796,0,0,0,0.0679837,-0.015835,0.588088,-0.0230713,0.0404376,0.000648315,-1.115e-05,1.11691e-05,-5.28235e-06
0.198366,0.0165324,-1.11431,-0.0288228,2.21523,-0.0131251,0.617959,-0.0143233,0.0748077,-0.0606768,-0.129659,-0.0211451,-0.0611203,0.0793979,-0.063801,0.0679471,0.0246,0.58809,-0.0232203,0,0.000668934,0,0,0,0.0679606,-0.0157946,0.588089,-0.0232305,0.040398,0.000659017,-1.46648e-05,1.45711e-05,-6.93069e-06
0.200903,0.0167219,-1.11446,-0.0291513,2.21517,-0.0132801,0.618164,-0.0144849,0.0746935,-0.0615036,-0.129439,-0.0215574,-0.0610721,0.080626,-0.0636777,0.0678878,0.0246,0.588092,-0.0235168,0,0.000694929,0,0,0,0.0679303,-0.0157418,0.588089,-0.0235528,0.0403484,0.000675239,-2.88321e-05,2.82064e-05,-1.35685e-05
0.202148,0.0168146,-1.11454,-0.0293119,2.21515,-0.0133559,0.618264,-0.0145639,0.0744751,-0.0617936,-0.129057,-0.0217576,-0.0609336,0.0810949,-0.0634923,0.0678584,0.0246,0.588092,-0.0236622,0,0.00070792,0,0,0,0.0678705,-0.0156394,0.588091,-0.0236712,0.0402427,0.000698522,-1.41739e-05,1.3759e-05,-6.64754e-06
0.203148,0.016889,-1.1146,-0.0294408,2.21513,-0.0134168,0.618346,-0.0146273,0.0743678,-0.0620746,-0.128866,-0.0219201,-0.0608706,0.0815279,-0.0633959,0.0678347,0.0246,0.588093,-0.0237791,0,0.000718477,0,0,0,0.067841,-0.0155893,0.588092,-0.0237829,0.040192,0.000711017,-1.14316e-05,1.10293e-05,-5.3497e-06
0.204194,0.0169667,-1.11467,-0.0295754,2.2151,-0.0134804,0.618432,-0.0146935,0.0742813,-0.0623867,-0.128709,-0.0220908,-0.060823,0.0820025,-0.0633149,0.0678097,0.0246,0.588094,-0.0239013,0,0.000729631,0,0,0,0.0678172,-0.0155491,0.588093,-0.0239062,0.0401519,0.000721813,-1.20086e-05,1.15127e-05,-5.60807e-06
0.205426,0.0170581,-1.11474,-0.0297338,2.21507,-0.0135553,0.618534,-0.0147715,0.0741907,-0.0627623,-0.128543,-0.0222928,-0.0607749,0.0825714,-0.0632283,0.0677802,0.0246,0.588095,-0.0240453,0,0.000742918,0,0,0,0.0677922,-0.0155071,0.588094,-0.0240542,0.0401104,0.000733637,-1.42208e-05,1.35328e-05,-6.62552e-06
0.206665,0.0171499,-1.11482,-0.0298928,2.21505,-0.0136305,0.618636,-0.0148497,0.0740842,-0.0631283,-0.12835,-0.022496,-0.0607157,0.0831305,-0.0631295,0.0677503,0.0246,0.588096,-0.02419,0,0.000756437,0,0,0,0.0677626,-0.0154577,0.588094,-0.0241992,0.040061,0.000747112,-1.43658e-05,1.35695e-05,-6.6764e-06
0.208206,0.0172639,-1.11492,-0.0300904,2.21501,-0.013724,0.618766,-0.0149468,0.0739768,-0.0636018,-0.128152,-0.0227503,-0.0606598,0.0838481,-0.0630259,0.0677129,0.0246,0.588097,-0.0243701,0,0.000773485,0,0,0,0.0677326,-0.0154081,0.588095,-0.024386,0.0400123,0.000761785,-1.79936e-05,1.68411e-05,-8.33814e-06
0.209228,0.0173394,-1.11498,-0.0302211,2.21499,-0.013786,0.618852,-0.0150111,0.0738443,-0.0638699,-0.127918,-0.0229175,-0.0605794,0.0842708,-0.0629103,0.0676879,0.0246,0.588098,-0.0244895,0,0.000784929,0,0,0,0.067695,-0.0153464,0.588097,-0.024494,0.0399492,0.000777322,-1.19649e-05,1.11303e-05,-5.53104e-06
0.210228,0.0174131,-1.11505,-0.0303489,2.21497,-0.0138465,0.618937,-0.0150739,0.0737561,-0.0641627,-0.127759,-0.0230827,-0.0605301,0.0847207,-0.062829,0.0676634,0.0246,0.588099,-0.0246063,0,0.000796236,0,0,0,0.06767,-0.0153056,0.588097,-0.0246104,0.0399083,0.000788805,-1.1753e-05,1.08687e-05,-5.42201e-06
0.211229,0.0174868,-1.11511,-0.0304765,2.21494,-0.013907,0.619022,-0.0151367,0.0736698,-0.0644567,-0.127603,-0.0232484,-0.0604821,0.0851723,-0.0627492,0.0676387,0.0246,0.588099,-0.0247231,0,0.000807651,0,0,0,0.0676454,-0.0152657,0.588098,-0.0247273,0.0398684,0.000800225,-1.17979e-05,1.08462e-05,-5.4317e-06
0.212258,0.0175626,-1.11518,-0.0306076,2.21492,-0.0139692,0.61911,-0.0152012,0.0735834,-0.0647609,-0.127446,-0.0234193,-0.0604345,0.0856394,-0.062669,0.0676132,0.0246,0.5881,-0.0248433,0,0.000819511,0,0,0,0.0676206,-0.0152258,0.588099,-0.0248482,0.0398286,0.000811862,-1.21893e-05,1.11387e-05,-5.60032e-06
0.213258,0.0176361,-1.11524,-0.030735,2.21489,-0.0140296,0.619196,-0.0152638,0.0734946,-0.0650528,-0.127286,-0.0235857,-0.0603849,0.0860894,-0.0625874,0.0675883,0.0246,0.588101,-0.0249601,0,0.000831154,0,0,0,0.0675951,-0.0151848,0.5881,-0.0249645,0.0397876,0.000823732,-1.18958e-05,1.08071e-05,-5.45425e-06
0.214614,0.0177356,-1.11533,-0.0309074,2.21486,-0.0141114,0.619314,-0.0153486,0.0734078,-0.0654734,-0.127125,-0.023813,-0.0603413,0.0867294,-0.0625026,0.0675543,0.0246,0.588102,-0.0251185,0,0.000847102,0,0,0,0.0675701,-0.015145,0.588101,-0.025131,0.0397488,0.000836908,-1.62092e-05,1.46109e-05,-7.41335e-06
0.216476,0.0178721,-1.11546,-0.0311437,2.21482,-0.0142237,0.619477,-0.0154647,0.07329,-0.0660521,-0.126906,-0.0241267,-0.0602825,0.0876109,-0.0623873,0.0675074,0.0246,0.588104,-0.0253359,0,0.000869339,0,0,0,0.067536,-0.0150911,0.588102,-0.0253602,0.0396964,0.000855191,-2.24416e-05,2.00138e-05,-1.02286e-05
0.218246,0.0180015,-1.11557,-0.0313678,2.21477,-0.0143302,0.619633,-0.0155749,0.0731294,-0.0665636,-0.126617,-0.0244238,-0.0601924,0.088405,-0.0622407,0.0674623,0.0246,0.588105,-0.0255426,0,0.000890834,0,0,0,0.0674888,-0.0150172,0.588103,-0.0255649,0.0396223,0.00087742,-2.14657e-05,1.89504e-05,-9.74788e-06
0.219247,0.0180745,-1.11564,-0.0314942,2.21475,-0.0143903,0.619722,-0.015637,0.0729779,-0.0668043,-0.126351,-0.0245892,-0.0600986,0.0887972,-0.0621116,0.0674367,0.0246,0.588106,-0.0256593,0,0.000903133,0,0,0,0.0674435,-0.0149471,0.588105,-0.0256638,0.0395499,0.000895729,-1.21529e-05,1.06671e-05,-5.50455e-06
0.220249,0.0181476,-1.11571,-0.0316207,2.21472,-0.0144505,0.619812,-0.0156992,0.0728917,-0.0670969,-0.126195,-0.0247586,-0.0600509,0.0892514,-0.0620324,0.0674109,0.0246,0.588107,-0.0257764,0,0.000915576,0,0,0,0.0674178,-0.0149075,0.588106,-0.025781,0.0395104,0.000908156,-1.22273e-05,1.06716e-05,-5.52689e-06
0.221249,0.0182204,-1.11578,-0.0317468,2.2147,-0.0145105,0.619901,-0.0157612,0.0728053,-0.0673883,-0.126039,-0.0249279,-0.0600031,0.0897044,-0.0619531,0.0673851,0.0246,0.588108,-0.0258931,0,0.000928103,0,0,0,0.067392,-0.0148679,0.588107,-0.0258978,0.0394708,0.000920705,-1.22415e-05,1.06239e-05,-5.52199e-06
0.222286,0.0182958,-1.11585,-0.0318772,2.21467,-0.0145727,0.619995,-0.0158253,0.072719,-0.0676925,-0.125883,-0.0251039,-0.0599559,0.0901769,-0.0618735,0.0673582,0.0246,0.588109,-0.0260141,0,0.0009412,0,0,0,0.0673661,-0.0148284,0.588108,-0.0260196,0.0394314,0.000933527,-1.27297e-05,1.09834e-05,-5.73015e-06
0.223286,0.0183684,-1.11591,-0.0320029,2.21465,-0.0146326,0.620085,-0.0158871,0.0726298,-0.0679811,-0.125722,-0.0252738,-0.0599062,0.0906274,-0.0617921,0.0673321,0.0246,0.58811,-0.0261308,0,0.000953957,0,0,0,0.0673391,-0.0147876,0.588109,-0.0261356,0.0393905,0.000946568,-1.23286e-05,1.05779e-05,-5.53807e-06
0.224302,0.0184422,-1.11598,-0.0321306,2.21462,-0.0146934,0.620178,-0.0159499,0.0725436,-0.0682778,-0.125566,-0.0254471,-0.0598588,0.0910898,-0.0617129,0.0673055,0.0246,0.588111,-0.0262495,0,0.000967045,0,0,0,0.067313,-0.0147482,0.58811,-0.0262547,0.0393512,0.00095953,-1.25796e-05,1.07322e-05,-5.63904e-06
0.225303,0.0185147,-1.11605,-0.032256,2.2146,-0.0147533,0.62027,-0.0160115,0.0724561,-0.0685672,-0.125408,-0.0256179,-0.0598103,0.0915422,-0.061633,0.0672792,0.0246,0.588112,-0.0263662,0,0.000980036,0,0,0,0.0672863,-0.0147081,0.588111,-0.0263711,0.0393111,0.000972652,-1.24168e-05,1.05347e-05,-5.55456e-06
0.226303,0.018587,-1.11612,-0.0323813,2.21457,-0.014813,0.620362,-0.0160731,0.07237,-0.0688574,-0.125252,-0.0257891,-0.0597628,0.0919961,-0.0615541,0.0672528,0.0246,0.588113,-0.0264829,0,0.000993141,0,0,0,0.0672599,-0.0146688,0.588112,-0.0264879,0.0392718,0.000985761,-1.24585e-05,1.05117e-05,-5.56171e-06
0.227303,0.0186593,-1.11619,-0.0325064,2.21454,-0.0148728,0.620454,-0.0161345,0.0722839,-0.0691473,-0.125096,-0.0259607,-0.0597153,0.0924501,-0.0614754,0.0672262,0.0246,0.588114,-0.0265996,0,0.00100636,0,0,0,0.0672334,-0.0146296,0.588113,-0.0266047,0.0392326,0.000998986,-1.25013e-05,1.04898e-05,-5.56927e-06
0.228303,0.0187315,-1.11626,-0.0326314,2.21452,-0.0149324,0.620547,-0.0161959,0.0721978,-0.069437,-0.12494,-0.0261327,-0.0596679,0.0929043,-0.0613967,0.0671996,0.0246,0.588115,-0.0267163,0,0.0010197,0,0,0,0.0672068,-0.0145903,0.588114,-0.0267214,0.0391933,0.00101233,-1.2544e-05,1.0468e-05,-5.57671e-06
0.229582,0.0188237,-1.11635,-0.0327909,2.21449,-0.0150087,0.620667,-0.0162744,0.0721111,-0.0698267,-0.124781,-0.0263548,-0.0596238,0.0935086,-0.0613139,0.0671653,0.0246,0.588116,-0.0268656,0,0.00103693,0,0,0,0.0671801,-0.0145511,0.588115,-0.0268776,0.039155,0.00102741,-1.61196e-05,1.33586e-05,-7.14873e-06
0.231238,0.018943,-1.11647,-0.0329973,2.21444,-0.0151074,0.620823,-0.0163758,0.0720003,-0.0703322,-0.124576,-0.0266437,-0.0595677,0.0942935,-0.0612079,0.0671206,0.0246,0.588118,-0.0270588,0,0.00105953,0,0,0,0.0671457,-0.0145011,0.588116,-0.0270804,0.0391061,0.0010471,-2.10139e-05,1.72592e-05,-9.28966e-06
0.232301,0.0190194,-1.11654,-0.0331294,2.21441,-0.0151706,0.620923,-0.0164407,0.0718589,-0.0705965,-0.124327,-0.0268245,-0.0594821,0.0947263,-0.0610866,0.0670918,0.0246,0.588119,-0.0271828,0,0.0010742,0,0,0,0.0671009,-0.0144363,0.588118,-0.0271896,0.0390395,0.00106635,-1.35081e-05,1.10303e-05,-5.95582e-06
0.233301,0.0190912,-1.11661,-0.0332536,2.21439,-0.01523,0.621019,-0.0165017,0.0717677,-0.0708804,-0.124163,-0.026998,-0.0594311,0.0951759,-0.0610043,0.0670646,0.0246,0.58812,-0.0272994,0,0.00108813,0,0,0,0.067072,-0.0143948,0.588119,-0.0273047,0.0389979,0.00108076,-1.27565e-05,1.03605e-05,-5.61241e-06
0.234362,0.0191672,-1.11669,-0.0333851,2.21436,-0.015293,0.62112,-0.0165663,0.0716815,-0.0711901,-0.124006,-0.0271833,-0.0593845,0.0956636,-0.0609251,0.0670356,0.0246,0.588121,-0.0274231,0,0.00110302,0,0,0,0.0670447,-0.0143558,0.58812,-0.02743,0.0389591,0.0010952,-1.35717e-05,1.09602e-05,-5.9581e-06
0.235364,0.0192389,-1.11676,-0.0335092,2.21433,-0.0153524,0.621216,-0.0166273,0.0715905,-0.0714743,-0.123842,-0.027358,-0.0593338,0.0961149,-0.060843,0.067008,0.0246,0.588122,-0.02754,0,0.00111723,0,0,0,0.0670156,-0.0143145,0.588121,-0.0275455,0.0389176,0.00110986,-1.28698e-05,1.03378e-05,-5.63781e-06
0.236395,0.0193127,-1.11683,-0.0336368,2.2143,-0.0154136,0.621316,-0.0166899,0.0715043,-0.071773,-0.123686,-0.0275389,-0.0592868,0.0965872,-0.0607642,0.0669795,0.0246,0.588124,-0.0276603,0,0.00113198,0,0,0,0.066988,-0.0142755,0.588122,-0.0276666,0.0388787,0.00112439,-1.32911e-05,1.06177e-05,-5.80986e-06
0.237403,0.0193846,-1.1169,-0.0337613,2.21427,-0.0154733,0.621414,-0.0167511,0.0714157,-0.0720606,-0.123526,-0.0277157,-0.0592378,0.0970441,-0.060684,0.0669516,0.0246,0.588125,-0.0277778,0,0.00114651,0,0,0,0.0669594,-0.0142354,0.588123,-0.0277836,0.0388385,0.0011391,-1.30233e-05,1.03484e-05,-5.68064e-06
0.23845,0.0194593,-1.11698,-0.0338905,2.21424,-0.0155353,0.621516,-0.0168146,0.0713291,-0.072364,-0.123369,-0.0279003,-0.0591908,0.0975248,-0.0606047,0.0669224,0.0246,0.588126,-0.0278999,0,0.00116175,0,0,0,0.0669314,-0.0141962,0.588125,-0.0279068,0.0387995,0.00115404,-1.35829e-05,1.07335e-05,-5.91179e-06
0.239451,0.0195306,-1.11705,-0.0340138,2.21422,-0.0155945,0.621614,-0.0168751,0.0712392,-0.0726472,-0.123207,-0.0280764,-0.0591408,0.0979767,-0.0605238,0.0668945,0.0246,0.588127,-0.0280166,0,0.00117642,0,0,0,0.0669022,-0.0141556,0.588126,-0.0280223,0.0387588,0.00116907,-1.30147e-05,1.02304e-05,-5.65227e-06
0.240482,0.019604,-1.11713,-0.0341406,2.21419,-0.0156554,0.621715,-0.0169374,0.0711532,-0.0729447,-0.123051,-0.028259,-0.0590941,0.0984496,-0.0604454,0.0668655,0.0246,0.588128,-0.0281368,0,0.00119168,0,0,0,0.0668742,-0.0141168,0.588127,-0.0281434,0.0387201,0.0011841,-1.34586e-05,1.05224e-05,-5.83241e-06
0.241482,0.0196751,-1.1172,-0.0342635,2.21416,-0.0157144,0.621814,-0.0169978,0.0710648,-0.0732285,-0.122892,-0.028436,-0.0590452,0.0989032,-0.0603655,0.0668373,0.0246,0.58813,-0.0282534,0,0.00120661,0,0,0,0.0668451,-0.0140769,0.588128,-0.0282592,0.0386801,0.00119926,-1.30954e-05,1.01851e-05,-5.66282e-06
0.242504,0.0197476,-1.11728,-0.034389,2.21413,-0.0157747,0.621916,-0.0170594,0.0709789,-0.0735222,-0.122736,-0.0286178,-0.0589984,0.0993716,-0.0602874,0.0668084,0.0246,0.588131,-0.0283726,0,0.00122199,0,0,0,0.0668169,-0.0140382,0.588129,-0.028379,0.0386415,0.00121448,-1.34267e-05,1.03874e-05,-5.79353e-06
0.243504,0.0198185,-1.11735,-0.0345116,2.2141,-0.0158337,0.622016,-0.0171197,0.0708912,-0.073806,-0.122578,-0.0287957,-0.05895,0.0998262,-0.0602083,0.06678,0.0246,0.588132,-0.0284891,0,0.00123716,0,0,0,0.0667879,-0.0139987,0.588131,-0.0284951,0.038602,0.00122983,-1.31779e-05,1.01421e-05,-5.67391e-06
0.244505,0.0198893,-1.11742,-0.034634,2.21407,-0.0158926,0.622116,-0.0171798,0.0708054,-0.0740912,-0.122423,-0.0289742,-0.058903,0.100283,-0.0601306,0.0667514,0.0246,0.588133,-0.0286057,0,0.00125246,0,0,0,0.0667594,-0.0139601,0.588132,-0.0286117,0.0385634,0.00124513,-1.32171e-05,1.01199e-05,-5.67863e-06
0.245541,0.0199626,-1.1175,-0.0347607,2.21404,-0.0159536,0.62222,-0.017242,0.0707195,-0.0743891,-0.122267,-0.0291599,-0.0588564,0.10076,-0.0600525,0.0667217,0.0246,0.588135,-0.0287265,0,0.00126845,0,0,0,0.0667307,-0.0139215,0.588133,-0.0287335,0.0385249,0.00126084,-1.37373e-05,1.04623e-05,-5.88915e-06
0.247296,0.0200866,-1.11763,-0.0349751,2.21399,-0.0160569,0.622399,-0.0173473,0.0706287,-0.0749435,-0.122095,-0.0294811,-0.0588162,0.101628,-0.0599614,0.0666711,0.0246,0.588137,-0.028931,0,0.00129584,0,0,0,0.066701,-0.0138816,0.588134,-0.0289576,0.0384874,0.00128277,-2.34358e-05,1.769e-05,-1.00141e-05
0.248302,0.0201575,-1.11771,-0.0350977,2.21396,-0.0161159,0.622502,-0.0174075,0.0704801,-0.0751717,-0.121834,-0.0296559,-0.058725,0.102019,-0.0598366,0.0666419,0.0246,0.588138,-0.0290483,0,0.00131171,0,0,0,0.0666501,-0.0138141,0.588137,-0.0290546,0.0384174,0.00130433,-1.34517e-05,1.01011e-05,-5.73229e-06
0.24934,0.0202305,-1.11779,-0.0352239,2.21393,-0.0161768,0.622608,-0.0174695,0.0703938,-0.0754684,-0.121678,-0.0298434,-0.0586782,0.102496,-0.0597582,0.0666117,0.0246,0.58814,-0.0291691,0,0.00132821,0,0,0,0.0666209,-0.0137754,0.588138,-0.0291764,0.0383789,0.0013206,-1.391e-05,1.03904e-05,-5.9144e-06
0.25044,0.0203079,-1.11787,-0.0353576,2.2139,-0.0162413,0.622721,-0.0175351,0.0703047,-0.0757852,-0.121516,-0.0300432,-0.0586303,0.103006,-0.0596771,0.0665796,0.0246,0.588141,-0.0292973,0,0.00134587,0,0,0,0.0665906,-0.0137356,0.588139,-0.0293064,0.0383393,0.00133778,-1.48091e-05,1.10007e-05,-6.28191e-06
0.251523,0.0203839,-1.11795,-0.035489,2.21386,-0.0163047,0.622833,-0.0175997,0.0702105,-0.0760902,-0.121346,-0.0302394,-0.0585786,0.1035,-0.0595924,0.0665478,0.0246,0.588142,-0.0294234,0,0.00136339,0,0,0,0.0665584,-0.0136934,0.588141,-0.029432,0.038297,0.00135544,-1.46129e-05,1.07958e-05,-6.18395e-06
0.252523,0.020454,-1.11803,-0.0356102,2.21383,-0.0163633,0.622937,-0.0176592,0.070118,-0.0763666,-0.121179,-0.0304206,-0.058527,0.10395,-0.0595101,0.0665183,0.0246,0.588144,-0.0295399,0,0.00137971,0,0,0,0.0665265,-0.013652,0.588142,-0.0295463,0.0382553,0.00137238,-1.35392e-05,9.95236e-06,-5.71669e-06
0.253523,0.0205241,-1.11811,-0.0357312,2.2138,-0.0164218,0.623042,-0.0177186,0.0700324,-0.0766491,-0.121025,-0.030603,-0.0584802,0.104408,-0.059433,0.0664887,0.0246,0.588145,-0.0296564,0,0.00139616,0,0,0,0.066497,-0.0136137,0.588144,-0.0296629,0.0382171,0.00138883,-1.35773e-05,9.93051e-06,-5.7202e-06
0.254523,0.020594,-1.11818,-0.0358521,2.21377,-0.0164802,0.623147,-0.017778,0.0699468,-0.0769314,-0.12087,-0.0307858,-0.0584334,0.104866,-0.0593559,0.066459,0.0246,0.588147,-0.0297729,0,0.00141274,0,0,0,0.0664673,-0.0135755,0.588145,-0.0297794,0.0381789,0.00140541,-1.36179e-05,9.9107e-06,-5.72472e-06
0.255523,0.0206639,-1.11826,-0.0359728,2.21374,-0.0165386,0.623252,-0.0178373,0.0698612,-0.0772133,-0.120715,-0.030969,-0.0583866,0.105325,-0.0592789,0.0664291,0.0246,0.588148,-0.0298893,0,0.00142945,0,0,0,0.0664375,-0.0135373,0.588146,-0.0298959,0.0381407,0.00142213,-1.36557e-05,9.88894e-06,-5.72796e-06
0.256523,0.0207337,-1.11834,-0.0360934,2.21371,-0.016597,0.623358,-0.0178965,0.0697756,-0.0774948,-0.12056,-0.0311527,-0.0583399,0.105784,-0.059202,0.0663992,0.0246,0.588149,-0.0300058,0,0.00144629,0,0,0,0.0664076,-0.0134991,0.588148,-0.0300125,0.0381026,0.00143897,-1.36948e-05,9.86821e-06,-5.73164e-06
0.257523,0.0208034,-1.11842,-0.0362138,2.21368,-0.0166552,0.623464,-0.0179556,0.0696901,-0.0777761,-0.120405,-0.0313368,-0.0582932,0.106242,-0.0591251,0.0663691,0.0246,0.588151,-0.0301222,0,0.00146326,0,0,0,0.0663776,-0.013461,0.588149,-0.030129,0.0380645,0.00145594,-1.37337e-05,9.84752e-06,-5.73519e-06
0.258524,0.020873,-1.11849,-0.0363341,2.21365,-0.0167135,0.623571,-0.0180147,0.0696046,-0.0780571,-0.12025,-0.0315213,-0.0582466,0.106701,-0.0590483,0.0663389,0.0246,0.588152,-0.0302386,0,0.00148037,0,0,0,0.0663475,-0.013423,0.588151,-0.0302454,0.0380264,0.00147305,-1.37725e-05,9.82686e-06,-5.7386e-06
0.259524,0.0209425,-1.11857,-0.0364542,2.21361,-0.0167717,0.623678,-0.0180736,0.0695191,-0.0783378,-0.120096,-0.0317063,-0.0581999,0.10716,-0.0589716,0.0663086,0.0246,0.588154,-0.030355,0,0.00149761,0,0,0,0.0663172,-0.0133849,0.588152,-0.0303619,0.0379884,0.00149029,-1.38112e-05,9.80625e-06,-5.74188e-06
0.260704,0.0210245,-1.11866,-0.0365958,2.21358,-0.0168404,0.623805,-0.0181432,0.069433,-0.0786833,-0.119938,-0.0319272,-0.0581553,0.10772,-0.0588922,0.0662727,0.0246,0.588156,-0.0304924,0,0.00151813,0,0,0,0.0662869,-0.013347,0.588154,-0.0305046,0.0379511,0.00150946,-1.63637e-05,1.15519e-05,-6.78599e-06
0.262653,0.0211596,-1.11882,-0.0368291,2.21351,-0.0169536,0.624017,-0.0182577,0.0693296,-0.0792916,-0.119743,-0.0322983,-0.0581091,0.108692,-0.0587902,0.0662131,0.0246,0.588159,-0.0307192,0,0.00155241,0,0,0,0.0662508,-0.0133022,0.588156,-0.0307538,0.037909,0.001538,-2.72002e-05,1.90224e-05,-1.12369e-05
0.263687,0.0212311,-1.1189,-0.0369526,2.21348,-0.0170136,0.62413,-0.0183184,0.069166,-0.079505,-0.119456,-0.0324815,-0.0580078,0.109076,-0.0586548,0.0661812,0.0246,0.58816,-0.0308395,0,0.0015708,0,0,0,0.0661909,-0.0132283,0.588159,-0.0308475,0.0378319,0.00156323,-1.44453e-05,1.0051e-05,-5.94965e-06
0.265244,0.0213387,-1.11903,-0.0371383,2.21343,-0.0171038,0.624301,-0.0184096,0.069076,-0.0799826,-0.119288,-0.0327791,-0.0579657,0.109845,-0.0585679,0.0661331,0.0246,0.588163,-0.0310206,0,0.00159877,0,0,0,0.066159,-0.0131892,0.58816,-0.0310441,0.0377947,0.0015873,-2.18634e-05,1.50996e-05,-8.9767e-06
0.266549,0.0214286,-1.11913,-0.0372937,2.21339,-0.0171794,0.624445,-0.0184858,0.0689439,-0.080325,-0.119051,-0.0330218,-0.0578904,0.11042,-0.0584528,0.0660925,0.0246,0.588165,-0.0311724,0,0.00162247,0,0,0,0.0661107,-0.0131303,0.588163,-0.0311885,0.037735,0.00161288,-1.83817e-05,1.26156e-05,-7.52335e-06
0.267639,0.0215037,-1.11922,-0.0374233,2.21335,-0.0172424,0.624566,-0.0185495,0.0688333,-0.0806102,-0.118853,-0.033225,-0.0578273,0.1109,-0.0583565,0.0660585,0.0246,0.588167,-0.0312992,0,0.00164245,0,0,0,0.06607,-0.0130811,0.588165,-0.0313091,0.037685,0.00163445,-1.5398e-05,1.05128e-05,-6.28546e-06
0.268639,0.0215724,-1.1193,-0.037542,2.21332,-0.0173002,0.624677,-0.0186077,0.0687406,-0.0808804,-0.118686,-0.0334131,-0.0577756,0.111352,-0.0582748,0.0660271,0.0246,0.588168,-0.0314156,0,0.00166092,0,0,0,0.0660358,-0.01304,0.588167,-0.0314228,0.0376436,0.00165359,-1.41577e-05,9.62004e-06,-5.76552e-06
0.269639,0.0216411,-1.11938,-0.0376605,2.21328,-0.0173579,0.624789,-0.018666,0.0686553,-0.0811578,-0.118532,-0.0336027,-0.0577291,0.111813,-0.0581987,0.0659956,0.0246,0.58817,-0.0315318,0,0.00167953,0,0,0,0.0660044,-0.0130024,0.588168,-0.0315391,0.037606,0.0016722,-1.41951e-05,9.5998e-06,-5.76745e-06
0.270639,0.0217097,-1.11946,-0.0377789,2.21325,-0.0174156,0.624901,-0.0187241,0.0685701,-0.0814349,-0.118377,-0.0337927,-0.0576827,0.112274,-0.0581226,0.065964,0.0246,0.588172,-0.0316481,0,0.00169827,0,0,0,0.0659729,-0.0129647,0.58817,-0.0316555,0.0375684,0.00169095,-1.42324e-05,9.5796e-06,-5.76925e-06
0.271639,0.0217782,-1.11954,-0.0378972,2.21321,-0.0174733,0.625014,-0.0187821,0.0684848,-0.0817116,-0.118223,-0.0339832,-0.0576363,0.112735,-0.0580466,0.0659323,0.0246,0.588173,-0.0317644,0,0.00171716,0,0,0,0.0659412,-0.0129272,0.588172,-0.0317718,0.0375308,0.00170983,-1.42695e-05,9.55944e-06,-5.77091e-06
0.272639,0.0218466,-1.11963,-0.0380152,2.21318,-0.0175309,0.625127,-0.0188401,0.0683996,-0.0819881,-0.118068,-0.0341742,-0.0575899,0.113196,-0.0579706,0.0659005,0.0246,0.588175,-0.0318807,0,0.00173618,0,0,0,0.0659094,-0.0128896,0.588173,-0.0318881,0.0374933,0.00172886,-1.43066e-05,9.53932e-06,-5.77243e-06
0.27364,0.0219149,-1.11971,-0.0381332,2.21315,-0.0175884,0.625241,-0.018898,0.0683145,-0.0822642,-0.117914,-0.0343657,-0.0575436,0.113657,-0.0578948,0.0658685,0.0246,0.588177,-0.0319969,0,0.00175535,0,0,0,0.0658775,-0.0128521,0.588175,-0.0320045,0.0374558,0.00174802,-1.43435e-05,9.51923e-06,-5.77383e-06
0.27464,0.0219831,-1.11979,-0.0382509,2.21311,-0.0176459,0.625355,-0.0189558,0.0682293,-0.0825399,-0.11776,-0.0345577,-0.0574972,0.114119,-0.0578189,0.0658365,0.0246,0.588179,-0.0321131,0,0.00177465,0,0,0,0.0658455,-0.0128147,0.588177,-0.0321208,0.0374184,0.00176732,-1.43802e-05,9.49918e-06,-5.77509e-06
0.27612,0.022084,-1.11991,-0.038425,2.21306,-0.017731,0.625525,-0.0190413,0.0681424,-0.0829892,-0.117597,-0.0348488,-0.0574563,0.114853,-0.0577359,0.0657888,0.0246,0.588181,-0.0322852,0,0.00180348,0,0,0,0.0658134,-0.0127773,0.588179,-0.0323077,0.0373828,0.00179262,-2.1388e-05,1.4032e-05,-8.56271e-06
0.277149,0.022154,-1.12,-0.0385458,2.21302,-0.01779,0.625643,-0.0191006,0.0680181,-0.0832326,-0.117377,-0.0350416,-0.0573827,0.115281,-0.0576307,0.0657556,0.0246,0.588183,-0.0324047,0,0.0018237,0,0,0,0.0657656,-0.0127219,0.588181,-0.0324133,0.0373258,0.00181616,-1.48852e-05,9.71891e-06,-5.94278e-06
0.278218,0.0222266,-1.12009,-0.0386711,2.21299,-0.0178513,0.625767,-0.0191621,0.0679304,-0.0835295,-0.117217,-0.0352491,-0.0573355,0.115779,-0.0575523,0.0657208,0.0246,0.588185,-0.0325289,0,0.00184487,0,0,0,0.0657322,-0.0126835,0.588183,-0.0325388,0.0372876,0.00183703,-1.55112e-05,1.00778e-05,-6.17722e-06
0.279245,0.0222962,-1.12017,-0.0387913,2.21295,-0.0179101,0.625887,-0.0192211,0.0678397,-0.0838074,-0.117053,-0.0354479,-0.0572856,0.116249,-0.0574722,0.0656874,0.0246,0.588187,-0.0326482,0,0.00186536,0,0,0,0.0656975,-0.0126437,0.588185,-0.0326569,0.0372476,0.00185783,-1.49401e-05,9.66093e-06,-5.93505e-06
0.280292,0.0223672,-1.12026,-0.0389137,2.21291,-0.0179701,0.626009,-0.0192813,0.0677523,-0.0840961,-0.116895,-0.035652,-0.0572384,0.116736,-0.0573943,0.0656531,0.0246,0.588189,-0.0327698,0,0.00188641,0,0,0,0.0656639,-0.0126054,0.588187,-0.0327793,0.0372094,0.00187874,-1.528e-05,9.83338e-06,-6.05502e-06
0.281462,0.0224463,-1.12036,-0.0390502,2.21287,-0.018037,0.626146,-0.0193483,0.0676628,-0.0844267,-0.116731,-0.0358819,-0.0571913,0.117291,-0.0573135,0.0656147,0.0246,0.588191,-0.0329056,0,0.00191011,0,0,0,0.0656296,-0.0125665,0.588189,-0.032919,0.0371709,0.00190154,-1.71115e-05,1.09534e-05,-6.76244e-06
0.282634,0.0225256,-1.12046,-0.0391869,2.21283,-0.018104,0.626284,-0.0194154,0.0675635,-0.0847472,-0.116551,-0.0361115,-0.0571373,0.117834,-0.0572253,0.065576,0.0246,0.588193,-0.0330418,0,0.00193406,0,0,0,0.0655911,-0.012523,0.588191,-0.0330554,0.0371275,0.00192547,-1.72076e-05,1.09563e-05,-6.78129e-06
0.283675,0.0225958,-1.12055,-0.039308,2.21279,-0.0181633,0.626407,-0.0194748,0.0674644,-0.0850189,-0.116372,-0.0363138,-0.0570817,0.118301,-0.057139,0.0655416,0.0246,0.588195,-0.0331626,0,0.00195548,0,0,0,0.0655523,-0.0124794,0.588193,-0.033172,0.0370834,0.00194786,-1.52977e-05,9.69424e-06,-6.01286e-06
0.285165,0.0226962,-1.12068,-0.0394812,2.21274,-0.0182484,0.626585,-0.0195599,0.0673743,-0.0854651,-0.116204,-0.0366137,-0.0570387,0.119041,-0.0570539,0.0654921,0.0246,0.588198,-0.0333356,0,0.00198644,0,0,0,0.0655178,-0.0124409,0.588196,-0.0333595,0.0370466,0.00197554,-2.20197e-05,1.38608e-05,-8.62674e-06
0.28622,0.0227671,-1.12077,-0.0396035,2.2127,-0.0183084,0.626711,-0.0196199,0.0672495,-0.0857124,-0.115982,-0.0368157,-0.056965,0.119482,-0.0569485,0.0654568,0.0246,0.5882,-0.033458,0,0.00200855,0,0,0,0.0654681,-0.0123857,0.588198,-0.033468,0.0369897,0.00200081,-1.56065e-05,9.77693e-06,-6.09644e-06
0.287265,0.0228373,-1.12086,-0.0397246,2.21266,-0.018368,0.626836,-0.0196794,0.0671601,-0.0859953,-0.11582,-0.0370226,-0.0569163,0.119966,-0.0568694,0.0654218,0.0246,0.588203,-0.0335794,0,0.00203062,0,0,0,0.0654328,-0.0123466,0.588201,-0.0335891,0.0369507,0.00202295,-1.551e-05,9.67097e-06,-6.04322e-06
0.288325,0.0229084,-1.12095,-0.0398472,2.21262,-0.0184282,0.626964,-0.0197396,0.0670714,-0.0862837,-0.115659,-0.0372332,-0.0568683,0.120459,-0.0567908,0.0653861,0.0246,0.588205,-0.0337023,0,0.00205316,0,0,0,0.0653977,-0.012308,0.588203,-0.0337126,0.0369122,0.00204539,-1.57591e-05,9.77973e-06,-6.12433e-06
0.289365,0.022978,-1.12104,-0.0399672,2.21258,-0.0184873,0.62709,-0.0197985,0.0669817,-0.0865632,-0.115496,-0.0374399,-0.0568192,0.120939,-0.0567117,0.065351,0.0246,0.588207,-0.0338229,0,0.00207543,0,0,0,0.0653619,-0.0122689,0.588205,-0.0338326,0.036873,0.0020678,-1.54973e-05,9.57273e-06,-6.00706e-06
0.290426,0.0230491,-1.12113,-0.0400897,2.21254,-0.0185476,0.627218,-0.0198587,0.0668935,-0.0868521,-0.115336,-0.0376521,-0.0567716,0.121434,-0.0566335,0.0653151,0.0246,0.588209,-0.0339461,0,0.00209834,0,0,0,0.0653268,-0.0122306,0.588207,-0.0339566,0.0368347,0.00209055,-1.58652e-05,9.75383e-06,-6.13363e-06
0.291608,0.023128,-1.12123,-0.0402258,2.2125,-0.0186146,0.627363,-0.0199255,0.066803,-0.0871822,-0.11517,-0.0378905,-0.056724,0.121997,-0.0565522,0.0652749,0.0246,0.588212,-0.0340832,0,0.00212404,0,0,0,0.0652907,-0.0121915,0.588209,-0.0340977,0.0367961,0.00211538,-1.77174e-05,1.08358e-05,-6.83027e-06
0.293164,0.0232318,-1.12137,-0.0404047,2.21244,-0.0187028,0.627554,-0.0200133,0.0667013,-0.0876359,-0.114981,-0.0382089,-0.0566737,0.122762,-0.0564581,0.0652217,0.0246,0.588215,-0.0342636,0,0.00215819,0,0,0,0.0652504,-0.012148,0.588212,-0.0342906,0.0367542,0.00214683,-2.34254e-05,1.4229e-05,-8.99838e-06
0.294196,0.0233005,-1.12146,-0.0405231,2.2124,-0.0187612,0.627681,-0.0200715,0.0665719,-0.0878645,-0.114752,-0.0384085,-0.0565963,0.123182,-0.0563499,0.0651863,0.0246,0.588217,-0.0343832,0,0.00218104,0,0,0,0.0651971,-0.0120908,0.588215,-0.0343929,0.0366949,0.00217346,-1.55516e-05,9.40309e-06,-5.95583e-06
0.295203,0.0233674,-1.12155,-0.0406385,2.21236,-0.0188181,0.627805,-0.0201281,0.0664847,-0.0881324,-0.114594,-0.0386115,-0.0565486,0.123647,-0.0562733,0.0651516,0.0246,0.588219,-0.0344999,0,0.00220348,0,0,0,0.0651616,-0.0120529,0.588217,-0.0345088,0.036657,0.00219608,-1.52086e-05,9.15518e-06,-5.80959e-06
0.296245,0.0234367,-1.12164,-0.0407578,2.21232,-0.018877,0.627935,-0.0201867,0.0663994,-0.0884154,-0.114438,-0.0388233,-0.0565027,0.124137,-0.0561977,0.0651156,0.0246,0.588222,-0.0346208,0,0.0022269,0,0,0,0.0651268,-0.012016,0.58822,-0.034631,0.0366202,0.00221924,-1.57923e-05,9.46329e-06,-6.0168e-06
0.297353,0.0235101,-1.12174,-0.0408844,2.21227,-0.0189396,0.628073,-0.0202489,0.066311,-0.0887181,-0.114277,-0.0390494,-0.0564555,0.12466,-0.0561191,0.0650771,0.0246,0.588224,-0.0347492,0,0.00225195,0,0,0,0.0650907,-0.0119778,0.588222,-0.0347617,0.0365823,0.00224382,-1.68221e-05,1.00319e-05,-6.39147e-06
0.298559,0.02359,-1.12185,-0.041022,2.21223,-0.0190076,0.628224,-0.0203165,0.0662169,-0.0890496,-0.114104,-0.0392966,-0.0564056,0.125233,-0.0560351,0.0650351,0.0246,0.588227,-0.0348889,0,0.00227943,0,0,0,0.0650522,-0.0119373,0.588224,-0.0349048,0.0365422,0.0022706,-1.83616e-05,1.08928e-05,-6.95547e-06
0.299559,0.0236561,-1.12194,-0.0411359,2.21219,-0.0190639,0.628349,-0.0203724,0.066116,-0.089297,-0.113923,-0.0394975,-0.056348,0.125674,-0.0559486,0.0650002,0.0246,0.588229,-0.0350048,0,0.00230239,0,0,0,0.0650101,-0.0118933,0.588227,-0.0350137,0.0364973,0.00229504,-1.52563e-05,9.01137e-06,-5.7634e-06
0.300724,0.023733,-1.12204,-0.0412684,2.21214,-0.0191295,0.628496,-0.0204375,0.0660308,-0.0896229,-0.113766,-0.0397387,-0.0563039,0.126236,-0.0558718,0.0649594,0.0246,0.588232,-0.0351396,0,0.00232932,0,0,0,0.0649751,-0.0118568,0.588229,-0.0351543,0.0364615,0.00232079,-1.78144e-05,1.04697e-05,-6.71047e-06
0.30177,0.023802,-1.12214,-0.0413873,2.2121,-0.0191884,0.628629,-0.0204959,0.065933,-0.08989,-0.11359,-0.0399517,-0.0562491,0.12671,-0.0557871,0.0649225,0.0246,0.588234,-0.0352608,0,0.0023537,0,0,0,0.0649342,-0.0118143,0.588232,-0.0352715,0.0364186,0.00234601,-1.60448e-05,9.38715e-06,-6.02694e-06
0.302779,0.0238684,-1.12223,-0.0415017,2.21206,-0.0192451,0.628757,-0.0205521,0.0658449,-0.0901544,-0.11343,-0.0401588,-0.0562007,0.127176,-0.0557101,0.0648869,0.0246,0.588237,-0.0353777,0,0.00237736,0,0,0,0.0648972,-0.0117762,0.588235,-0.0353871,0.0363803,0.00236994,-1.54995e-05,9.0289e-06,-5.80667e-06
0.303799,0.0239355,-1.12232,-0.0416172,2.21202,-0.0193023,0.628888,-0.0206088,0.0657598,-0.0904258,-0.113275,-0.0403695,-0.0561545,0.127653,-0.0556352,0.0648508,0.0246,0.588239,-0.0354957,0,0.00240144,0,0,0,0.0648615,-0.0117395,0.588237,-0.0355056,0.0363437,0.00239394,-1.56987e-05,9.10513e-06,-5.86572e-06
0.304845,0.0240041,-1.12241,-0.0417355,2.21197,-0.019361,0.629022,-0.0206669,0.0656737,-0.0907053,-0.113118,-0.0405864,-0.0561081,0.128144,-0.0555593,0.0648136,0.0246,0.588242,-0.0356168,0,0.0024263,0,0,0,0.0648253,-0.0117024,0.588239,-0.0356277,0.0363068,0.00241861,-1.61407e-05,9.31979e-06,-6.01448e-06
0.305845,0.0240697,-1.1225,-0.0418485,2.21193,-0.0194171,0.62915,-0.0207224,0.0655858,-0.0909654,-0.112958,-0.0407932,-0.0560596,0.128605,-0.0554826,0.0647779,0.0246,0.588244,-0.0357326,0,0.00245023,0,0,0,0.0647881,-0.0116645,0.588242,-0.0357419,0.0362686,0.00244287,-1.54653e-05,8.89186e-06,-5.74745e-06
0.306873,0.0241371,-1.1226,-0.0419645,2.21189,-0.0194747,0.629283,-0.0207794,0.0655014,-0.0912397,-0.112804,-0.0410077,-0.0560141,0.129089,-0.0554082,0.0647411,0.0246,0.588247,-0.0358516,0,0.00247501,0,0,0,0.0647523,-0.0116282,0.588244,-0.035862,0.0362325,0.00246744,-1.59417e-05,9.12585e-06,-5.90854e-06
0.308507,0.024244,-1.12275,-0.0421486,2.21182,-0.0195662,0.629495,-0.0208698,0.0654118,-0.0917297,-0.112634,-0.0413598,-0.0559734,0.129926,-0.0553229,0.0646823,0.0246,0.588251,-0.0360406,0,0.00251471,0,0,0,0.0647154,-0.0115909,0.588247,-0.0360725,0.0361978,0.00250285,-2.54441e-05,1.4466e-05,-9.39435e-06
0.309613,0.0243161,-1.12285,-0.0422728,2.21178,-0.0196279,0.629639,-0.0209308,0.0652768,-0.0919683,-0.112394,-0.0415817,-0.0558929,0.130378,-0.0552104,0.0646424,0.0246,0.588254,-0.0361685,0,0.00254181,0,0,0,0.0646565,-0.0115318,0.588251,-0.0361818,0.0361365,0.00253369,-1.72318e-05,9.751e-06,-6.34064e-06
0.310662,0.0243846,-1.12295,-0.0423906,2.21173,-0.0196865,0.629777,-0.0209887,0.0651841,-0.0922383,-0.112226,-0.0418012,-0.0558417,0.130862,-0.0551298,0.0646044,0.0246,0.588256,-0.0362899,0,0.00256772,0,0,0,0.0646165,-0.0114918,0.588254,-0.0363012,0.0360963,0.00255999,-1.63971e-05,9.23782e-06,-6.01624e-06
0.311673,0.0244503,-1.12304,-0.0425038,2.21169,-0.0197429,0.629909,-0.0210443,0.065096,-0.0924993,-0.112065,-0.0420133,-0.0557932,0.13133,-0.0550531,0.0645677,0.0246,0.588259,-0.0364067,0,0.00259283,0,0,0,0.0645784,-0.011454,0.588257,-0.0364168,0.0360583,0.00258537,-1.58163e-05,8.87294e-06,-5.78715e-06
0.312678,0.0245157,-1.12313,-0.0426163,2.21165,-0.0197989,0.630042,-0.0210996,0.0650111,-0.0927618,-0.111911,-0.0422254,-0.0557469,0.1318,-0.0549788,0.064531,0.0246,0.588261,-0.0365229,0,0.00261796,0,0,0,0.0645416,-0.0114175,0.588259,-0.0365328,0.0360218,0.00261054,-1.5764e-05,8.80655e-06,-5.75231e-06
0.313703,0.0245822,-1.12323,-0.0427309,2.21161,-0.019856,0.630177,-0.0211558,0.0649265,-0.0930317,-0.111756,-0.0424428,-0.0557011,0.132282,-0.0549046,0.0644935,0.0246,0.588264,-0.0366414,0,0.00264377,0,0,0,0.0645049,-0.0113813,0.588262,-0.0366521,0.0359857,0.00263621,-1.61136e-05,8.96349e-06,-5.86358e-06
0.315015,0.0246673,-1.12335,-0.0428773,2.21155,-0.0199291,0.630352,-0.0212278,0.064839,-0.0934028,-0.111593,-0.042727,-0.0556572,0.132932,-0.0548248,0.0644453,0.0246,0.588268,-0.0367931,0,0.00267704,0,0,0,0.0644673,-0.0113444,0.588265,-0.0368142,0.0359501,0.00266746,-2.06923e-05,1.14482e-05,-7.50462e-06
0.31618,0.0247427,-1.12346,-0.0430071,2.2115,-0.0199939,0.630507,-0.0212916,0.0647296,-0.0936915,-0.111395,-0.0429724,-0.0555956,0.13346,-0.0547308,0.0644024,0.0246,0.588271,-0.0369277,0,0.00270682,0,0,0,0.064419,-0.0112973,0.588268,-0.0369437,0.0359023,0.00269827,-1.84161e-05,1.01398e-05,-6.6569e-06
0.31745,0.0248248,-1.12358,-0.0431483,2.21144,-0.0200644,0.630678,-0.021361,0.0646312,-0.094032,-0.111215,-0.0432459,-0.0555434,0.134068,-0.0546437,0.0643554,0.0246,0.588274,-0.0370744,0,0.00273953,0,0,0,0.064376,-0.0112554,0.588271,-0.0370943,0.0358609,0.00273025,-2.01212e-05,1.10208e-05,-7.24841e-06
0.318571,0.0248971,-1.12369,-0.0432728,2.2114,-0.0201266,0.630828,-0.0214221,0.0645255,-0.0943076,-0.111023,-0.0434832,-0.0554838,0.134575,-0.0545529,0.0643138,0.0246,0.588277,-0.0372039,0,0.00276861,0,0,0,0.0643289,-0.0112099,0.588275,-0.0372184,0.0358148,0.00276037,-1.77956e-05,9.70204e-06,-6.38988e-06
0.319619,0.0249647,-1.12378,-0.0433889,2.21135,-0.0201847,0.63097,-0.0214792,0.0644319,-0.0945715,-0.110853,-0.043707,-0.0554318,0.135057,-0.054472,0.0642747,0.0246,0.58828,-0.0373249,0,0.00279599,0,0,0,0.0642871,-0.0111698,0.588278,-0.0373368,0.0357743,0.00278826,-1.66699e-05,9.04933e-06,-5.96784e-06
0.320671,0.0250323,-1.12388,-0.0435053,2.2113,-0.0202429,0.631113,-0.0215364,0.064344,-0.0948437,-0.110693,-0.0439337,-0.055384,0.135551,-0.0543953,0.0642354,0.0246,0.588283,-0.0374464,0,0.00282365,0,0,0,0.064248,-0.0111323,0.588281,-0.0374584,0.0357369,0.00281588,-1.67618e-05,9.06014e-06,-5.98306e-06
0.322472,0.0251481,-1.12406,-0.0437044,2.21122,-0.0203426,0.631358,-0.0216342,0.064252,-0.0953854,-0.110516,-0.0443387,-0.0553437,0.136493,-0.0543067,0.0641678,0.0246,0.588288,-0.0376543,0,0.00287144,0,0,0,0.0642086,-0.0110947,0.588284,-0.0376943,0.0357027,0.00285845,-2.88562e-05,1.54845e-05,-1.02547e-05
0.323925,0.0252412,-1.12419,-0.0438646,2.21116,-0.0204229,0.631558,-0.0217129,0.0641029,-0.0957233,-0.110247,-0.0446473,-0.0552578,0.137131,-0.0541806,0.0641129,0.0246,0.588293,-0.037822,0,0.00291038,0,0,0,0.0641407,-0.0110304,0.588289,-0.0378491,0.0356368,0.00289981,-2.33304e-05,1.24454e-05,-8.25428e-06
0.324925,0.0253052,-1.12429,-0.0439747,2.21111,-0.0204781,0.631695,-0.021767,0.0639838,-0.0959329,-0.110035,-0.0448557,-0.0551867,0.137542,-0.0540817,0.064075,0.0246,0.588295,-0.0379374,0,0.00293739,0,0,0,0.0640857,-0.0109786,0.588293,-0.0379476,0.0355831,0.00292995,-1.60718e-05,8.53838e-06,-5.66767e-06
0.325925,0.0253691,-1.12439,-0.0440846,2.21107,-0.0205333,0.631833,-0.0218211,0.0639001,-0.0961893,-0.109882,-0.0450742,-0.0551411,0.138013,-0.0540088,0.064037,0.0246,0.588298,-0.0380527,0,0.00296456,0,0,0,0.0640478,-0.010943,0.588296,-0.0380631,0.0355475,0.00295712,-1.61023e-05,8.52016e-06,-5.66215e-06
0.326962,0.0254353,-1.12449,-0.0441983,2.21102,-0.0205904,0.631977,-0.021877,0.0638163,-0.0964583,-0.109728,-0.0453021,-0.0550958,0.138505,-0.0539354,0.0639975,0.0246,0.588301,-0.0381723,0,0.0029929,0,0,0,0.0640097,-0.0109075,0.588299,-0.0381841,0.0355121,0.00298521,-1.67223e-05,8.8114e-06,-5.86279e-06
0.327996,0.0255012,-1.12459,-0.0443117,2.21097,-0.0206473,0.632121,-0.0219327,0.0637298,-0.0967222,-0.109569,-0.0455292,-0.0550485,0.138991,-0.0538601,0.063958,0.0246,0.588305,-0.0382916,0,0.00302135,0,0,0,0.0639701,-0.0108706,0.588302,-0.0383033,0.0354753,0.00301368,-1.67175e-05,8.77239e-06,-5.84355e-06
0.329167,0.0255757,-1.1247,-0.0444398,2.21092,-0.0207117,0.632284,-0.0219956,0.0636426,-0.097035,-0.109408,-0.04579,-0.0550026,0.13956,-0.0537828,0.0639131,0.0246,0.588308,-0.0384265,0,0.00305378,0,0,0,0.0639305,-0.010834,0.588305,-0.0384436,0.0354392,0.00304516,-1.89705e-05,9.90828e-06,-6.60935e-06
0.33028,0.0256464,-1.12481,-0.0445613,2.21087,-0.0207728,0.63244,-0.0220554,0.0635452,-0.097312,-0.109231,-0.0460345,-0.0549486,0.140076,-0.0536987,0.0638703,0.0246,0.588312,-0.0385548,0,0.00308481,0,0,0,0.0638855,-0.0107925,0.588309,-0.0385697,0.0353975,0.00307659,-1.8064e-05,9.39299e-06,-6.27273e-06
0.331505,0.0257242,-1.12493,-0.0446949,2.21081,-0.0208401,0.632612,-0.0221211,0.0634518,-0.0976351,-0.109058,-0.0463085,-0.054899,0.140669,-0.0536162,0.0638229,0.0246,0.588315,-0.038696,0,0.00311922,0,0,0,0.0638426,-0.0107531,0.588312,-0.0387153,0.0353587,0.00311023,-1.99449e-05,1.03207e-05,-6.90164e-06
0.332661,0.0257973,-1.12504,-0.0448207,2.21076,-0.0209035,0.632775,-0.0221829,0.0633499,-0.0979204,-0.108872,-0.0465637,-0.0548424,0.141204,-0.0535284,0.0637781,0.0246,0.588319,-0.038829,0,0.0031519,0,0,0,0.0637951,-0.0107098,0.588316,-0.0388458,0.035315,0.00314338,-1.8836e-05,9.70228e-06,-6.49525e-06
0.333706,0.0258635,-1.12514,-0.0449344,2.21071,-0.0209608,0.632924,-0.0222388,0.0632543,-0.0981731,-0.108698,-0.0467943,-0.0547886,0.141682,-0.0534465,0.0637375,0.0246,0.588322,-0.0389495,0,0.00318167,0,0,0,0.0637503,-0.010669,0.58832,-0.038962,0.0352738,0.00317389,-1.70788e-05,8.76077e-06,-5.87043e-06
0.334806,0.025933,-1.12525,-0.0450538,2.21066,-0.021021,0.63308,-0.0222975,0.0631669,-0.0984567,-0.108537,-0.0470414,-0.0547415,0.142208,-0.05337,0.0636946,0.0246,0.588326,-0.0390762,0,0.0032132,0,0,0,0.0637095,-0.0106321,0.588323,-0.0390909,0.0352372,0.00320505,-1.801e-05,9.19851e-06,-6.1705e-06
0.335807,0.0259961,-1.12535,-0.0451622,2.21061,-0.0210757,0.633223,-0.0223508,0.0630758,-0.0986979,-0.108372,-0.0472632,-0.0546903,0.142666,-0.053292,0.0636554,0.0246,0.588329,-0.0391913,0,0.00324203,0,0,0,0.0636665,-0.0105933,0.588327,-0.0392022,0.0351979,0.00323457,-1.63957e-05,8.34109e-06,-5.60006e-06
0.33741,0.0260971,-1.12551,-0.0453357,2.21054,-0.0211633,0.633453,-0.0224362,0.0629891,-0.0991664,-0.108206,-0.0476377,-0.0546508,0.143505,-0.0532103,0.0635924,0.0246,0.588334,-0.0393759,0,0.00328863,0,0,0,0.0636273,-0.0105581,0.58833,-0.0394105,0.0351656,0.00327705,-2.63986e-05,1.33464e-05,-8.97803e-06
0.339201,0.0262097,-1.12569,-0.0455291,2.21045,-0.0212611,0.633711,-0.0225313,0.0628546,-0.0996359,-0.107957,-0.0480468,-0.0545795,0.144377,-0.0530915,0.0635217,0.0246,0.58834,-0.039582,0,0.0033412,0,0,0,0.0635641,-0.0105017,0.588335,-0.0396242,0.0351101,0.00332834,-2.95934e-05,1.48577e-05,-1.00116e-05
0.340677,0.0263022,-1.12584,-0.0456879,2.21038,-0.0213415,0.633925,-0.0226094,0.0627075,-0.0999701,-0.10769,-0.0483739,-0.0544947,0.14503,-0.0529673,0.0634632,0.0246,0.588345,-0.0397517,0,0.00338492,0,0,0,0.0634931,-0.0104388,0.588341,-0.0397815,0.0350458,0.00337419,-2.44191e-05,1.21894e-05,-8.22132e-06
0.342063,0.026389,-1.12598,-0.0458369,2.21031,-0.0214169,0.634127,-0.0226827,0.0625854,-0.100306,-0.107467,-0.0486874,-0.0544265,0.145674,-0.0528625,0.063408,0.0246,0.58835,-0.0399111,0,0.00342634,0,0,0,0.0634344,-0.0103871,0.588346,-0.0399375,0.0349937,0.00341622,-2.29983e-05,1.14186e-05,-7.70922e-06
0.343563,0.0264827,-1.12613,-0.0459978,2.21024,-0.0214985,0.634347,-0.0227618,0.0624697,-0.100691,-0.107253,-0.0490329,-0.0543645,0.146399,-0.052761,0.063348,0.0246,0.588355,-0.0400835,0,0.00347155,0,0,0,0.0633791,-0.0103386,0.588351,-0.0401146,0.0349457,0.00346065,-2.49545e-05,1.23185e-05,-8.3269e-06
0.345291,0.0265904,-1.1263,-0.0461828,2.21015,-0.0215923,0.634601,-0.0228528,0.0623438,-0.101145,-0.107019,-0.049435,-0.0542983,0.147249,-0.0526496,0.0632785,0.0246,0.588361,-0.0402821,0,0.0035241,0,0,0,0.0633189,-0.0102862,0.588356,-0.0403225,0.0348945,0.00351167,-2.88458e-05,1.41454e-05,-9.57544e-06
0.34699,0.0266961,-1.12647,-0.0463641,2.21007,-0.0216844,0.634853,-0.0229421,0.0622007,-0.101562,-0.106756,-0.0498259,-0.0542193,0.148049,-0.052526,0.0632099,0.0246,0.588367,-0.0404772,0,0.00357629,0,0,0,0.0632492,-0.0102259,0.588362,-0.0405167,0.0348341,0.00356404,-2.84393e-05,1.38556e-05,-9.38968e-06
0.348168,0.0267692,-1.12659,-0.0464896,2.21001,-0.0217482,0.635028,-0.0230038,0.0620631,-0.101794,-0.106508,-0.0500854,-0.0541368,0.148533,-0.0524125,0.0631621,0.0246,0.588371,-0.0406125,0,0.00361278,0,0,0,0.0631804,-0.0101667,0.588368,-0.0406308,0.0347724,0.00360401,-1.97367e-05,9.57218e-06,-6.4887e-06
0.349703,0.0268643,-1.12675,-0.0466527,2.20993,-0.0218312,0.635257,-0.0230841,0.0619634,-0.102211,-0.106321,-0.0504505,-0.0540866,0.149311,-0.0523225,0.0630997,0.0246,0.588377,-0.0407886,0,0.00366067,0,0,0,0.0631325,-0.0101258,0.588372,-0.0408216,0.0347332,0.00364951,-2.57892e-05,1.24352e-05,-8.43982e-06
0.351311,0.0269637,-1.12692,-0.0468234,2.20985,-0.0219181,0.635498,-0.0231681,0.061836,-0.102613,-0.106085,-0.0508273,-0.0540174,0.150084,-0.0522116,0.063034,0.0246,0.588383,-0.0409731,0,0.00371131,0,0,0,0.0630699,-0.0100725,0.588378,-0.0410094,0.0346803,0.00369966,-2.71069e-05,1.29912e-05,-8.82573e-06
0.353968,0.0271276,-1.12719,-0.0471045,2.20971,-0.0220614,0.635901,-0.0233064,0.0616965,-0.103381,-0.105816,-0.0514774,-0.0539541,0.151496,-0.05208,0.0629247,0.0246,0.588393,-0.0412778,0,0.003796,0,0,0,0.0630039,-0.0100167,0.588384,-0.0413578,0.0346298,0.00377734,-4.50808e-05,2.13921e-05,-1.45662e-05
0.354989,0.0271904,-1.1273,-0.0472122,2.20966,-0.0221164,0.636056,-0.0233595,0.0614872,-0.103442,-0.105449,-0.0516747,-0.0538174,0.151744,-0.0519165,0.0628825,0.0246,0.588397,-0.0413949,0,0.00382888,0,0,0,0.062894,-0.00992472,0.588394,-0.0414067,0.0345297,0.00382105,-1.72898e-05,8.17198e-06,-5.55873e-06
0.356096,0.0272584,-1.12741,-0.0473288,2.2096,-0.0221759,0.636225,-0.0234169,0.0614025,-0.103721,-0.105291,-0.0519384,-0.0537717,0.152282,-0.0518425,0.0628366,0.0246,0.588401,-0.0415218,0,0.00386476,0,0,0,0.0628517,-0.00988947,0.588398,-0.0415373,0.0344949,0.00385635,-1.87894e-05,8.84412e-06,-6.01926e-06
0.357215,0.027327,-1.12753,-0.0474463,2.20954,-0.022236,0.636395,-0.0234747,0.0613111,-0.103993,-0.105123,-0.0522035,-0.0537214,0.152815,-0.0517635,0.0627901,0.0246,0.588405,-0.0416499,0,0.00390121,0,0,0,0.0628057,-0.00985127,0.588402,-0.041666,0.0344568,0.00389273,-1.90067e-05,8.90911e-06,-6.06627e-06
0.358332,0.0273954,-1.12764,-0.0475636,2.20948,-0.022296,0.636567,-0.0235325,0.061219,-0.104262,-0.104952,-0.0524687,-0.0536705,0.153346,-0.051684,0.0627435,0.0246,0.58841,-0.0417779,0,0.00393786,0,0,0,0.0627592,-0.00981275,0.588407,-0.041794,0.0344183,0.00392938,-1.90247e-05,8.88052e-06,-6.04931e-06
0.359375,0.0274591,-1.12775,-0.0476729,2.20943,-0.0223519,0.636727,-0.0235863,0.0611275,-0.104505,-0.104784,-0.0527151,-0.053619,0.153831,-0.0516059,0.0626998,0.0246,0.588414,-0.0418973,0,0.00397228,0,0,0,0.0627125,-0.00977429,0.588411,-0.0419104,0.0343795,0.00396429,-1.77891e-05,8.27157e-06,-5.63613e-06
0.360461,0.0275254,-1.12787,-0.0477865,2.20937,-0.0224101,0.636895,-0.0236423,0.0610414,-0.104771,-0.104625,-0.0529756,-0.0535719,0.154354,-0.0515312,0.0626542,0.0246,0.588418,-0.0420217,0,0.00400833,0,0,0,0.0626687,-0.00973843,0.588415,-0.0420366,0.0343439,0.00400006,-1.85519e-05,8.59162e-06,-5.85646e-06
0.361554,0.0275921,-1.12798,-0.0479007,2.20931,-0.0224686,0.637064,-0.0236985,0.060952,-0.105034,-0.104459,-0.0532376,-0.0535225,0.154875,-0.0514541,0.0626082,0.0246,0.588423,-0.0421468,0,0.00404484,0,0,0,0.0626231,-0.00970113,0.588419,-0.0421622,0.0343066,0.00403652,-1.87083e-05,8.62915e-06,-5.88393e-06
0.362598,0.0276556,-1.12809,-0.0480095,2.20926,-0.0225244,0.637226,-0.0237521,0.0608625,-0.105278,-0.104294,-0.0534867,-0.0534723,0.155364,-0.0513774,0.0625642,0.0246,0.588427,-0.0422662,0,0.00407989,0,0,0,0.062577,-0.00966363,0.588424,-0.0422795,0.0342689,0.00407188,-1.78811e-05,8.21587e-06,-5.60338e-06
0.363756,0.027726,-1.12821,-0.0481302,2.2092,-0.0225863,0.637407,-0.0238116,0.060776,-0.105569,-0.104133,-0.0537689,-0.0534258,0.155933,-0.0513017,0.0625152,0.0246,0.588432,-0.0423987,0,0.00411904,0,0,0,0.0625329,-0.00962788,0.588428,-0.042417,0.0342337,0.00411028,-1.98935e-05,9.10176e-06,-6.20992e-06
0.364989,0.0278008,-1.12834,-0.0482583,2.20913,-0.0226521,0.6376,-0.0238747,0.0606804,-0.105871,-0.103955,-0.0540687,-0.0533737,0.156531,-0.0512186,0.0624628,0.0246,0.588437,-0.0425396,0,0.00416096,0,0,0,0.0624837,-0.00958822,0.588433,-0.0425612,0.0341945,0.00415173,-2.12088e-05,9.6598e-06,-6.59275e-06
0.366,0.027862,-1.12845,-0.0483632,2.20907,-0.022706,0.637759,-0.0239264,0.0605807,-0.106085,-0.103773,-0.0543072,-0.0533156,0.156979,-0.051135,0.0624198,0.0246,0.588441,-0.0426551,0,0.00419555,0,0,0,0.0624313,-0.00954607,0.588438,-0.0426673,0.0341512,0.00418774,-1.7407e-05,7.89881e-06,-5.39066e-06
0.36734,0.0279431,-1.12859,-0.0485021,2.209,-0.0227774,0.63797,-0.0239949,0.0604956,-0.106442,-0.103611,-0.0546425,-0.0532726,0.157668,-0.0510584,0.0623625,0.0246,0.588447,-0.0428084,0,0.00424173,0,0,0,0.0623882,-0.00951156,0.588442,-0.0428349,0.0341184,0.00423179,-2.31589e-05,1.04579e-05,-7.14073e-06
0.369754,0.0280888,-1.12885,-0.0487516,2.20887,-0.0229058,0.638354,-0.0241178,0.0603785,-0.10714,-0.103381,-0.0552629,-0.0532212,0.158982,-0.0509464,0.0622588,0.0246,0.588457,-0.043084,0,0.00432569,0,0,0,0.0623307,-0.00946582,0.588448,-0.0431576,0.0340782,0.00430881,-4.19258e-05,1.87689e-05,-1.28318e-05
0.37089,0.0281572,-1.12897,-0.0488687,2.2088,-0.0229662,0.638535,-0.0241755,0.0601894,-0.107254,-0.103046,-0.055504,-0.0530996,0.159328,-0.050797,0.0622098,0.0246,0.588462,-0.0432137,0,0.0043656,0,0,0,0.0622266,-0.00938359,0.588458,-0.0432313,0.0339894,0.00435691,-1.97137e-05,8.78806e-06,-6.00087e-06
0.37191,0.0282185,-1.12908,-0.0489736,2.20875,-0.0230203,0.638698,-0.0242272,0.0600973,-0.10748,-0.102876,-0.0557515,-0.0530469,0.159797,-0.0507189,0.0621657,0.0246,0.588466,-0.0433301,0,0.00440163,0,0,0,0.0621775,-0.00934498,0.588463,-0.0433427,0.0339503,0.00439368,-1.77224e-05,7.87126e-06,-5.37428e-06
0.372928,0.0282796,-1.12919,-0.0490782,2.20869,-0.0230742,0.638861,-0.0242788,0.0600139,-0.107718,-0.102721,-0.0560024,-0.0530004,0.160283,-0.0506473,0.0621215,0.0246,0.588471,-0.0434463,0,0.00443779,0,0,0,0.0621333,-0.00931035,0.588468,-0.0434588,0.0339156,0.00442985,-1.77135e-05,7.83852e-06,-5.35181e-06
0.373961,0.0283415,-1.12931,-0.0491842,2.20863,-0.0231289,0.639027,-0.0243311,0.0599306,-0.107961,-0.102567,-0.0562584,-0.0529542,0.160778,-0.0505755,0.0620765,0.0246,0.588475,-0.0435641,0,0.0044747,0,0,0,0.062089,-0.00927583,0.588472,-0.0435774,0.0338812,0.00446666,-1.80087e-05,7.9396e-06,-5.42065e-06
0.374993,0.0284033,-1.12942,-0.0492899,2.20857,-0.0231835,0.639193,-0.0243832,0.0598463,-0.108202,-0.10241,-0.0565142,-0.0529071,0.161271,-0.050503,0.0620315,0.0246,0.58848,-0.0436818,0,0.00451176,0,0,0,0.062044,-0.00924082,0.588477,-0.0436951,0.0338462,0.00450373,-1.80124e-05,7.91191e-06,-5.40132e-06
0.376113,0.0284702,-1.12954,-0.0494043,2.20851,-0.0232427,0.639375,-0.0244397,0.0597615,-0.108473,-0.102251,-0.0567951,-0.0528608,0.16182,-0.0504292,0.0619825,0.0246,0.588485,-0.0438094,0,0.0045522,0,0,0,0.0619989,-0.00920589,0.588482,-0.0438268,0.0338117,0.00454361,-1.95741e-05,8.56358e-06,-5.84604e-06
0.377467,0.028551,-1.12969,-0.0495426,2.20843,-0.0233143,0.639595,-0.0245079,0.0596685,-0.108816,-0.102075,-0.0571402,-0.0528119,0.162504,-0.0503469,0.0619231,0.0246,0.588491,-0.0439638,0,0.00460145,0,0,0,0.0619498,-0.00916803,0.588487,-0.0439918,0.0337752,0.00459137,-2.37415e-05,1.03369e-05,-7.057e-06
0.378763,0.0286282,-1.12983,-0.0496746,2.20836,-0.0233826,0.639806,-0.0245729,0.0595585,-0.109108,-0.101871,-0.0574624,-0.0527496,0.163114,-0.0502531,0.061866,0.0246,0.588497,-0.0441113,0,0.00464886,0,0,0,0.0618902,-0.00912228,0.588493,-0.0441367,0.0337291,0.00463915,-2.27368e-05,9.85392e-06,-6.7253e-06
0.380035,0.0287038,-1.12997,-0.049804,2.20829,-0.0234496,0.640014,-0.0246368,0.0594532,-0.109398,-0.101675,-0.0577812,-0.0526904,0.163719,-0.0501628,0.0618098,0.0246,0.588503,-0.0442562,0,0.00469576,0,0,0,0.0618331,-0.0090786,0.588499,-0.0442807,0.0336853,0.00468619,-2.23782e-05,9.65483e-06,-6.58749e-06
0.381254,0.0287762,-1.1301,-0.0499276,2.20821,-0.0235138,0.640214,-0.0246978,0.05935,-0.109672,-0.101484,-0.0580864,-0.0526319,0.164294,-0.0500748,0.0617558,0.0246,0.588509,-0.0443949,0,0.00474096,0,0,0,0.0617767,-0.00903574,0.588505,-0.0444171,0.0336422,0.00473172,-2.14602e-05,9.21889e-06,-6.28779e-06
0.382787,0.028867,-1.13027,-0.0500829,2.20812,-0.0235944,0.640468,-0.0247744,0.0592486,-0.110062,-0.101291,-0.058484,-0.052579,0.165078,-0.0499846,0.0616876,0.0246,0.588516,-0.0445694,0,0.00479824,0,0,0,0.0617226,-0.00899475,0.588511,-0.044606,0.0336029,0.00478703,-2.70793e-05,1.15703e-05,-7.8907e-06
0.384554,0.0289715,-1.13046,-0.0502615,2.20802,-0.0236872,0.640761,-0.0248626,0.0591223,-0.110495,-0.101052,-0.05894,-0.0525111,0.165962,-0.0498738,0.0616087,0.0246,0.588525,-0.0447703,0,0.00486483,0,0,0,0.0616542,-0.00894323,0.588518,-0.0448178,0.0335527,0.00485215,-3.12967e-05,1.32898e-05,-9.06024e-06
0.38572,0.0290403,-1.13059,-0.050379,2.20795,-0.0237483,0.640955,-0.0249206,0.0589831,-0.110685,-0.1008,-0.0592177,-0.0524253,0.166424,-0.0497605,0.0615564,0.0246,0.588531,-0.0449029,0,0.0049091,0,0,0,0.061575,-0.00888395,0.588527,-0.0449228,0.0334902,0.00490014,-2.06588e-05,8.73635e-06,-5.94953e-06
0.387411,0.0291398,-1.13078,-0.0505492,2.20785,-0.0238369,0.641238,-0.0250046,0.0588847,-0.111134,-0.10061,-0.0596673,-0.0523766,0.167319,-0.0496708,0.0614803,0.0246,0.588539,-0.045095,0,0.00497377,0,0,0,0.0615226,-0.0088449,0.588532,-0.0451393,0.033454,0.00496156,-3.00594e-05,1.26374e-05,-8.60491e-06
0.388484,0.0292029,-1.1309,-0.0506569,2.20779,-0.023893,0.641418,-0.0250578,0.0587521,-0.111298,-0.100369,-0.0599223,-0.0522942,0.167734,-0.0495634,0.0614318,0.0246,0.588544,-0.0452168,0,0.00501511,0,0,0,0.0614463,-0.00878833,0.588541,-0.0452326,0.0333942,0.0050067,-1.90767e-05,7.98982e-06,-5.43401e-06
0.389534,0.0292645,-1.13102,-0.0507621,2.20772,-0.0239479,0.641595,-0.0251097,0.0586654,-0.111532,-0.100208,-0.0601918,-0.052245,0.168234,-0.0494892,0.0613843,0.0246,0.58855,-0.045336,0,0.00505577,0,0,0,0.0613978,-0.0087525,0.588546,-0.0453508,0.0333582,0.0050475,-1.86925e-05,7.80035e-06,-5.30227e-06
0.39058,0.0293258,-1.13113,-0.0508668,2.20766,-0.0240025,0.641771,-0.0251614,0.0585805,-0.111767,-0.100049,-0.0604615,-0.052197,0.168735,-0.0494165,0.0613368,0.0246,0.588555,-0.0454547,0,0.0050965,0,0,0,0.0613501,-0.00871747,0.588551,-0.0454694,0.0333232,0.00508825,-1.86446e-05,7.75219e-06,-5.26661e-06
0.391809,0.0293976,-1.13127,-0.0509895,2.20759,-0.0240665,0.641979,-0.025222,0.0584945,-0.112065,-0.0998856,-0.0607855,-0.0521508,0.169354,-0.049341,0.0612809,0.0246,0.588561,-0.0455941,0,0.0051446,0,0,0,0.0613026,-0.00868262,0.588557,-0.0456174,0.0332893,0.00513524,-2.19409e-05,9.08422e-06,-6.16854e-06
