Kcygt/SemiCircleKinovaTest_Cpp/x64/Debug/data.csv
t,q1,q2,q3,q4,q5,q6,q7,qp1,qp2,qp3,qp4,qp5,qp6,qp7,xd,yd,zd,vxd,vyd,vzd,wxd,wyd,wzd,x,y,z,vx,vy,vz,wx,wy,wz
0.0050524,1.70623e-07,-1.10829,6.47868e-08,2.21657,-3.2911e-07,0.610876,3.56426e-07,3.37708e-05,-0.00157298,1.2823e-05,-0.000533564,-6.51392e-05,0.00210655,7.0546e-05,0,0,0,-0.00059167,0,1.10544e-08,0,0,0,0.0702478,-0.0246,0.588057,0,0,0,0,0,0
0.00878,3.89391e-07,-1.1083,1.47859e-07,2.21656,-7.5107e-07,0.61089,8.13414e-07,5.86885e-05,-0.00273344,2.22857e-05,-0.000927369,-0.000113199,0.00366081,0.000122596,0,0,0,-0.0010282,0,5.80132e-08,0,0,0,0.0702439,-0.0246,0.588057,0,0,0,0,0,0
0.0097802,4.54781e-07,-1.10831,1.72691e-07,2.21656,-8.7719e-07,0.610894,9.50004e-07,6.53768e-05,-0.00304478,2.48273e-05,-0.0010331,-0.000126095,0.00407788,0.000136563,0,0,0,-0.00114533,0,8.01838e-08,0,0,0,0.0702428,-0.0246,0.588057,0,0,0,0,0,0
0.0107803,5.26851e-07,-1.10831,2.00061e-07,2.21656,-1.01619e-06,0.610898,1.10055e-06,7.20631e-05,-0.0033561,2.73671e-05,-0.00113881,-0.000138989,0.00449491,0.000150528,0,0,0,-0.00126244,0,1.07383e-07,0,0,0,0.0702415,-0.0246,0.588057,0,0,0,0,0,0
0.0117804,6.05609e-07,-1.10831,2.29971e-07,2.21656,-1.16809e-06,0.610903,1.26506e-06,7.87497e-05,-0.0036674,2.99072e-05,-0.00124455,-0.000151884,0.00491195,0.000164494,0,0,0,-0.00137956,0,1.40127e-07,0,0,0,0.0702401,-0.0246,0.588057,0,0,0,0,0,0
0.0127805,6.91054e-07,-1.10832,2.62422e-07,2.21656,-1.33289e-06,0.610908,1.44354e-06,8.54366e-05,-0.0039787,3.24476e-05,-0.00135031,-0.000164778,0.00532901,0.00017846,0,0,0,-0.00149668,0,1.78931e-07,0,0,0,0.0702386,-0.0246,0.588057,0,0,0,0,0,0
0.0137806,7.83187e-07,-1.10832,2.97414e-07,2.21656,-1.51058e-06,0.610914,1.63598e-06,9.21238e-05,-0.00428998,3.49883e-05,-0.00145609,-0.000177673,0.00574607,0.000192426,0,0,0,-0.0016138,0,2.24309e-07,0,0,0,0.070237,-0.0246,0.588057,0,0,0,0,0,0
0.0147807,8.82008e-07,-1.10833,3.34947e-07,2.21655,-1.70117e-06,0.61092,1.84239e-06,9.88115e-05,-0.00460125,3.75294e-05,-0.0015619,-0.000190568,0.00616315,0.000206392,0,0,0,-0.00173092,0,2.76776e-07,0,0,0,0.0702353,-0.0246,0.588057,0,0,0,0,0,0
0.0157808,9.87518e-07,-1.10833,3.75022e-07,2.21655,-1.90465e-06,0.610927,2.06277e-06,0.0001055,-0.00491251,4.0071e-05,-0.00166774,-0.000203463,0.00658025,0.000220359,0,0,0,-0.00184804,0,3.36845e-07,0,0,0,0.0702334,-0.0246,0.588057,0,0,0,0,0,0
0.0167809,1.09972e-06,-1.10834,4.17639e-07,2.21655,-2.12103e-06,0.610934,2.29712e-06,0.000112188,-0.00522375,4.26129e-05,-0.00177361,-0.000216359,0.00699736,0.000234326,0,0,0,-0.00196516,0,4.05032e-07,0,0,0,0.0702315,-0.0246,0.588057,0,0,0,0,0,0
0.017781,1.21861e-06,-1.10834,4.62799e-07,2.21655,-2.35031e-06,0.610941,2.54544e-06,0.000118877,-0.00553498,4.51554e-05,-0.00187951,-0.000229254,0.00741449,0.000248294,0,0,0,-0.00208227,0,4.8185e-07,0,0,0,0.0702294,-0.0246,0.588057,0,0,0,0,0,0
0.0187811,1.34419e-06,-1.10835,5.10502e-07,2.21655,-2.59248e-06,0.610949,2.80773e-06,0.000125566,-0.00584619,4.76983e-05,-0.00198545,-0.00024215,0.00783163,0.000262262,0,0,0,-0.00219939,0,5.67814e-07,0,0,0,0.0702272,-0.0246,0.588057,0,0,0,0,0,0
0.0197812,1.47645e-06,-1.10835,5.60749e-07,2.21654,-2.84755e-06,0.610957,3.08399e-06,0.000132256,-0.00615738,5.02417e-05,-0.00209142,-0.000255046,0.0082488,0.00027623,0,0,0,-0.00231651,0,6.63439e-07,0,0,0,0.0702249,-0.0246,0.588057,0,0,0,0,0,0
0.0207814,1.61543e-06,-1.10836,6.13545e-07,2.21654,-3.11555e-06,0.610966,3.37425e-06,0.000138947,-0.00646858,5.2786e-05,-0.00219745,-0.000267943,0.00866603,0.0002902,0,0,0,-0.00243364,0,7.6925e-07,0,0,0,0.0702224,-0.0246,0.588057,0,0,0,0,0,0
0.0218603,1.77313e-06,-1.10837,6.73458e-07,2.21654,-3.41964e-06,0.610976,3.7036e-06,0.000146165,-0.00680425,5.55307e-05,-0.00231185,-0.000281855,0.0091161,0.00030527,0,0,0,-0.00255999,0,8.95389e-07,0,0,0,0.0702197,-0.0246,0.588057,0,0,0,0,0,0
0.0229297,1.93709e-06,-1.10837,7.35753e-07,2.21654,-3.7358e-06,0.610986,4.04603e-06,0.000153321,-0.00713694,5.82524e-05,-0.00242531,-0.000295645,0.00956224,0.000320207,0,0,0,-0.00268522,0,1.03333e-06,0,0,0,0.0702168,-0.0246,0.588057,0,0,0,0,0,0
0.0243784,2.17325e-06,-1.10839,8.25483e-07,2.21653,-4.19117e-06,0.611001,4.53923e-06,0.000163014,-0.00758761,6.19385e-05,-0.00257905,-0.000314327,0.0101667,0.000340443,0,0,0,-0.00285487,0,1.24182e-06,0,0,0,0.0702127,-0.0246,0.588057,0,0,0,0,0,0
0.0254813,2.36118e-06,-1.10839,8.96895e-07,2.21653,-4.55353e-06,0.611013,4.9317e-06,0.000170397,-0.00793063,6.4749e-05,-0.00269621,-0.000328549,0.0106269,0.000355851,0,0,0,-0.00298403,0,1.4181e-06,0,0,0,0.0702094,-0.0246,0.588057,0,0,0,0,0,0
0.0264954,2.54086e-06,-1.1084,9.65177e-07,2.21653,-4.89997e-06,0.611024,5.30694e-06,0.000177185,-0.00824603,6.73328e-05,-0.00280398,-0.000341627,0.01105,0.000370018,0,0,0,-0.00310279,0,1.59424e-06,0,0,0,0.0702062,-0.0246,0.588057,0,0,0,0,0,0
0.0275271,2.73079e-06,-1.10841,1.03736e-06,2.21652,-5.26615e-06,0.611036,5.70355e-06,0.000184091,-0.00856688,6.99617e-05,-0.00291366,-0.000354932,0.0114805,0.000384432,0,0,0,-0.00322361,0,1.78782e-06,0,0,0,0.0702029,-0.0246,0.588057,0,0,0,0,0,0
0.0285527,2.92663e-06,-1.10842,1.11179e-06,2.21652,-5.64374e-06,0.611048,6.11252e-06,0.000190958,-0.0088858,7.25759e-05,-0.00302275,-0.000368159,0.0119086,0.000398761,0,0,0,-0.00334371,0,1.99519e-06,0,0,0,0.0701995,-0.0246,0.588057,0,0,0,0,0,0
0.0295834,3.13057e-06,-1.10843,1.1893e-06,2.21652,-6.0369e-06,0.61106,6.53837e-06,0.000197859,-0.00920628,7.52039e-05,-0.00313245,-0.000381452,0.0123387,0.000413162,0,0,0,-0.00346441,0,2.21915e-06,0,0,0,0.0701959,-0.0246,0.588057,0,0,0,0,0,0
0.0306443,3.34801e-06,-1.10844,1.27196e-06,2.21652,-6.4561e-06,0.611074,6.99242e-06,0.000204964,-0.00953612,7.79096e-05,-0.00324541,-0.000395134,0.0127815,0.000427985,0,0,0,-0.00358865,0,2.46656e-06,0,0,0,0.0701921,-0.0246,0.588057,0,0,0,0,0,0
0.0316444,3.5597e-06,-1.10845,1.35243e-06,2.21651,-6.86417e-06,0.611087,7.43442e-06,0.000211662,-0.00984702,8.04619e-05,-0.00335198,-0.000408033,0.013199,0.00044196,0,0,0,-0.00370577,0,2.71603e-06,0,0,0,0.0701884,-0.0246,0.588057,0,0,0,0,0,0
0.0326446,3.7781e-06,-1.10846,1.43546e-06,2.21651,-7.28519e-06,0.611101,7.89045e-06,0.000218362,-0.0101579,8.30148e-05,-0.00345861,-0.000420933,0.0136165,0.000455937,0,0,0,-0.0038229,0,2.98179e-06,0,0,0,0.0701846,-0.0246,0.588057,0,0,0,0,0,0
0.0336447,4.00319e-06,-1.10847,1.52104e-06,2.2165,-7.71906e-06,0.611115,8.36041e-06,0.000225062,-0.0104688,8.55684e-05,-0.0035653,-0.000433832,0.0140341,0.000469913,0,0,0,-0.00394002,0,3.26432e-06,0,0,0,0.0701806,-0.0246,0.588057,0,0,0,0,0,0
0.0346448,4.23497e-06,-1.10848,1.60917e-06,2.2165,-8.16584e-06,0.611129,8.84435e-06,0.000231763,-0.0107796,8.81229e-05,-0.00367205,-0.000446732,0.0144516,0.00048389,0,0,0,-0.00405714,0,3.56416e-06,0,0,0,0.0701766,-0.0246,0.588057,0,0,0,0,0,0
0.0356449,4.47346e-06,-1.10849,1.69985e-06,2.2165,-8.62552e-06,0.611144,9.34227e-06,0.000238465,-0.0110904,9.06783e-05,-0.00377886,-0.000459632,0.0148692,0.000497868,0,0,0,-0.00417425,0,3.88182e-06,0,0,0,0.0701724,-0.0246,0.588057,0,0,0,0,0,0
0.036645,4.71866e-06,-1.1085,1.7931e-06,2.21649,-9.0981e-06,0.61116,9.85417e-06,0.000245168,-0.0114011,9.32348e-05,-0.00388575,-0.000472532,0.0152869,0.000511846,0,0,0,-0.00429137,0,4.21781e-06,0,0,0,0.0701681,-0.0246,0.588057,0,0,0,0,0,0
0.0376451,4.97055e-06,-1.10852,1.8889e-06,2.21649,-9.58358e-06,0.611175,1.038e-05,0.000251872,-0.0117118,9.57923e-05,-0.00399271,-0.000485433,0.0157045,0.000525825,0,0,0,-0.00440849,0,4.57266e-06,0,0,0,0.0701637,-0.0246,0.588057,0,0,0,0,0,0
0.0386452,5.22916e-06,-1.10853,1.98726e-06,2.21649,-1.0082e-05,0.611191,1.09199e-05,0.000258577,-0.0120225,9.83508e-05,-0.00409974,-0.000498334,0.0161222,0.000539805,0,0,0,-0.00452561,0,4.94686e-06,0,0,0,0.0701592,-0.0246,0.588057,0,0,0,0,0,0
0.0396453,5.49447e-06,-1.10854,2.08818e-06,2.21648,-1.05933e-05,0.611208,1.14737e-05,0.000265283,-0.0123331,0.00010091,-0.00420685,-0.000511235,0.01654,0.000553786,0,0,0,-0.00464273,0,5.34095e-06,0,0,0,0.0701545,-0.0246,0.588057,0,0,0,0,0,0
0.0406454,5.76648e-06,-1.10855,2.19166e-06,2.21648,-1.11174e-05,0.611225,1.20416e-05,0.00027199,-0.0126437,0.000103471,-0.00431404,-0.000524137,0.0169578,0.000567768,0,0,0,-0.00475984,0,5.75542e-06,0,0,0,0.0701498,-0.0246,0.588057,0,0,0,0,0,0
0.0416455,6.04521e-06,-1.10857,2.29771e-06,2.21647,-1.16545e-05,0.611242,1.26234e-05,0.000278699,-0.0129543,0.000106033,-0.00442131,-0.000537039,0.0173756,0.00058175,0,0,0,-0.00487696,0,6.19081e-06,0,0,0,0.0701449,-0.0246,0.588057,0,0,0,0,0,0
0.0426456,6.33065e-06,-1.10858,2.40631e-06,2.21647,-1.22045e-05,0.61126,1.32192e-05,0.000285408,-0.0132648,0.000108596,-0.00452865,-0.000549942,0.0177935,0.000595734,0,0,0,-0.00499408,0,6.64761e-06,0,0,0,0.0701399,-0.0246,0.588057,0,0,0,0,0,0
0.0436457,6.62279e-06,-1.10859,2.51749e-06,2.21646,-1.27674e-05,0.611278,1.3829e-05,0.000292119,-0.0135753,0.00011116,-0.00463608,-0.000562845,0.0182114,0.000609718,0,0,0,-0.0051112,0,7.12636e-06,0,0,0,0.0701348,-0.0246,0.588057,0,0,0,0,0,0
0.0446458,6.92166e-06,-1.10861,2.63122e-06,2.21646,-1.33432e-05,0.611297,1.44527e-05,0.000298831,-0.0138857,0.000113726,-0.0047436,-0.000575748,0.0186293,0.000623703,0,0,0,-0.00522832,0,7.62755e-06,0,0,0,0.0701296,-0.0246,0.588057,0,0,0,0,0,0
0.0456459,7.22723e-06,-1.10862,2.74753e-06,2.21645,-1.39319e-05,0.611316,1.50905e-05,0.000305544,-0.0141961,0.000116292,-0.0048512,-0.000588652,0.0190473,0.00063769,0,0,0,-0.00534543,0,8.1517e-06,0,0,0,0.0701242,-0.0246,0.588057,0,0,0,0,0,0
0.046646,7.53952e-06,-1.10863,2.8664e-06,2.21645,-1.45336e-05,0.611335,1.57422e-05,0.000312258,-0.0145065,0.00011886,-0.0049589,-0.000601556,0.0194654,0.000651677,0,0,0,-0.00546255,0,8.69934e-06,0,0,0,0.0701188,-0.0246,0.588057,0,0,0,0,0,0
0.0476461,7.85853e-06,-1.10865,2.98784e-06,2.21644,-1.51481e-05,0.611355,1.64079e-05,0.000318974,-0.0148168,0.00012143,-0.00506668,-0.000614461,0.0198835,0.000665665,0,0,0,-0.00557967,0,9.27097e-06,0,0,0,0.0701132,-0.0246,0.588057,0,0,0,0,0,0
0.0486462,8.18425e-06,-1.10866,3.11185e-06,2.21644,-1.57755e-05,0.611376,1.70877e-05,0.000325691,-0.015127,0.000124,-0.00517456,-0.000627366,0.0203016,0.000679654,0,0,0,-0.00569679,0,9.86711e-06,0,0,0,0.0701075,-0.0246,0.588057,0,0,0,0,0,0
0.0496463,8.51669e-06,-1.10868,3.23844e-06,2.21643,-1.64158e-05,0.611396,1.77814e-05,0.000332409,-0.0154373,0.000126572,-0.00528253,-0.000640271,0.0207198,0.000693645,0,0,0,-0.0058139,0,1.04883e-05,0,0,0,0.0701017,-0.0246,0.588057,0,0,0,0,0,0
0.0506464,8.85585e-06,-1.1087,3.3676e-06,2.21643,-1.70691e-05,0.611417,1.84891e-05,0.000339129,-0.0157474,0.000129146,-0.0053906,-0.000653177,0.021138,0.000707636,0,0,0,-0.00593102,0,1.1135e-05,0,0,0,0.0700957,-0.0246,0.588057,0,0,0,0,0,0
0.0516465,9.20174e-06,-1.10871,3.49933e-06,2.21642,-1.77352e-05,0.611439,1.92108e-05,0.00034585,-0.0160575,0.00013172,-0.00549877,-0.000666084,0.0215563,0.000721628,0,0,0,-0.00604814,0,1.18077e-05,0,0,0,0.0700897,-0.0246,0.588057,0,0,0,0,0,0
0.0526466,9.55435e-06,-1.10873,3.63364e-06,2.21642,-1.84143e-05,0.611461,1.99465e-05,0.000352573,-0.0163676,0.000134297,-0.00560704,-0.000678991,0.0219747,0.000735622,0,0,0,-0.00616526,0,1.2507e-05,0,0,0,0.0700835,-0.0246,0.588057,0,0,0,0,0,0
0.0536467,9.91368e-06,-1.10875,3.77053e-06,2.21641,-1.91063e-05,0.611483,2.06962e-05,0.000359297,-0.0166776,0.000136874,-0.00571541,-0.000691898,0.022393,0.000749617,0,0,0,-0.00628237,0,1.32334e-05,0,0,0,0.0700772,-0.0246,0.588057,0,0,0,0,0,0
0.0546468,1.02797e-05,-1.10876,3.91e-06,2.21641,-1.98111e-05,0.611506,2.14599e-05,0.000366023,-0.0169876,0.000139454,-0.00582389,-0.000704806,0.0228115,0.000763613,0,0,0,-0.00639949,0,1.39874e-05,0,0,0,0.0700708,-0.0246,0.588057,0,0,0,0,0,0
0.0556469,1.06525e-05,-1.10878,4.05204e-06,2.2164,-2.05289e-05,0.611529,2.22376e-05,0.00037275,-0.0172975,0.000142034,-0.00593247,-0.000717715,0.02323,0.00077761,0,0,0,-0.00651661,0,1.47695e-05,0,0,0,0.0700643,-0.0246,0.588057,0,0,0,0,0,0
0.056647,1.1032e-05,-1.1088,4.19668e-06,2.21639,-2.12596e-05,0.611553,2.30292e-05,0.000379479,-0.0176074,0.000144617,-0.00604116,-0.000730624,0.0236485,0.000791608,0,0,0,-0.00663372,0,1.55802e-05,0,0,0,0.0700577,-0.0246,0.588057,0,0,0,0,0,0
0.0576471,1.14183e-05,-1.10881,4.34389e-06,2.21639,-2.20032e-05,0.611577,2.38349e-05,0.000386209,-0.0179172,0.0001472,-0.00614997,-0.000743533,0.0240672,0.000805607,0,0,0,-0.00675084,0,1.64201e-05,0,0,0,0.0700509,-0.0246,0.588057,0,0,0,0,0,0
0.0586472,1.18113e-05,-1.10883,4.49369e-06,2.21638,-2.27598e-05,0.611602,2.46546e-05,0.000392941,-0.0182269,0.000149786,-0.00625888,-0.000756443,0.0244858,0.000819608,0,0,0,-0.00686796,0,1.72896e-05,0,0,0,0.0700441,-0.0246,0.588057,0,0,0,0,0,0
0.0596473,1.2211e-05,-1.10885,4.64608e-06,2.21637,-2.35292e-05,0.611627,2.54883e-05,0.000399674,-0.0185366,0.000152373,-0.00636792,-0.000769354,0.0249045,0.00083361,0,0,0,-0.00698507,0,1.81893e-05,0,0,0,0.0700371,-0.0246,0.588057,0,0,0,0,0,0
0.0606475,1.26175e-05,-1.10887,4.80107e-06,2.21637,-2.43116e-05,0.611652,2.63361e-05,0.00040641,-0.0188463,0.000154962,-0.00647707,-0.000782266,0.0253234,0.000847614,0,0,0,-0.0071022,0,1.91197e-05,0,0,0,0.07003,-0.0246,0.588057,0,0,0,0,0,0
0.0616996,1.30525e-05,-1.10889,4.96697e-06,2.21636,-2.51489e-05,0.611679,2.72434e-05,0.000413496,-0.019172,0.000157686,-0.006592,-0.000795849,0.025764,0.000862346,0,0,0,-0.00722541,0,2.01321e-05,0,0,0,0.0700224,-0.0246,0.588057,0,0,0,0,0,0
0.0627293,1.34854e-05,-1.10891,5.13209e-06,2.21635,-2.59821e-05,0.611706,2.81462e-05,0.000420434,-0.0194906,0.000160355,-0.00670465,-0.000809144,0.0261953,0.000876767,0,0,0,-0.00734599,0,2.1157e-05,0,0,0,0.0700148,-0.0246,0.588057,0,0,0,0,0,0
0.0637552,1.39239e-05,-1.10893,5.29933e-06,2.21635,-2.68258e-05,0.611733,2.90604e-05,0.000427349,-0.0198081,0.000163017,-0.00681699,-0.00082239,0.0266251,0.000891135,0,0,0,-0.00746613,0,2.22121e-05,0,0,0,0.0700071,-0.0246,0.588057,0,0,0,0,0,0
0.0647846,1.43709e-05,-1.10895,5.46989e-06,2.21634,-2.7686e-05,0.611761,2.99926e-05,0.000434288,-0.0201265,0.000165689,-0.00692985,-0.000835681,0.0270564,0.000905554,0,0,0,-0.00758667,0,2.33055e-05,0,0,0,0.0699993,-0.0246,0.588057,0,0,0,0,0,0
0.0658335,1.48339e-05,-1.10897,5.64654e-06,2.21633,-2.85768e-05,0.61179,3.09578e-05,0.000441361,-0.020451,0.000168412,-0.00704498,-0.000849226,0.027496,0.000920247,0,0,0,-0.0077095,0,2.44559e-05,0,0,0,0.0699912,-0.0246,0.588057,0,0,0,0,0,0
0.0668866,1.53061e-05,-1.109,5.82678e-06,2.21633,-2.94854e-05,0.611819,3.19425e-05,0.000448464,-0.0207766,0.00017115,-0.00716072,-0.000862825,0.0279373,0.000935001,0,0,0,-0.00783282,0,2.56484e-05,0,0,0,0.069983,-0.0246,0.588057,0,0,0,0,0,0
0.0679415,1.57867e-05,-1.10902,6.01022e-06,2.21632,-3.041e-05,0.611849,3.29444e-05,0.000455582,-0.0211027,0.000173894,-0.0072768,-0.000876448,0.0283796,0.000949782,0,0,0,-0.00795636,0,2.68811e-05,0,0,0,0.0699746,-0.0246,0.588057,0,0,0,0,0,0
0.0689914,1.62725e-05,-1.10904,6.19566e-06,2.21631,-3.13444e-05,0.61188,3.3957e-05,0.000462668,-0.0214272,0.000176628,-0.00739248,-0.000890007,0.0288197,0.000964494,0,0,0,-0.0080793,0,2.81467e-05,0,0,0,0.0699661,-0.0246,0.588057,0,0,0,0,0,0
0.0700557,1.67725e-05,-1.10906,6.38659e-06,2.2163,-3.23063e-05,0.611911,3.49994e-05,0.000469853,-0.0217561,0.0001794,-0.00750989,-0.000903753,0.0292661,0.00097941,0,0,0,-0.00820394,0,2.94695e-05,0,0,0,0.0699574,-0.0246,0.588057,0,0,0,0,0,0
0.0712034,1.73207e-05,-1.10909,6.59592e-06,2.21629,-3.33605e-05,0.611945,3.61419e-05,0.000477601,-0.0221108,0.000182389,-0.00763664,-0.000918577,0.0297474,0.000995495,0,0,0,-0.00833834,0,3.09417e-05,0,0,0,0.0699478,-0.0246,0.588057,0,0,0,0,0,0
0.0722035,1.78051e-05,-1.10911,6.78095e-06,2.21629,-3.42921e-05,0.611975,3.71515e-05,0.000484363,-0.0224196,0.000185006,-0.00774736,-0.000931495,0.030167,0.00100952,0,0,0,-0.00845545,0,3.22639e-05,0,0,0,0.0699394,-0.0246,0.588057,0,0,0,0,0,0
0.0732036,1.82963e-05,-1.10913,6.96858e-06,2.21628,-3.52366e-05,0.612006,3.81752e-05,0.000491122,-0.0227284,0.000187618,-0.00785814,-0.000944414,0.0305866,0.00102354,0,0,0,-0.00857256,0,3.36232e-05,0,0,0,0.0699308,-0.0246,0.588057,0,0,0,0,0,0
0.0742777,1.88316e-05,-1.10916,7.17312e-06,2.21627,-3.62659e-05,0.612039,3.92907e-05,0.000498379,-0.0230601,0.000190423,-0.00797723,-0.000958289,0.0310373,0.0010386,0,0,0,-0.00869834,0,3.51251e-05,0,0,0,0.0699214,-0.0246,0.588057,0,0,0,0,0,0
0.0752778,1.93368e-05,-1.10918,7.36618e-06,2.21626,-3.72372e-05,0.61207,4.03435e-05,0.000505145,-0.0233687,0.000193043,-0.00808836,-0.000971209,0.0314571,0.00105262,0,0,0,-0.00881546,0,3.65631e-05,0,0,0,0.0699126,-0.0246,0.588057,0,0,0,0,0,0
0.0762779,1.98487e-05,-1.10921,7.56186e-06,2.21625,-3.82215e-05,0.612102,4.14102e-05,0.00051191,-0.0236773,0.000195661,-0.00819958,-0.00098413,0.0318769,0.00106665,0,0,0,-0.00893257,0,3.80398e-05,0,0,0,0.0699037,-0.0246,0.588057,0,0,0,0,0,0
0.077278,2.03675e-05,-1.10923,7.76016e-06,2.21624,-3.92186e-05,0.612135,4.2491e-05,0.000518676,-0.0239858,0.000198282,-0.00831095,-0.000997051,0.0322968,0.00108067,0,0,0,-0.00904968,0,3.95557e-05,0,0,0,0.0698946,-0.0246,0.588057,0,0,0,0,0,0
0.0782781,2.0893e-05,-1.10925,7.96109e-06,2.21624,-4.02287e-05,0.612167,4.35858e-05,0.000525445,-0.0242943,0.000200905,-0.00842248,-0.00100997,0.0327168,0.0010947,0,0,0,-0.0091668,0,4.11114e-05,0,0,0,0.0698855,-0.0246,0.588058,0,0,0,0,0,0
0.0792782,2.14252e-05,-1.10928,8.16464e-06,2.21623,-4.12517e-05,0.6122,4.46947e-05,0.000532216,-0.0246027,0.00020353,-0.00853415,-0.0010229,0.0331369,0.00110873,0,0,0,-0.00928391,0,4.27074e-05,0,0,0,0.0698762,-0.0246,0.588058,0,0,0,0,0,0
0.0802783,2.19643e-05,-1.1093,8.37081e-06,2.21622,-4.22876e-05,0.612234,4.58175e-05,0.00053899,-0.024911,0.000206157,-0.00864599,-0.00103582,0.033557,0.00112277,0,0,0,-0.00940102,0,4.43441e-05,0,0,0,0.0698668,-0.0246,0.588058,0,0,0,0,0,0
0.0812784,2.25101e-05,-1.10933,8.57962e-06,2.21621,-4.33364e-05,0.612268,4.69544e-05,0.000545765,-0.0252192,0.000208787,-0.00875797,-0.00104874,0.0339772,0.0011368,0,0,0,-0.00951813,0,4.60222e-05,0,0,0,0.0698573,-0.0246,0.588058,0,0,0,0,0,0
0.0822785,2.30627e-05,-1.10935,8.79106e-06,2.2162,-4.43982e-05,0.612302,4.81054e-05,0.000552543,-0.0255274,0.000211419,-0.00887012,-0.00106167,0.0343975,0.00115083,0,0,0,-0.00963524,0,4.7742e-05,0,0,0,0.0698476,-0.0246,0.588058,0,0,0,0,0,0
0.0832786,2.36221e-05,-1.10938,9.00514e-06,2.21619,-4.54729e-05,0.612337,4.92704e-05,0.000559323,-0.0258354,0.000214053,-0.00898243,-0.00107459,0.0348179,0.00116487,0,0,0,-0.00975235,0,4.95042e-05,0,0,0,0.0698379,-0.0246,0.588058,0,0,0,0,0,0
0.0842787,2.41882e-05,-1.10941,9.22185e-06,2.21618,-4.65606e-05,0.612372,5.04494e-05,0.000566106,-0.0261434,0.000216689,-0.0090949,-0.00108752,0.0352384,0.00117891,0,0,0,-0.00986946,0,5.13091e-05,0,0,0,0.069828,-0.0246,0.588058,0,0,0,0,0,0
0.0852788,2.47612e-05,-1.10943,9.4412e-06,2.21617,-4.76611e-05,0.612408,5.16425e-05,0.00057289,-0.0264513,0.000219328,-0.00920754,-0.00110045,0.0356589,0.00119295,0,0,0,-0.00998657,0,5.31575e-05,0,0,0,0.069818,-0.0246,0.588058,0,0,0,0,0,0
0.0862789,2.53409e-05,-1.10946,9.66319e-06,2.21616,-4.87746e-05,0.612444,5.28496e-05,0.000579677,-0.0267591,0.00022197,-0.00932034,-0.00111338,0.0360795,0.00120699,0,0,0,-0.0101037,0,5.50497e-05,0,0,0,0.0698079,-0.0246,0.588058,0,0,0,0,0,0
0.087279,2.59274e-05,-1.10949,9.88783e-06,2.21615,-4.9901e-05,0.612481,5.40708e-05,0.000586467,-0.0270669,0.000224613,-0.00943331,-0.0011263,0.0365002,0.00122104,0,0,0,-0.0102208,0,5.69863e-05,0,0,0,0.0697977,-0.0246,0.588058,0,0,0,0,0,0
0.0882792,2.65208e-05,-1.10951,1.01151e-05,2.21615,-5.10405e-05,0.612518,5.53061e-05,0.000593259,-0.0273746,0.00022726,-0.00954646,-0.00113924,0.0369211,0.00123508,0,0,0,-0.0103379,0,5.8968e-05,0,0,0,0.0697874,-0.0246,0.588058,0,0,0,0,0,0
0.0892793,2.71209e-05,-1.10954,1.03451e-05,2.21614,-5.21928e-05,0.612555,5.65553e-05,0.000600054,-0.0276821,0.000229908,-0.00965977,-0.00115217,0.0373419,0.00124913,0,0,0,-0.010455,0,6.09948e-05,0,0,0,0.0697769,-0.0246,0.588058,0,0,0,0,0,0
0.0902794,2.77278e-05,-1.10957,1.05776e-05,2.21613,-5.3358e-05,0.612593,5.78187e-05,0.000606851,-0.0279896,0.000232559,-0.00977326,-0.0011651,0.0377629,0.00126318,0,0,0,-0.0105721,0,6.30677e-05,0,0,0,0.0697663,-0.0246,0.588058,0,0,0,0,0,0
0.0914892,2.84719e-05,-1.1096,1.08629e-05,2.21611,-5.47864e-05,0.612639,5.93674e-05,0.000615062,-0.0283616,0.000235754,-0.00991057,-0.00118074,0.0382722,0.00128017,0,0,0,-0.0107138,0,6.56372e-05,0,0,0,0.0697534,-0.0246,0.588058,0,0,0,0,0,0
0.0926052,2.91668e-05,-1.10964,1.11293e-05,2.2161,-5.61202e-05,0.612682,6.08136e-05,0.000622659,-0.0287044,0.000238726,-0.0100377,-0.00119517,0.0387422,0.00129586,0,0,0,-0.0108445,0,6.80686e-05,0,0,0,0.0697413,-0.0246,0.588058,0,0,0,0,0,0
0.0936054,2.97964e-05,-1.10966,1.13707e-05,2.21609,-5.73286e-05,0.612721,6.21238e-05,0.000629473,-0.0290115,0.000241395,-0.010152,-0.00120811,0.0391635,0.00130992,0,0,0,-0.0109616,0,7.0298e-05,0,0,0,0.0697303,-0.0246,0.588058,0,0,0,0,0,0
0.0946056,3.04328e-05,-1.10969,1.16148e-05,2.21608,-5.85499e-05,0.612761,6.3448e-05,0.000636281,-0.0293187,0.000244057,-0.0102662,-0.00122104,0.0395849,0.00132398,0,0,0,-0.0110787,0,7.25756e-05,0,0,0,0.0697192,-0.0246,0.588058,0,0,0,0,0,0
0.0956057,3.1076e-05,-1.10972,1.18616e-05,2.21607,-5.9784e-05,0.612801,6.47862e-05,0.000643092,-0.0296257,0.000246722,-0.0103807,-0.00123398,0.0400064,0.00133804,0,0,0,-0.0111958,0,7.49016e-05,0,0,0,0.069708,-0.0246,0.588059,0,0,0,0,0,0
0.0966058,3.1726e-05,-1.10975,1.2111e-05,2.21606,-6.1031e-05,0.612841,6.61384e-05,0.000649905,-0.0299326,0.00024939,-0.0104953,-0.00124691,0.0404279,0.0013521,0,0,0,-0.0113129,0,7.72769e-05,0,0,0,0.0696967,-0.0246,0.588059,0,0,0,0,0,0
0.0976059,3.23828e-05,-1.10978,1.23631e-05,2.21605,-6.2291e-05,0.612882,6.75047e-05,0.00065672,-0.0302394,0.00025206,-0.0106101,-0.00125985,0.0408496,0.00136616,0,0,0,-0.01143,0,7.97018e-05,0,0,0,0.0696853,-0.0246,0.588059,0,0,0,0,0,0
0.098606,3.30464e-05,-1.10981,1.26178e-05,2.21604,-6.35639e-05,0.612924,6.88851e-05,0.000663539,-0.0305461,0.000254733,-0.0107252,-0.00127279,0.0412713,0.00138023,0,0,0,-0.0115471,0,8.21769e-05,0,0,0,0.0696737,-0.0246,0.588059,0,0,0,0,0,0
0.0996061,3.37168e-05,-1.10985,1.28753e-05,2.21603,-6.48498e-05,0.612965,7.02795e-05,0.00067036,-0.0308527,0.000257409,-0.0108404,-0.00128572,0.0416931,0.0013943,0,0,0,-0.0116642,0,8.47027e-05,0,0,0,0.0696621,-0.0246,0.588059,0,0,0,0,0,0
0.100606,3.4394e-05,-1.10988,1.31354e-05,2.21602,-6.61485e-05,0.613007,7.1688e-05,0.000677184,-0.0311592,0.000260088,-0.0109558,-0.00129866,0.042115,0.00140837,0,0,0,-0.0117813,0,8.72798e-05,0,0,0,0.0696503,-0.0246,0.588059,0,0,0,0,0,0
0.101606,3.50781e-05,-1.10991,1.33982e-05,2.21601,-6.74603e-05,0.61305,7.31106e-05,0.000684011,-0.0314656,0.000262769,-0.0110714,-0.0013116,0.042537,0.00142244,0,0,0,-0.0118984,0,8.99086e-05,0,0,0,0.0696384,-0.0246,0.588059,0,0,0,0,0,0
0.102606,3.5769e-05,-1.10994,1.36637e-05,2.216,-6.8785e-05,0.613093,7.45473e-05,0.00069084,-0.0317719,0.000265454,-0.0111871,-0.00132454,0.0429592,0.00143651,0,0,0,-0.0120155,0,9.25896e-05,0,0,0,0.0696264,-0.0246,0.588059,0,0,0,0,0,0
0.103607,3.64668e-05,-1.10997,1.39318e-05,2.21598,-7.01226e-05,0.613136,7.5998e-05,0.000697672,-0.0320782,0.000268141,-0.0113031,-0.00133749,0.0433814,0.00145059,0,0,0,-0.0121326,0,9.53235e-05,0,0,0,0.0696142,-0.0246,0.588059,0,0,0,0,0,0
0.104607,3.71713e-05,-1.11,1.42027e-05,2.21597,-7.14731e-05,0.61318,7.74628e-05,0.000704508,-0.0323843,0.000270831,-0.0114193,-0.00135043,0.0438037,0.00146466,0,0,0,-0.0122497,0,9.81106e-05,0,0,0,0.069602,-0.0246,0.588059,0,0,0,0,0,0
0.105607,3.78828e-05,-1.11004,1.44763e-05,2.21596,-7.28368e-05,0.613224,7.89418e-05,0.000711346,-0.0326903,0.000273524,-0.0115358,-0.00136337,0.0442261,0.00147875,0,0,0,-0.0123668,0,0.000100952,0,0,0,0.0695896,-0.0246,0.588059,0,0,0,0,0,0
0.106681,3.86551e-05,-1.11007,1.47733e-05,2.21595,-7.43168e-05,0.613272,8.05472e-05,0.00071869,-0.0330191,0.000276414,-0.0116609,-0.00137728,0.0446801,0.00149387,0,0,0,-0.0124927,0,0.000104065,0,0,0,0.0695762,-0.0246,0.58806,0,0,0,0,0,0
0.107682,3.93808e-05,-1.11011,1.50525e-05,2.21594,-7.57073e-05,0.613317,8.20554e-05,0.000725542,-0.0333248,0.000279121,-0.0117779,-0.00139023,0.0451028,0.00150796,0,0,0,-0.0126098,0,0.000107019,0,0,0,0.0695636,-0.0246,0.58806,0,0,0,0,0,0
0.108682,4.01133e-05,-1.11014,1.53343e-05,2.21593,-7.71106e-05,0.613363,8.35776e-05,0.000732389,-0.0336305,0.000281823,-0.0118949,-0.00140317,0.0455255,0.00152205,0,0,0,-0.0127269,0,0.000110029,0,0,0,0.0695508,-0.0246,0.58806,0,0,0,0,0,0
0.109682,4.08526e-05,-1.11017,1.56189e-05,2.21591,-7.85269e-05,0.613409,8.51139e-05,0.000739239,-0.0339361,0.000284528,-0.0120122,-0.00141612,0.0459484,0.00153614,0,0,0,-0.012844,0,0.000113094,0,0,0,0.069538,-0.0246,0.58806,0,0,0,0,0,0
0.110682,4.15989e-05,-1.11021,1.59062e-05,2.2159,-7.99564e-05,0.613455,8.66646e-05,0.000746093,-0.0342416,0.000287237,-0.0121297,-0.00142907,0.0463714,0.00155023,0,0,0,-0.0129611,0,0.000116217,0,0,0,0.069525,-0.0246,0.58806,0,0,0,0,0,0
0.111682,4.23519e-05,-1.11024,1.61962e-05,2.21589,-8.13986e-05,0.613502,8.82291e-05,0.000752949,-0.034547,0.000289949,-0.0122473,-0.00144202,0.0467944,0.00156432,0,0,0,-0.0130782,0,0.000119396,0,0,0,0.069512,-0.0246,0.58806,0,0,0,0,0,0
0.112682,4.31118e-05,-1.11028,1.64889e-05,2.21588,-8.28537e-05,0.613549,8.98077e-05,0.000759809,-0.0348522,0.000292663,-0.0123652,-0.00145497,0.0472176,0.00157842,0,0,0,-0.0131953,0,0.000122632,0,0,0,0.0694988,-0.0246,0.58806,0,0,0,0,0,0
0.113682,4.38786e-05,-1.11031,1.67843e-05,2.21586,-8.43217e-05,0.613597,9.14003e-05,0.000766671,-0.0351574,0.000295381,-0.0124834,-0.00146792,0.0476408,0.00159252,0,0,0,-0.0133124,0,0.000125926,0,0,0,0.0694854,-0.0246,0.58806,0,0,0,0,0,0
0.114683,4.46523e-05,-1.11035,1.70824e-05,2.21585,-8.58029e-05,0.613645,9.30073e-05,0.000773537,-0.0354624,0.000298102,-0.0126017,-0.00148087,0.0480642,0.00160662,0,0,0,-0.0134295,0,0.000129279,0,0,0,0.069472,-0.0246,0.58806,0,0,0,0,0,0
0.115683,4.54328e-05,-1.11038,1.73833e-05,2.21584,-8.72969e-05,0.613694,9.46282e-05,0.000780406,-0.0357673,0.000300827,-0.0127203,-0.00149382,0.0484877,0.00162072,0,0,0,-0.0135466,0,0.000132691,0,0,0,0.0694585,-0.0246,0.588061,0,0,0,0,0,0
0.116683,4.62201e-05,-1.11042,1.76869e-05,2.21583,-8.88038e-05,0.613743,9.62632e-05,0.000787277,-0.0360721,0.000303554,-0.0128391,-0.00150678,0.0489113,0.00163482,0,0,0,-0.0136637,0,0.000136162,0,0,0,0.0694448,-0.0246,0.588061,0,0,0,0,0,0
0.117683,4.70143e-05,-1.11046,1.79932e-05,2.21581,-9.03237e-05,0.613792,9.79123e-05,0.000794152,-0.0363768,0.000306285,-0.0129581,-0.00151973,0.049335,0.00164893,0,0,0,-0.0137807,0,0.000139693,0,0,0,0.069431,-0.0246,0.588061,0,0,0,0,0,0
0.118683,4.78154e-05,-1.11049,1.83023e-05,2.2158,-9.18565e-05,0.613842,9.95755e-05,0.00080103,-0.0366814,0.000309019,-0.0130773,-0.00153269,0.0497588,0.00166304,0,0,0,-0.0138978,0,0.000143285,0,0,0,0.0694171,-0.0246,0.588061,0,0,0,0,0,0
0.119683,4.86234e-05,-1.11053,1.8614e-05,2.21579,-9.34023e-05,0.613892,0.000101253,0.000807912,-0.0369858,0.000311756,-0.0131968,-0.00154564,0.0501827,0.00167715,0,0,0,-0.0140149,0,0.000146938,0,0,0,0.0694031,-0.0246,0.588061,0,0,0,0,0,0
0.120683,4.94384e-05,-1.11057,1.89286e-05,2.21577,-9.49612e-05,0.613942,0.000102944,0.000814797,-0.0372902,0.000314497,-0.0133165,-0.0015586,0.0506068,0.00169127,0,0,0,-0.014132,0,0.000150653,0,0,0,0.069389,-0.0246,0.588061,0,0,0,0,0,0
0.121683,5.02603e-05,-1.1106,1.92459e-05,2.21576,-9.65331e-05,0.613993,0.00010465,0.000821686,-0.0375944,0.000317242,-0.0134365,-0.00157156,0.051031,0.00170538,0,0,0,-0.0142491,0,0.000154429,0,0,0,0.0693747,-0.0246,0.588061,0,0,0,0,0,0
0.12274,5.11357e-05,-1.11064,1.9584e-05,2.21575,-9.82073e-05,0.614048,0.000106467,0.000828957,-0.0379156,0.000320136,-0.0135633,-0.00158524,0.051479,0.00172029,0,0,0,-0.0143728,0,0.000158485,0,0,0,0.0693595,-0.0246,0.588062,0,0,0,0,0,0
0.123856,5.20694e-05,-1.11069,1.99447e-05,2.21573,-9.99926e-05,0.614106,0.000108404,0.000836644,-0.0382549,0.000323198,-0.0136976,-0.0015997,0.0519525,0.00173604,0,0,0,-0.0145034,0,0.000162847,0,0,0,0.0693434,-0.0246,0.588062,0,0,0,0,0,0
0.124994,5.3031e-05,-1.11073,2.03163e-05,2.21571,-0.000101831,0.614166,0.000110399,0.000844495,-0.0386008,0.000326332,-0.013835,-0.00161446,0.0524358,0.00175212,0,0,0,-0.0146367,0,0.00016738,0,0,0,0.0693267,-0.0246,0.588062,0,0,0,0,0,0
0.125994,5.38824e-05,-1.11077,2.06454e-05,2.2157,-0.000103458,0.614218,0.000112166,0.000851414,-0.0389042,0.00032911,-0.0139562,-0.00162742,0.0528605,0.00176626,0,0,0,-0.0147538,0,0.00017143,0,0,0,0.0693119,-0.0246,0.588062,0,0,0,0,0,0
0.126994,5.47409e-05,-1.11081,2.09773e-05,2.21569,-0.000105099,0.614272,0.000113946,0.00085832,-0.0392078,0.000331872,-0.0140774,-0.00164038,0.0532853,0.00178038,0,0,0,-0.0148709,0,0.000175544,0,0,0,0.0692971,-0.0246,0.588062,0,0,0,0,0,0
0.127995,5.56062e-05,-1.11085,2.1312e-05,2.21567,-0.000106752,0.614325,0.000115741,0.00086523,-0.0395112,0.000334638,-0.0141989,-0.00165335,0.0537102,0.00179451,0,0,0,-0.0149879,0,0.000179724,0,0,0,0.0692821,-0.0246,0.588063,0,0,0,0,0,0
0.128995,5.64784e-05,-1.11089,2.16494e-05,2.21566,-0.000108419,0.61438,0.00011755,0.000872143,-0.0398145,0.000337408,-0.0143206,-0.00166631,0.0541352,0.00180865,0,0,0,-0.015105,0,0.00018397,0,0,0,0.069267,-0.0246,0.588063,0,0,0,0,0,0
0.129995,5.73575e-05,-1.11093,2.19896e-05,2.21564,-0.000110098,0.614434,0.000119373,0.000879059,-0.0401176,0.000340182,-0.0144426,-0.00167928,0.0545603,0.00182278,0,0,0,-0.0152221,0,0.000188282,0,0,0,0.0692517,-0.0246,0.588063,0,0,0,0,0,0
0.130995,5.82436e-05,-1.11097,2.23326e-05,2.21563,-0.000111791,0.614489,0.00012121,0.000885979,-0.0404207,0.000342959,-0.0145648,-0.00169224,0.0549856,0.00183692,0,0,0,-0.0153392,0,0.000192661,0,0,0,0.0692364,-0.0246,0.588063,0,0,0,0,0,0
0.131995,5.91366e-05,-1.11101,2.26784e-05,2.21561,-0.000113496,0.614544,0.000123061,0.000892903,-0.0407236,0.000345739,-0.0146873,-0.00170521,0.055411,0.00185106,0,0,0,-0.0154562,0,0.000197107,0,0,0,0.0692209,-0.0246,0.588063,0,0,0,0,0,0
0.132995,6.00365e-05,-1.11105,2.3027e-05,2.2156,-0.000115214,0.6146,0.000124927,0.00089983,-0.0410263,0.000348524,-0.01481,-0.00171818,0.0558365,0.00186521,0,0,0,-0.0155733,0,0.000201622,0,0,0,0.0692054,-0.0246,0.588064,0,0,0,0,0,0
0.133995,6.09434e-05,-1.11109,2.33783e-05,2.21558,-0.000116946,0.614657,0.000126806,0.000906761,-0.041329,0.000351312,-0.014933,-0.00173115,0.0562621,0.00187935,0,0,0,-0.0156904,0,0.000206204,0,0,0,0.0691897,-0.0246,0.588064,0,0,0,0,0,0
0.134995,6.18572e-05,-1.11113,2.37324e-05,2.21557,-0.00011869,0.614713,0.0001287,0.000913695,-0.0416315,0.000354104,-0.0150562,-0.00174412,0.0566878,0.0018935,0,0,0,-0.0158074,0,0.000210856,0,0,0,0.0691739,-0.0246,0.588064,0,0,0,0,0,0
0.135995,6.27779e-05,-1.11118,2.40894e-05,2.21555,-0.000120447,0.61477,0.000130608,0.000920633,-0.0419338,0.0003569,-0.0151797,-0.00175709,0.0571137,0.00190765,0,0,0,-0.0159245,0,0.000215577,0,0,0,0.0691579,-0.0246,0.588064,0,0,0,0,0,0
0.136995,6.37056e-05,-1.11122,2.44491e-05,2.21554,-0.000122218,0.614828,0.00013253,0.000927575,-0.042236,0.000359699,-0.0153035,-0.00177006,0.0575397,0.00192181,0,0,0,-0.0160416,0,0.000220368,0,0,0,0.0691419,-0.0246,0.588064,0,0,0,0,0,0
0.137995,6.46402e-05,-1.11126,2.48117e-05,2.21552,-0.000124001,0.614886,0.000134466,0.000934521,-0.0425381,0.000362502,-0.0154276,-0.00178303,0.0579658,0.00193596,0,0,0,-0.0161586,0,0.000225229,0,0,0,0.0691257,-0.0246,0.588065,0,0,0,0,0,0
0.138996,6.55817e-05,-1.1113,2.5177e-05,2.21551,-0.000125797,0.614944,0.000136416,0.00094147,-0.0428401,0.00036531,-0.0155519,-0.00179601,0.0583921,0.00195012,0,0,0,-0.0162757,0,0.000230161,0,0,0,0.0691095,-0.0246,0.588065,0,0,0,0,0,0
0.139996,6.65304e-05,-1.11135,2.55452e-05,2.21549,-0.000127606,0.615003,0.000138381,0.000948424,-0.0431419,0.000368121,-0.0156765,-0.00180898,0.0588185,0.00196428,0,0,0,-0.0163928,0,0.000235165,0,0,0,0.0690931,-0.0246,0.588065,0,0,0,0,0,0
0.140996,6.74859e-05,-1.11139,2.59162e-05,2.21548,-0.000129429,0.615062,0.00014036,0.000955381,-0.0434436,0.000370937,-0.0158013,-0.00182196,0.0592451,0.00197845,0,0,0,-0.0165098,0,0.000240242,0,0,0,0.0690765,-0.0246,0.588065,0,0,0,0,0,0
0.141996,6.84485e-05,-1.11143,2.629e-05,2.21546,-0.000131264,0.615122,0.000142353,0.000962343,-0.0437451,0.000373756,-0.0159265,-0.00183494,0.0596718,0.00199262,0,0,0,-0.0166269,0,0.00024539,0,0,0,0.0690599,-0.0246,0.588066,0,0,0,0,0,0
0.142996,6.9418e-05,-1.11148,2.66667e-05,2.21544,-0.000133112,0.615182,0.00014436,0.000969308,-0.0440465,0.000376579,-0.0160519,-0.00184792,0.0600986,0.00200679,0,0,0,-0.016744,0,0.000250612,0,0,0,0.0690432,-0.0246,0.588066,0,0,0,0,0,0
0.143996,7.03943e-05,-1.11152,2.70461e-05,2.21543,-0.000134973,0.615243,0.000146381,0.000976276,-0.0443478,0.000379406,-0.0161775,-0.0018609,0.0605255,0.00202096,0,0,0,-0.016861,0,0.000255907,0,0,0,0.0690263,-0.0246,0.588066,0,0,0,0,0,0
0.144997,7.13777e-05,-1.11157,2.74284e-05,2.21541,-0.000136847,0.615304,0.000148416,0.000983249,-0.0446488,0.000382237,-0.0163035,-0.00187388,0.0609525,0.00203513,0,0,0,-0.0169781,0,0.000261276,0,0,0,0.0690093,-0.0246,0.588066,0,0,0,0,0,0
0.145997,7.2368e-05,-1.11161,2.78135e-05,2.2154,-0.000138734,0.615365,0.000150466,0.000990225,-0.0449498,0.000385072,-0.0164297,-0.00188686,0.0613797,0.00204931,0,0,0,-0.0170951,0,0.000266719,0,0,0,0.0689922,-0.0246,0.588067,0,0,0,0,0,0
0.146997,7.33653e-05,-1.11166,2.82015e-05,2.21538,-0.000140635,0.615427,0.00015253,0.000997205,-0.0452506,0.000387912,-0.0165563,-0.00189984,0.061807,0.00206349,0,0,0,-0.0172122,0,0.000272238,0,0,0,0.068975,-0.0246,0.588067,0,0,0,0,0,0
0.147997,7.43696e-05,-1.1117,2.85923e-05,2.21536,-0.000142548,0.615489,0.000154607,0.00100419,-0.0455512,0.000390755,-0.0166831,-0.00191282,0.0622345,0.00207767,0,0,0,-0.0173292,0,0.000277832,0,0,0,0.0689577,-0.0246,0.588067,0,0,0,0,0,0
0.148997,7.53809e-05,-1.11175,2.89859e-05,2.21535,-0.000144474,0.615552,0.000156699,0.00101118,-0.0458517,0.000393603,-0.0168102,-0.0019258,0.062662,0.00209186,0,0,0,-0.0174462,0,0.000283502,0,0,0,0.0689402,-0.0246,0.588067,0,0,0,0,0,0
0.149997,7.63991e-05,-1.11179,2.93824e-05,2.21533,-0.000146412,0.615615,0.000158806,0.00101817,-0.046152,0.000396454,-0.0169375,-0.00193879,0.0630898,0.00210605,0,0,0,-0.0175633,0,0.000289249,0,0,0,0.0689227,-0.0246,0.588068,0,0,0,0,0,0
0.150997,7.74244e-05,-1.11184,2.97817e-05,2.21531,-0.000148364,0.615678,0.000160926,0.00102517,-0.0464522,0.00039931,-0.0170652,-0.00195177,0.0635176,0.00212024,0,0,0,-0.0176803,0,0.000295073,0,0,0,0.068905,-0.0246,0.588068,0,0,0,0,0,0
0.151997,7.84567e-05,-1.11189,3.0184e-05,2.21529,-0.000150329,0.615742,0.000163061,0.00103217,-0.0467522,0.00040217,-0.0171932,-0.00196476,0.0639456,0.00213443,0,0,0,-0.0177974,0,0.000300975,0,0,0,0.0688872,-0.0246,0.588068,0,0,0,0,0,0
0.152998,7.94961e-05,-1.11193,3.05891e-05,2.21528,-0.000152308,0.615807,0.00016521,0.00103917,-0.0470521,0.000405035,-0.0173214,-0.00197775,0.0643738,0.00214863,0,0,0,-0.0179144,0,0.000306955,0,0,0,0.0688693,-0.0246,0.588069,0,0,0,0,0,0
0.153998,8.05423e-05,-1.11198,3.0997e-05,2.21526,-0.000154299,0.615872,0.000167373,0.00104618,-0.0473518,0.000407904,-0.01745,-0.00199074,0.064802,0.00216283,0,0,0,-0.0180314,0,0.000313014,0,0,0,0.0688512,-0.0246,0.588069,0,0,0,0,0,0
0.154998,8.15956e-05,-1.11203,3.14078e-05,2.21524,-0.000156302,0.615937,0.00016955,0.00105319,-0.0476514,0.000410777,-0.0175789,-0.00200373,0.0652304,0.00217703,0,0,0,-0.0181485,0,0.000319151,0,0,0,0.0688331,-0.0246,0.588069,0,0,0,0,0,0
0.155998,8.26561e-05,-1.11208,3.18216e-05,2.21522,-0.00015832,0.616002,0.000171742,0.00106021,-0.0479508,0.000413655,-0.017708,-0.00201672,0.065659,0.00219124,0,0,0,-0.0182655,0,0.000325369,0,0,0,0.0688148,-0.0246,0.58807,0,0,0,0,0,0
0.156998,8.37234e-05,-1.11213,3.22382e-05,2.21521,-0.000160349,0.616069,0.000173948,0.00106723,-0.04825,0.000416536,-0.0178375,-0.00202971,0.0660877,0.00220544,0,0,0,-0.0183825,0,0.000331667,0,0,0,0.0687964,-0.0246,0.58807,0,0,0,0,0,0
0.157998,8.47978e-05,-1.11217,3.26576e-05,2.21519,-0.000162392,0.616135,0.000176167,0.00107426,-0.0485491,0.000419423,-0.0179672,-0.0020427,0.0665166,0.00221965,0,0,0,-0.0184995,0,0.000338045,0,0,0,0.0687779,-0.0246,0.58807,0,0,0,0,0,0
0.158998,8.58792e-05,-1.11222,3.308e-05,2.21517,-0.000164448,0.616202,0.000178401,0.00108129,-0.048848,0.000422313,-0.0180973,-0.00205569,0.0669455,0.00223387,0,0,0,-0.0186166,0,0.000344505,0,0,0,0.0687593,-0.0246,0.588071,0,0,0,0,0,0
0.159998,8.69676e-05,-1.11227,3.35052e-05,2.21515,-0.000166517,0.616269,0.00018065,0.00108832,-0.0491467,0.000425208,-0.0182277,-0.00206869,0.0673747,0.00224808,0,0,0,-0.0187336,0,0.000351046,0,0,0,0.0687406,-0.0246,0.588071,0,0,0,0,0,0
0.160998,8.80631e-05,-1.11232,3.39334e-05,2.21513,-0.000168599,0.616337,0.000182912,0.00109536,-0.0494453,0.000428108,-0.0183584,-0.00208168,0.0678039,0.0022623,0,0,0,-0.0188506,0,0.000357669,0,0,0,0.0687217,-0.0246,0.588071,0,0,0,0,0,0
0.161999,8.91656e-05,-1.11237,3.43644e-05,2.21512,-0.000170694,0.616405,0.000185189,0.0011024,-0.0497437,0.000431012,-0.0184893,-0.00209468,0.0682333,0.00227652,0,0,0,-0.0189676,0,0.000364376,0,0,0,0.0687028,-0.0246,0.588072,0,0,0,0,0,0
0.162999,9.02752e-05,-1.11242,3.47984e-05,2.2151,-0.000172802,0.616474,0.00018748,0.00110945,-0.050042,0.000433921,-0.0186207,-0.00210768,0.0686629,0.00229075,0,0,0,-0.0190846,0,0.000371166,0,0,0,0.0686837,-0.0246,0.588072,0,0,0,0,0,0
0.163999,9.13918e-05,-1.11247,3.52353e-05,2.21508,-0.000174923,0.616543,0.000189785,0.0011165,-0.0503401,0.000436834,-0.0187523,-0.00212068,0.0690926,0.00230498,0,0,0,-0.0192016,0,0.00037804,0,0,0,0.0686645,-0.0246,0.588072,0,0,0,0,0,0
0.164999,9.25155e-05,-1.11252,3.56751e-05,2.21506,-0.000177057,0.616613,0.000192105,0.00112355,-0.050638,0.000439752,-0.0188842,-0.00213367,0.0695225,0.00231921,0,0,0,-0.0193186,0,0.000384997,0,0,0,0.0686451,-0.0246,0.588073,0,0,0,0,0,0
0.165999,9.36462e-05,-1.11257,3.61178e-05,2.21504,-0.000179204,0.616683,0.000194439,0.00113061,-0.0509357,0.000442674,-0.0190165,-0.00214667,0.0699525,0.00233344,0,0,0,-0.0194356,0,0.00039204,0,0,0,0.0686257,-0.0246,0.588073,0,0,0,0,0,0
0.166999,9.4784e-05,-1.11262,3.65635e-05,2.21502,-0.000181364,0.616753,0.000196786,0.00113768,-0.0512333,0.000445601,-0.0191491,-0.00215967,0.0703826,0.00234767,0,0,0,-0.0195526,0,0.000399168,0,0,0,0.0686062,-0.0246,0.588074,0,0,0,0,0,0
0.167999,9.59289e-05,-1.11268,3.70121e-05,2.215,-0.000183536,0.616824,0.000199149,0.00114475,-0.0515307,0.000448533,-0.019282,-0.00217268,0.0708129,0.00236191,0,0,0,-0.0196696,0,0.000406382,0,0,0,0.0685865,-0.0246,0.588074,0,0,0,0,0,0
0.168999,9.70808e-05,-1.11273,3.74636e-05,2.21498,-0.000185722,0.616895,0.000201525,0.00115182,-0.0518279,0.00045147,-0.0194152,-0.00218568,0.0712434,0.00237615,0,0,0,-0.0197866,0,0.000413682,0,0,0,0.0685667,-0.0246,0.588074,0,0,0,0,0,0
0.169999,9.82398e-05,-1.11278,3.7918e-05,2.21496,-0.000187921,0.616967,0.000203916,0.0011589,-0.0521249,0.000454411,-0.0195487,-0.00219868,0.071674,0.0023904,0,0,0,-0.0199036,0,0.000421069,0,0,0,0.0685468,-0.0246,0.588075,0,0,0,0,0,0
0.171,9.94059e-05,-1.11283,3.83754e-05,2.21494,-0.000190133,0.617039,0.000206321,0.00116598,-0.0524218,0.000457357,-0.0196826,-0.00221169,0.0721047,0.00240465,0,0,0,-0.0200206,0,0.000428543,0,0,0,0.0685268,-0.0246,0.588075,0,0,0,0,0,0
0.172,0.000100579,-1.11289,3.88358e-05,2.21492,-0.000192358,0.617112,0.00020874,0.00117307,-0.0527185,0.000460307,-0.0198168,-0.00222469,0.0725356,0.0024189,0,0,0,-0.0201376,0,0.000436106,0,0,0,0.0685066,-0.0246,0.588076,0,0,0,0,0,0
0.173,0.000101759,-1.11294,3.92991e-05,2.2149,-0.000194596,0.617185,0.000211173,0.00118016,-0.053015,0.000463263,-0.0199514,-0.0022377,0.0729667,0.00243315,0,0,0,-0.0202546,0,0.000443756,0,0,0,0.0684864,-0.0246,0.588076,0,0,0,0,0,0
0.174,0.000102947,-1.11299,3.97654e-05,2.21488,-0.000196847,0.617258,0.000213621,0.00118726,-0.0533113,0.000466224,-0.0200863,-0.00225071,0.0733979,0.00244741,0,0,0,-0.0203715,0,0.000451496,0,0,0,0.068466,-0.0246,0.588077,0,0,0,0,0,0
0.175019,0.000104164,-1.11305,4.02435e-05,2.21486,-0.000199154,0.617333,0.000216129,0.00119449,-0.053613,0.00046924,-0.0202239,-0.00226396,0.0738373,0.00246193,0,0,0,-0.0204907,0,0.000459473,0,0,0,0.0684451,-0.0246,0.588077,0,0,0,0,0,0
0.176258,0.000105655,-1.11311,4.08295e-05,2.21484,-0.000201979,0.617425,0.000219202,0.00120324,-0.0539804,0.000472861,-0.0203912,-0.00228008,0.0743719,0.00247958,0,0,0,-0.0206357,0,0.000469302,0,0,0,0.0684195,-0.0246,0.588078,0,0,0,0,0,0
0.177447,0.000107096,-1.11318,4.13961e-05,2.21481,-0.00020471,0.617514,0.000222171,0.00121171,-0.0543319,0.000476414,-0.0205531,-0.00229555,0.0748853,0.00249655,0,0,0,-0.0207747,0,0.000478865,0,0,0,0.0683948,-0.0246,0.588078,0,0,0,0,0,0
0.1786,0.000108502,-1.11324,4.19493e-05,2.21479,-0.000207373,0.617601,0.000225068,0.00121992,-0.0546724,0.000479862,-0.0207104,-0.00231055,0.0753832,0.002513,0,0,0,-0.0209096,0,0.000488257,0,0,0,0.0683707,-0.0246,0.588079,0,0,0,0,0,0
0.179698,0.00010985,-1.1133,4.24797e-05,2.21477,-0.000209926,0.617685,0.000227845,0.00122775,-0.0549964,0.000483158,-0.0208608,-0.00232483,0.0758576,0.00252868,0,0,0,-0.021038,0,0.000497316,0,0,0,0.0683476,-0.0246,0.588079,0,0,0,0,0,0
0.180776,0.000111182,-1.11336,4.30042e-05,2.21474,-0.000212447,0.617767,0.000230588,0.00123544,-0.0553144,0.000486391,-0.0210088,-0.00233886,0.0763236,0.00254407,0,0,0,-0.021164,0,0.000506321,0,0,0,0.0683248,-0.0246,0.58808,0,0,0,0,0,0
0.181776,0.000112425,-1.11342,4.34936e-05,2.21472,-0.000214799,0.617844,0.000233146,0.00124259,-0.0556091,0.000489412,-0.0211466,-0.00235188,0.0767561,0.00255836,0,0,0,-0.021281,0,0.000514769,0,0,0,0.0683035,-0.0246,0.58808,0,0,0,0,0,0
0.182777,0.000113675,-1.11347,4.39861e-05,2.2147,-0.000217165,0.617921,0.000235719,0.00124973,-0.0559038,0.000492417,-0.0212845,-0.00236489,0.0771887,0.00257264,0,0,0,-0.0213979,0,0.000523312,0,0,0,0.0682821,-0.0246,0.588081,0,0,0,0,0,0
0.183777,0.000114932,-1.11353,4.44817e-05,2.21468,-0.000219543,0.617998,0.000238307,0.00125687,-0.0561983,0.000495426,-0.0214228,-0.00237791,0.0776214,0.00258693,0,0,0,-0.0215149,0,0.000531949,0,0,0,0.0682606,-0.0246,0.588081,0,0,0,0,0,0
0.184777,0.000116196,-1.11359,4.49801e-05,2.21466,-0.000221934,0.618077,0.000240908,0.00126402,-0.0564926,0.000498441,-0.0215614,-0.00239093,0.0780543,0.00260122,0,0,0,-0.0216318,0,0.00054068,0,0,0,0.068239,-0.0246,0.588082,0,0,0,0,0,0
0.185777,0.000117468,-1.11364,4.54819e-05,2.21464,-0.00022434,0.618155,0.000243525,0.00127118,-0.0567868,0.000501462,-0.0217004,-0.00240395,0.0784876,0.00261551,0,0,0,-0.0217488,0,0.000549509,0,0,0,0.0682172,-0.0246,0.588082,0,0,0,0,0,0
0.186777,0.000118747,-1.1137,4.59864e-05,2.21461,-0.000226757,0.618234,0.000246155,0.00127833,-0.0570807,0.000504487,-0.0218397,-0.00241697,0.0789208,0.00262981,0,0,0,-0.0218657,0,0.00055843,0,0,0,0.0681953,-0.0246,0.588083,0,0,0,0,0,0
0.187778,0.000120032,-1.11376,4.6494e-05,2.21459,-0.000229187,0.618313,0.000248799,0.0012855,-0.0573744,0.000507517,-0.0219794,-0.00242999,0.0793541,0.0026441,0,0,0,-0.0219827,0,0.000567448,0,0,0,0.0681734,-0.0246,0.588084,0,0,0,0,0,0
0.188778,0.000121325,-1.11381,4.70046e-05,2.21457,-0.00023163,0.618393,0.000251458,0.00129266,-0.0576679,0.000510552,-0.0221194,-0.00244301,0.0797877,0.0026584,0,0,0,-0.0220996,0,0.000576561,0,0,0,0.0681513,-0.0246,0.588084,0,0,0,0,0,0
0.189778,0.000122625,-1.11387,4.75183e-05,2.21455,-0.000234087,0.618473,0.000254131,0.00129983,-0.0579612,0.000513593,-0.0222598,-0.00245603,0.0802214,0.00267271,0,0,0,-0.0222165,0,0.000585773,0,0,0,0.068129,-0.0246,0.588085,0,0,0,0,0,0
0.190778,0.000123932,-1.11393,4.8035e-05,2.21453,-0.000236556,0.618554,0.000256819,0.00130701,-0.0582543,0.000516639,-0.0224005,-0.00246905,0.0806553,0.00268702,0,0,0,-0.0223334,0,0.000595081,0,0,0,0.0681067,-0.0246,0.588085,0,0,0,0,0,0
0.191778,0.000125247,-1.11399,4.85547e-05,2.2145,-0.000239038,0.618635,0.00025952,0.00131419,-0.0585472,0.00051969,-0.0225417,-0.00248207,0.0810893,0.00270133,0,0,0,-0.0224503,0,0.000604487,0,0,0,0.0680842,-0.0246,0.588086,0,0,0,0,0,0
0.192778,0.000126568,-1.11405,4.90775e-05,2.21448,-0.000241534,0.618717,0.000262236,0.00132138,-0.0588399,0.000522747,-0.0226832,-0.0024951,0.0815235,0.00271564,0,0,0,-0.0225672,0,0.000613992,0,0,0,0.0680617,-0.0246,0.588087,0,0,0,0,0,0
0.193778,0.000127897,-1.11411,4.96034e-05,2.21446,-0.000244042,0.618799,0.000264966,0.00132857,-0.0591324,0.000525809,-0.022825,-0.00250812,0.0819579,0.00272995,0,0,0,-0.0226841,0,0.000623596,0,0,0,0.068039,-0.0246,0.588087,0,0,0,0,0,0
0.194778,0.000129233,-1.11417,5.01323e-05,2.21443,-0.000246563,0.618881,0.000267711,0.00133577,-0.0594247,0.000528876,-0.0229672,-0.00252115,0.0823924,0.00274427,0,0,0,-0.022801,0,0.0006333,0,0,0,0.0680162,-0.0246,0.588088,0,0,0,0,0,0
0.195779,0.000130576,-1.11423,5.06643e-05,2.21441,-0.000249098,0.618964,0.00027047,0.00134297,-0.0597168,0.000531949,-0.0231099,-0.00253417,0.0828271,0.00275859,0,0,0,-0.0229179,0,0.000643104,0,0,0,0.0679933,-0.0246,0.588088,0,0,0,0,0,0
0.196779,0.000131926,-1.11429,5.11994e-05,2.21439,-0.000251646,0.619047,0.000273243,0.00135018,-0.0600086,0.000535028,-0.0232529,-0.0025472,0.0832619,0.00277292,0,0,0,-0.0230348,0,0.000653008,0,0,0,0.0679702,-0.0246,0.588089,0,0,0,0,0,0
0.197779,0.000133284,-1.11435,5.17376e-05,2.21436,-0.000254206,0.619131,0.000276031,0.00135739,-0.0603003,0.000538112,-0.0233962,-0.00256023,0.083697,0.00278725,0,0,0,-0.0231517,0,0.000663014,0,0,0,0.0679471,-0.0246,0.58809,0,0,0,0,0,0
0.198779,0.000134649,-1.11441,5.22788e-05,2.21434,-0.00025678,0.619215,0.000278833,0.00136461,-0.0605917,0.000541201,-0.02354,-0.00257326,0.0841322,0.00280158,0,0,0,-0.0232686,0,0.000673121,0,0,0,0.0679238,-0.0246,0.58809,0,0,0,0,0,0
0.199779,0.000136021,-1.11447,5.28232e-05,2.21432,-0.000259366,0.6193,0.000281649,0.00137183,-0.060883,0.000544296,-0.0236841,-0.00258629,0.0845675,0.00281591,0,0,0,-0.0233855,0,0.000683331,0,0,0,0.0679004,-0.0246,0.588091,0,0,0,0,0,0
0.200808,0.00013744,-1.11453,5.33864e-05,2.21429,-0.000262041,0.619387,0.000284561,0.00137926,-0.0611824,0.000547475,-0.0238326,-0.00259969,0.0850155,0.00283065,0,0,0,-0.0235057,0,0.000693939,0,0,0,0.0678762,-0.0246,0.588092,0,0,0,0,0,0
0.201808,0.000138826,-1.11459,5.39371e-05,2.21427,-0.000264654,0.619473,0.000287406,0.0013865,-0.0614731,0.000550592,-0.0239776,-0.00261272,0.0854512,0.002845,0,0,0,-0.0236225,0,0.000704357,0,0,0,0.0678526,-0.0246,0.588093,0,0,0,0,0,0
0.202808,0.00014022,-1.11465,5.44908e-05,2.21425,-0.00026728,0.619558,0.000290266,0.00139374,-0.0617636,0.000553704,-0.0241229,-0.00262575,0.0858871,0.00285934,0,0,0,-0.0237394,0,0.000714879,0,0,0,0.0678289,-0.0246,0.588093,0,0,0,0,0,0
0.203808,0.000141621,-1.11472,5.50477e-05,2.21422,-0.000269919,0.619645,0.00029314,0.00140098,-0.062054,0.000556822,-0.0242686,-0.00263878,0.0863231,0.00287369,0,0,0,-0.0238562,0,0.000725504,0,0,0,0.067805,-0.0246,0.588094,0,0,0,0,0,0
0.204808,0.00014303,-1.11478,5.56077e-05,2.2142,-0.000272571,0.619731,0.000296028,0.00140823,-0.0623441,0.000559945,-0.0244147,-0.00265182,0.0867593,0.00288804,0,0,0,-0.0239731,0,0.000736235,0,0,0,0.067781,-0.0246,0.588095,0,0,0,0,0,0
0.205808,0.000144445,-1.11484,5.61709e-05,2.21417,-0.000275236,0.619819,0.000298931,0.00141549,-0.0626341,0.000563074,-0.0245612,-0.00266485,0.0871958,0.00290239,0,0,0,-0.0240899,0,0.000747072,0,0,0,0.0677569,-0.0246,0.588095,0,0,0,0,0,0
0.206809,0.000145868,-1.1149,5.67372e-05,2.21415,-0.000277915,0.619906,0.000301849,0.00142275,-0.0629238,0.000566209,-0.024708,-0.00267789,0.0876323,0.00291674,0,0,0,-0.0242068,0,0.000758014,0,0,0,0.0677327,-0.0246,0.588096,0,0,0,0,0,0
0.207809,0.000147299,-1.11497,5.73066e-05,2.21412,-0.000280606,0.619994,0.00030478,0.00143001,-0.0632132,0.00056935,-0.0248553,-0.00269092,0.0880691,0.0029311,0,0,0,-0.0243236,0,0.000769062,0,0,0,0.0677084,-0.0246,0.588097,0,0,0,0,0,0
0.208809,0.000148736,-1.11503,5.78792e-05,2.2141,-0.00028331,0.620083,0.000307726,0.00143728,-0.0635025,0.000572496,-0.0250029,-0.00270396,0.088506,0.00294546,0,0,0,-0.0244404,0,0.000780217,0,0,0,0.0676839,-0.0246,0.588098,0,0,0,0,0,0
0.209809,0.000150181,-1.11509,5.84549e-05,2.21407,-0.000286027,0.620172,0.000310686,0.00144456,-0.0637915,0.000575649,-0.025151,-0.00271699,0.088943,0.00295983,0,0,0,-0.0245573,0,0.000791479,0,0,0,0.0676594,-0.0246,0.588099,0,0,0,0,0,0
0.210809,0.000151633,-1.11516,5.90339e-05,2.21405,-0.000288758,0.620261,0.000313661,0.00145184,-0.0640803,0.000578807,-0.0252995,-0.00273003,0.0893803,0.0029742,0,0,0,-0.0246741,0,0.000802851,0,0,0,0.0676347,-0.0246,0.588099,0,0,0,0,0,0
0.211809,0.000153092,-1.11522,5.9616e-05,2.21402,-0.000291502,0.620351,0.00031665,0.00145913,-0.0643689,0.000581971,-0.0254483,-0.00274307,0.0898178,0.00298857,0,0,0,-0.0247909,0,0.00081433,0,0,0,0.0676099,-0.0246,0.5881,0,0,0,0,0,0
0.212809,0.000154559,-1.11529,6.02012e-05,2.214,-0.000294258,0.620441,0.000319653,0.00146642,-0.0646572,0.000585141,-0.0255976,-0.00275611,0.0902554,0.00300294,0,0,0,-0.0249077,0,0.000825917,0,0,0,0.067585,-0.0246,0.588101,0,0,0,0,0,0
0.21381,0.000156033,-1.11535,6.07896e-05,2.21397,-0.000297028,0.620532,0.000322671,0.00147372,-0.0649453,0.000588317,-0.0257473,-0.00276915,0.0906932,0.00301732,0,0,0,-0.0250245,0,0.000837614,0,0,0,0.06756,-0.0246,0.588102,0,0,0,0,0,0
0.21481,0.000157514,-1.11542,6.13812e-05,2.21394,-0.00029981,0.620623,0.000325703,0.00148102,-0.0652332,0.000591499,-0.0258974,-0.00278219,0.0911311,0.0030317,0,0,0,-0.0251413,0,0.00084942,0,0,0,0.0675348,-0.0246,0.588103,0,0,0,0,0,0
0.21581,0.000159003,-1.11548,6.19759e-05,2.21392,-0.000302606,0.620715,0.00032875,0.00148833,-0.0655208,0.000594687,-0.0260479,-0.00279523,0.0915692,0.00304608,0,0,0,-0.0252581,0,0.000861336,0,0,0,0.0675096,-0.0246,0.588104,0,0,0,0,0,0
0.21681,0.000160498,-1.11555,6.25738e-05,2.21389,-0.000305414,0.620807,0.00033181,0.00149565,-0.0658081,0.000597881,-0.0261988,-0.00280827,0.0920075,0.00306047,0,0,0,-0.0253749,0,0.000873363,0,0,0,0.0674842,-0.0246,0.588104,0,0,0,0,0,0
0.21781,0.000162001,-1.11562,6.3175e-05,2.21387,-0.000308236,0.620899,0.000334886,0.00150297,-0.0660953,0.000601081,-0.0263501,-0.00282131,0.092446,0.00307486,0,0,0,-0.0254916,0,0.000885502,0,0,0,0.0674587,-0.0246,0.588105,0,0,0,0,0,0
0.21881,0.000163512,-1.11568,6.37793e-05,2.21384,-0.000311071,0.620992,0.000337975,0.00151029,-0.0663822,0.000604287,-0.0265018,-0.00283436,0.0928846,0.00308925,0,0,0,-0.0256084,0,0.000897752,0,0,0,0.0674331,-0.0246,0.588106,0,0,0,0,0,0
0.21981,0.00016503,-1.11575,6.4387e-05,2.21381,-0.000313919,0.621086,0.000341079,0.00151762,-0.0666689,0.000607499,-0.026654,-0.0028474,0.0933235,0.00310365,0,0,0,-0.0257252,0,0.000910116,0,0,0,0.0674073,-0.0246,0.588107,0,0,0,0,0,0
0.22081,0.000166555,-1.11582,6.49978e-05,2.21379,-0.00031678,0.621179,0.000344198,0.00152496,-0.0669553,0.000610717,-0.0268066,-0.00286044,0.0937626,0.00311805,0,0,0,-0.0258419,0,0.000922593,0,0,0,0.0673815,-0.0246,0.588108,0,0,0,0,0,0
0.221811,0.000168088,-1.11588,6.56118e-05,2.21376,-0.000319653,0.621274,0.000347331,0.0015323,-0.0672415,0.000613942,-0.0269596,-0.00287349,0.0942017,0.00313245,0,0,0,-0.0259587,0,0.000935182,0,0,0,0.0673555,-0.0246,0.588109,0,0,0,0,0,0
0.222811,0.000169627,-1.11595,6.6229e-05,2.21373,-0.00032254,0.621368,0.000350478,0.00153965,-0.0675274,0.000617172,-0.027113,-0.00288653,0.0946411,0.00314685,0,0,0,-0.0260754,0,0.000947885,0,0,0,0.0673295,-0.0246,0.58811,0,0,0,0,0,0
0.223811,0.000171175,-1.11602,6.68495e-05,2.2137,-0.00032544,0.621463,0.00035364,0.00154701,-0.0678131,0.000620409,-0.0272668,-0.00289958,0.0950806,0.00316126,0,0,0,-0.0261921,0,0.000960703,0,0,0,0.0673033,-0.0246,0.588111,0,0,0,0,0,0
0.224811,0.000172729,-1.11609,6.74732e-05,2.21368,-0.000328353,0.621559,0.000356816,0.00155436,-0.0680986,0.000623652,-0.0274211,-0.00291262,0.0955203,0.00317567,0,0,0,-0.0263088,0,0.000973635,0,0,0,0.067277,-0.0246,0.588112,0,0,0,0,0,0
0.225811,0.000174291,-1.11615,6.81002e-05,2.21365,-0.000331279,0.621655,0.000360006,0.00156173,-0.0683837,0.000626901,-0.0275758,-0.00292567,0.0959602,0.00319008,0,0,0,-0.0264256,0,0.000986683,0,0,0,0.0672505,-0.0246,0.588113,0,0,0,0,0,0
0.226811,0.00017586,-1.11622,6.87304e-05,2.21362,-0.000334218,0.621751,0.000363211,0.0015691,-0.0686687,0.000630156,-0.0277309,-0.00293871,0.0964003,0.0032045,0,0,0,-0.0265423,0,0.000999847,0,0,0,0.067224,-0.0246,0.588114,0,0,0,0,0,0
0.227811,0.000177437,-1.11629,6.93639e-05,2.21359,-0.00033717,0.621848,0.00036643,0.00157648,-0.0689534,0.000633418,-0.0278865,-0.00295176,0.0968406,0.00321891,0,0,0,-0.026659,0,0.00101313,0,0,0,0.0671973,-0.0246,0.588115,0,0,0,0,0,0
0.228811,0.000179021,-1.11636,7.00007e-05,2.21357,-0.000340135,0.621945,0.000369664,0.00158386,-0.0692378,0.000636687,-0.0280425,-0.00296481,0.097281,0.00323334,0,0,0,-0.0267757,0,0.00102653,0,0,0,0.0671705,-0.0246,0.588116,0,0,0,0,0,0
0.229812,0.000180612,-1.11643,7.06407e-05,2.21354,-0.000343114,0.622043,0.000372912,0.00159125,-0.069522,0.000639961,-0.0281989,-0.00297786,0.0977216,0.00324776,0,0,0,-0.0268924,0,0.00104004,0,0,0,0.0671436,-0.0246,0.588117,0,0,0,0,0,0
0.230812,0.000182211,-1.1165,7.12841e-05,2.21351,-0.000346105,0.622141,0.000376175,0.00159864,-0.0698059,0.000643242,-0.0283558,-0.00299091,0.0981625,0.00326219,0,0,0,-0.027009,0,0.00105367,0,0,0,0.0671166,-0.0246,0.588118,0,0,0,0,0,0
0.231812,0.000183818,-1.11657,7.19307e-05,2.21348,-0.000349109,0.62224,0.000379452,0.00160604,-0.0700896,0.00064653,-0.0285131,-0.00300396,0.0986035,0.00327662,0,0,0,-0.0271257,0,0.00106743,0,0,0,0.0670895,-0.0246,0.588119,0,0,0,0,0,0
0.232812,0.000185431,-1.11664,7.25806e-05,2.21345,-0.000352127,0.622339,0.000382743,0.00161345,-0.070373,0.000649823,-0.0286708,-0.00301701,0.0990446,0.00329106,0,0,0,-0.0272424,0,0.0010813,0,0,0,0.0670623,-0.0246,0.58812,0,0,0,0,0,0
0.233812,0.000187052,-1.11671,7.32338e-05,2.21342,-0.000355157,0.622438,0.000386049,0.00162086,-0.0706562,0.000653124,-0.028829,-0.00303005,0.099486,0.0033055,0,0,0,-0.027359,0,0.00109529,0,0,0,0.0670349,-0.0246,0.588121,0,0,0,0,0,0
0.234812,0.000188681,-1.11678,7.38903e-05,2.21339,-0.0003582,0.622538,0.000389369,0.00162828,-0.070939,0.00065643,-0.0289877,-0.0030431,0.0999275,0.00331994,0,0,0,-0.0274757,0,0.0011094,0,0,0,0.0670074,-0.0246,0.588122,0,0,0,0,0,0
0.235812,0.000190317,-1.11685,7.45501e-05,2.21336,-0.000361257,0.622639,0.000392704,0.0016357,-0.0712217,0.000659743,-0.0291467,-0.00305615,0.100369,0.00333438,0,0,0,-0.0275923,0,0.00112363,0,0,0,0.0669798,-0.0246,0.588123,0,0,0,0,0,0
0.236812,0.00019196,-1.11693,7.52132e-05,2.21334,-0.000364326,0.62274,0.000396053,0.00164313,-0.071504,0.000663063,-0.0293063,-0.0030692,0.100811,0.00334882,0,0,0,-0.0277089,0,0.00113798,0,0,0,0.0669521,-0.0246,0.588125,0,0,0,0,0,0
0.237813,0.000193611,-1.117,7.58797e-05,2.21331,-0.000367409,0.622841,0.000399417,0.00165057,-0.0717861,0.00066639,-0.0294663,-0.00308226,0.101253,0.00336327,0,0,0,-0.0278256,0,0.00115245,0,0,0,0.0669243,-0.0246,0.588126,0,0,0,0,0,0
0.238813,0.000195269,-1.11707,7.65495e-05,2.21328,-0.000370505,0.622943,0.000402795,0.00165801,-0.0720679,0.000669723,-0.0296267,-0.00309531,0.101695,0.00337773,0,0,0,-0.0279422,0,0.00116705,0,0,0,0.0668963,-0.0246,0.588127,0,0,0,0,0,0
0.239813,0.000196935,-1.11714,7.72227e-05,2.21325,-0.000373614,0.623045,0.000406188,0.00166546,-0.0723495,0.000673063,-0.0297876,-0.00310836,0.102138,0.00339218,0,0,0,-0.0280588,0,0.00118177,0,0,0,0.0668683,-0.0246,0.588128,0,0,0,0,0,0
0.240813,0.000198608,-1.11721,7.78993e-05,2.21322,-0.000376736,0.623147,0.000409596,0.00167291,-0.0726309,0.00067641,-0.029949,-0.00312142,0.102581,0.00340664,0,0,0,-0.0281754,0,0.00119661,0,0,0,0.0668401,-0.0246,0.588129,0,0,0,0,0,0
0.242045,0.000200679,-1.1173,7.87373e-05,2.21318,-0.0003806,0.623274,0.000413813,0.001682,-0.0729782,0.000680419,-0.0301467,-0.0031375,0.103126,0.00342441,0,0,0,-0.028319,0,0.00121506,0,0,0,0.0668052,-0.0246,0.588131,0,0,0,0,0,0
0.243281,0.00020277,-1.1174,7.95834e-05,2.21314,-0.000384498,0.623402,0.000418068,0.00169122,-0.0733251,0.000684571,-0.0303474,-0.00315363,0.103673,0.00344228,0,0,0,-0.0284631,0,0.00123376,0,0,0,0.06677,-0.0246,0.588132,0,0,0,0,0,0
0.244514,0.000204868,-1.11749,8.04331e-05,2.2131,-0.000388408,0.623531,0.000422336,0.00170044,-0.0736709,0.000688729,-0.0305485,-0.00316973,0.10422,0.00346013,0,0,0,-0.0286068,0,0.00125261,0,0,0,0.0667347,-0.0246,0.588134,0,0,0,0,0,0
0.245754,0.000206988,-1.11758,8.12922e-05,2.21307,-0.000392359,0.623661,0.000426649,0.00170972,-0.074018,0.000692913,-0.0307512,-0.00318591,0.10477,0.00347807,0,0,0,-0.0287513,0,0.00127176,0,0,0,0.0666991,-0.0246,0.588135,0,0,0,0,0,0
0.246994,0.000209119,-1.11767,8.21564e-05,2.21303,-0.000396328,0.623791,0.000430983,0.001719,-0.0743646,0.000697111,-0.0309546,-0.00320209,0.10532,0.00349602,0,0,0,-0.0288958,0,0.00129109,0,0,0,0.0666633,-0.0246,0.588137,0,0,0,0,0,0
0.248236,0.000211266,-1.11776,8.30278e-05,2.21299,-0.000400327,0.623923,0.000435349,0.00172831,-0.0747116,0.000701327,-0.0311592,-0.00321831,0.105872,0.003514,0,0,0,-0.0290406,0,0.00131067,0,0,0,0.0666272,-0.0246,0.588139,0,0,0,0,0,0
0.249479,0.000213426,-1.11786,8.39047e-05,2.21295,-0.000404347,0.624055,0.000439739,0.00173764,-0.0750582,0.000705557,-0.0313647,-0.00323453,0.106424,0.003532,0,0,0,-0.0291854,0,0.00133044,0,0,0,0.0665909,-0.0246,0.58814,0,0,0,0,0,0
0.250817,0.000215763,-1.11796,8.48544e-05,2.21291,-0.000408696,0.624198,0.000444489,0.00174764,-0.0754313,0.000710067,-0.0315858,-0.00325199,0.107018,0.00355136,0,0,0,-0.0293412,0,0.00135195,0,0,0,0.0665517,-0.0246,0.588142,0,0,0,0,0,0
0.252092,0.000218004,-1.11805,8.57654e-05,2.21287,-0.000412864,0.624336,0.00044904,0.00175726,-0.0757856,0.000714464,-0.0317986,-0.00326863,0.107585,0.00356984,0,0,0,-0.0294897,0,0.00137266,0,0,0,0.0665141,-0.0246,0.588144,0,0,0,0,0,0
0.253367,0.000220256,-1.11815,8.66819e-05,2.21283,-0.000417053,0.624474,0.000453616,0.00176686,-0.0761397,0.000718837,-0.0320117,-0.00328528,0.108152,0.00358832,0,0,0,-0.0296382,0,0.00139358,0,0,0,0.0664763,-0.0246,0.588146,0,0,0,0,0,0
0.254641,0.000222521,-1.11825,8.76037e-05,2.21279,-0.000421262,0.624612,0.000458213,0.00177646,-0.0764933,0.000723221,-0.0322255,-0.00330191,0.10872,0.0036068,0,0,0,-0.0297866,0,0.00141471,0,0,0,0.0664383,-0.0246,0.588147,0,0,0,0,0,0
0.255957,0.00022487,-1.11835,8.85608e-05,2.21274,-0.000425627,0.624756,0.000462981,0.00178636,-0.0768579,0.000727731,-0.0324466,-0.00331908,0.109306,0.00362586,0,0,0,-0.0299398,0,0.00143673,0,0,0,0.0663989,-0.0246,0.588149,0,0,0,0,0,0
0.257312,0.000227305,-1.11845,8.95534e-05,2.2127,-0.000430149,0.624905,0.000467922,0.00179658,-0.0772331,0.000732393,-0.0326753,-0.00333677,0.109909,0.00364551,0,0,0,-0.0300976,0,0.00145966,0,0,0,0.0663581,-0.0246,0.588151,0,0,0,0,0,0
0.258597,0.000229627,-1.11855,9.05005e-05,2.21266,-0.000434459,0.625047,0.000472631,0.00180633,-0.0775877,0.00073689,-0.0328939,-0.00335355,0.110483,0.00366416,0,0,0,-0.0302472,0,0.00148163,0,0,0,0.0663193,-0.0246,0.588153,0,0,0,0,0,0
0.259874,0.000231946,-1.11865,9.14472e-05,2.21261,-0.000438763,0.625189,0.000477334,0.001816,-0.0779399,0.000741334,-0.0331113,-0.00337022,0.111052,0.0036827,0,0,0,-0.0303958,0,0.00150368,0,0,0,0.0662804,-0.0246,0.588155,0,0,0,0,0,0
0.261223,0.000234408,-1.11876,9.24532e-05,2.21257,-0.000443331,0.625339,0.000482327,0.00182618,-0.0783119,0.00074599,-0.0333412,-0.00338782,0.111654,0.00370225,0,0,0,-0.0305528,0,0.0015272,0,0,0,0.0662392,-0.0246,0.588157,0,0,0,0,0,0
0.262509,0.00023677,-1.11886,9.34187e-05,2.21253,-0.000447711,0.625484,0.000487113,0.00183597,-0.0786653,0.000750524,-0.0335624,-0.00340461,0.112229,0.00372094,0,0,0,-0.0307025,0,0.00154986,0,0,0,0.0661997,-0.0246,0.588159,0,0,0,0,0,0
0.263781,0.000239117,-1.11896,9.43788e-05,2.21248,-0.000452062,0.625627,0.000491869,0.00184564,-0.0790145,0.000754989,-0.0337815,-0.00342121,0.112797,0.00373941,0,0,0,-0.0308504,0,0.00157248,0,0,0,0.0661605,-0.0246,0.588161,0,0,0,0,0,0
0.265057,0.000241485,-1.11906,9.53479e-05,2.21244,-0.000456449,0.625772,0.000496664,0.00185534,-0.0793645,0.000759469,-0.034002,-0.00343786,0.113368,0.00375794,0,0,0,-0.0309989,0,0.0015954,0,0,0,0.0661209,-0.0246,0.588163,0,0,0,0,0,0
0.266339,0.000243877,-1.11916,9.63277e-05,2.2124,-0.000460879,0.625918,0.000501508,0.00186509,-0.0797158,0.000763983,-0.0342244,-0.0034546,0.113941,0.00377657,0,0,0,-0.0311481,0,0.00161865,0,0,0,0.066081,-0.0246,0.588165,0,0,0,0,0,0
0.267656,0.000246345,-1.11927,9.73395e-05,2.21235,-0.000465449,0.626069,0.000506504,0.0018751,-0.0800761,0.000768611,-0.0344533,-0.00347178,0.114531,0.0037957,0,0,0,-0.0313012,0,0.00164276,0,0,0,0.0660398,-0.0246,0.588167,0,0,0,0,0,0
0.268967,0.000248818,-1.11937,9.83537e-05,2.2123,-0.000470026,0.62622,0.000511508,0.00188511,-0.0804342,0.00077326,-0.0346826,-0.0034889,0.115118,0.00381476,0,0,0,-0.0314537,0,0.00166701,0,0,0,0.0659985,-0.0246,0.58817,0,0,0,0,0,0
0.270291,0.000251327,-1.11948,9.93837e-05,2.21226,-0.000474668,0.626373,0.000516584,0.00189521,-0.0807953,0.000777953,-0.0349148,-0.00350618,0.115711,0.00383401,0,0,0,-0.0316077,0,0.00169173,0,0,0,0.0659567,-0.0246,0.588172,0,0,0,0,0,0
0.27172,0.00025405,-1.1196,0.000100502,2.21221,-0.000479704,0.626539,0.000522091,0.00190608,-0.0811851,0.000782973,-0.0351655,-0.00352484,0.116352,0.00385476,0,0,0,-0.0317738,0,0.00171868,0,0,0,0.0659113,-0.0246,0.588174,0,0,0,0,0,0
0.273039,0.000256577,-1.11971,0.000101541,2.21216,-0.000484374,0.626693,0.000527199,0.00191623,-0.0815426,0.000787756,-0.0353997,-0.00354204,0.116944,0.00387396,0,0,0,-0.031927,0,0.00174381,0,0,0,0.0658692,-0.0246,0.588177,0,0,0,0,0,0
0.27434,0.000259083,-1.11981,0.000102572,2.21212,-0.000489006,0.626846,0.000532265,0.00192621,-0.0818956,0.000792428,-0.0356308,-0.00355902,0.117528,0.0038929,0,0,0,-0.0320783,0,0.00176885,0,0,0,0.0658274,-0.0246,0.588179,0,0,0,0,0,0
0.275618,0.000261557,-1.11992,0.000103591,2.21207,-0.000493575,0.626997,0.000537264,0.00193603,-0.0822417,0.000797034,-0.0358587,-0.00357569,0.118102,0.0039115,0,0,0,-0.0322268,0,0.00179366,0,0,0,0.0657863,-0.0246,0.588181,0,0,0,0,0,0
0.276909,0.00026407,-1.12002,0.000104626,2.21202,-0.000498215,0.62715,0.000542339,0.00194593,-0.0825911,0.000801676,-0.0360896,-0.00359254,0.118682,0.00393029,0,0,0,-0.0323769,0,0.00181898,0,0,0,0.0657444,-0.0246,0.588184,0,0,0,0,0,0
0.278187,0.000266569,-1.12013,0.000105656,2.21198,-0.000502826,0.627303,0.000547385,0.00195576,-0.0829361,0.000806299,-0.036319,-0.00360921,0.119256,0.0039489,0,0,0,-0.0325253,0,0.00184425,0,0,0,0.0657029,-0.0246,0.588186,0,0,0,0,0,0
0.27946,0.000269072,-1.12024,0.000106689,2.21193,-0.000507442,0.627455,0.000552436,0.00196557,-0.0832794,0.000810912,-0.0365485,-0.00362583,0.119829,0.00396744,0,0,0,-0.0326732,0,0.00186968,0,0,0,0.0656613,-0.0246,0.588188,0,0,0,0,0,0
0.280926,0.00027197,-1.12036,0.000107885,2.21188,-0.000512786,0.627632,0.000558284,0.00197675,-0.0836758,0.0008161,-0.0368119,-0.00364497,0.120489,0.00398875,0,0,0,-0.0328435,0,0.00189923,0,0,0,0.0656131,-0.0246,0.588191,0,0,0,0,0,0
0.281989,0.00027408,-1.12045,0.000108757,2.21184,-0.000516676,0.62776,0.000562541,0.00198519,-0.0839581,0.000820256,-0.0370086,-0.00365881,0.120968,0.00400433,0,0,0,-0.0329669,0,0.00192086,0,0,0,0.0655781,-0.0246,0.588193,0,0,0,0,0,0
0.282989,0.000276074,-1.12053,0.000109581,2.2118,-0.000520348,0.627882,0.000566561,0.00199295,-0.0842261,0.000823951,-0.0371914,-0.00367185,0.121419,0.00401891,0,0,0,-0.033083,0,0.00194136,0,0,0,0.065545,-0.0246,0.588195,0,0,0,0,0,0
0.28399,0.000278074,-1.12062,0.000110409,2.21176,-0.000524034,0.628004,0.000570594,0.00200068,-0.0844942,0.000827609,-0.037374,-0.0036849,0.12187,0.00403349,0,0,0,-0.0331991,0,0.00196199,0,0,0,0.0655118,-0.0246,0.588197,0,0,0,0,0,0
0.28499,0.000280083,-1.1207,0.00011124,2.21172,-0.000527732,0.628126,0.000574643,0.00200841,-0.084762,0.000831275,-0.0375572,-0.00369794,0.122321,0.00404806,0,0,0,-0.0333152,0,0.00198278,0,0,0,0.0654785,-0.0246,0.588199,0,0,0,0,0,0
0.28599,0.000282099,-1.12079,0.000112075,2.21169,-0.000531443,0.628249,0.000578706,0.00201615,-0.0850295,0.000834949,-0.0377409,-0.00371099,0.122772,0.00406264,0,0,0,-0.0334313,0,0.00200371,0,0,0,0.065445,-0.0246,0.588201,0,0,0,0,0,0
0.28699,0.000284124,-1.12087,0.000112914,2.21165,-0.000535168,0.628372,0.000582784,0.0020239,-0.0852966,0.000838631,-0.0379252,-0.00372403,0.123223,0.00407722,0,0,0,-0.0335474,0,0.00202479,0,0,0,0.0654115,-0.0246,0.588203,0,0,0,0,0,0
0.28799,0.000286155,-1.12096,0.000113757,2.21161,-0.000538905,0.628496,0.000586876,0.00203166,-0.0855634,0.00084232,-0.03811,-0.00373708,0.123675,0.00409181,0,0,0,-0.0336634,0,0.00204601,0,0,0,0.0653778,-0.0246,0.588205,0,0,0,0,0,0
0.28899,0.000288195,-1.12104,0.000114603,2.21157,-0.000542656,0.62862,0.000590983,0.00203942,-0.0858298,0.000846018,-0.0382953,-0.00375012,0.124127,0.00410639,0,0,0,-0.0337795,0,0.00206738,0,0,0,0.065344,-0.0246,0.588207,0,0,0,0,0,0
0.28999,0.000290243,-1.12113,0.000115453,2.21153,-0.000546419,0.628745,0.000595104,0.00204719,-0.0860959,0.000849723,-0.0384812,-0.00376316,0.124579,0.00412098,0,0,0,-0.0338955,0,0.00208891,0,0,0,0.0653101,-0.0246,0.588209,0,0,0,0,0,0
0.291001,0.00029232,-1.12122,0.000116315,2.21149,-0.000550236,0.628871,0.000599284,0.00205504,-0.0863645,0.000853468,-0.0386695,-0.00377634,0.125036,0.00413573,0,0,0,-0.0340127,0,0.00211081,0,0,0,0.0652758,-0.0246,0.588211,0,0,0,0,0,0
0.292001,0.000294383,-1.1213,0.000117172,2.21146,-0.000554026,0.628996,0.000603435,0.00206283,-0.0866298,0.000857197,-0.0388566,-0.00378938,0.125488,0.00415032,0,0,0,-0.0341287,0,0.00213262,0,0,0,0.0652416,-0.0246,0.588213,0,0,0,0,0,0
0.293001,0.000296453,-1.12139,0.000118033,2.21142,-0.000557829,0.629122,0.0006076,0.00207062,-0.0868948,0.000860926,-0.0390441,-0.00380242,0.125941,0.00416492,0,0,0,-0.0342447,0,0.00215459,0,0,0,0.0652074,-0.0246,0.588216,0,0,0,0,0,0
0.294001,0.000298532,-1.12148,0.000118898,2.21138,-0.000561645,0.629249,0.00061178,0.00207842,-0.0871595,0.000864663,-0.0392322,-0.00381546,0.126393,0.00417951,0,0,0,-0.0343606,0,0.00217671,0,0,0,0.065173,-0.0246,0.588218,0,0,0,0,0,0
0.295001,0.000300619,-1.12156,0.000119767,2.21134,-0.000565473,0.629376,0.000615975,0.00208622,-0.0874238,0.000868409,-0.0394208,-0.0038285,0.126846,0.00419411,0,0,0,-0.0344766,0,0.00219898,0,0,0,0.0651385,-0.0246,0.58822,0,0,0,0,0,0
0.296001,0.000302713,-1.12165,0.000120639,2.2113,-0.000569315,0.629503,0.000620184,0.00209403,-0.0876877,0.000872162,-0.0396099,-0.00384153,0.127299,0.00420872,0,0,0,-0.0345925,0,0.0022214,0,0,0,0.0651039,-0.0246,0.588222,0,0,0,0,0,0
0.297002,0.000304815,-1.12174,0.000121515,2.21126,-0.00057317,0.629631,0.000624408,0.00210185,-0.0879513,0.000875923,-0.0397996,-0.00385457,0.127753,0.00422332,0,0,0,-0.0347084,0,0.00224397,0,0,0,0.0650692,-0.0246,0.588224,0,0,0,0,0,0
0.298002,0.000306925,-1.12183,0.000122395,2.21122,-0.000577038,0.629759,0.000628646,0.00210967,-0.0882145,0.000879692,-0.0399899,-0.0038676,0.128206,0.00423792,0,0,0,-0.0348243,0,0.0022667,0,0,0,0.0650344,-0.0246,0.588227,0,0,0,0,0,0
0.299002,0.000309043,-1.12192,0.000123278,2.21118,-0.00058092,0.629888,0.0006329,0.0021175,-0.0884774,0.00088347,-0.0401807,-0.00388064,0.12866,0.00425253,0,0,0,-0.0349402,0,0.00228957,0,0,0,0.0649994,-0.0246,0.588229,0,0,0,0,0,0
0.300002,0.000311168,-1.12201,0.000124166,2.21114,-0.000584814,0.630017,0.000637167,0.00212534,-0.0887399,0.000887256,-0.0403721,-0.00389367,0.129114,0.00426714,0,0,0,-0.035056,0,0.0023126,0,0,0,0.0649644,-0.0246,0.588231,0,0,0,0,0,0
0.301002,0.000313302,-1.12209,0.000125057,2.2111,-0.000588721,0.630146,0.000641449,0.00213318,-0.089002,0.00089105,-0.040564,-0.0039067,0.129568,0.00428176,0,0,0,-0.0351719,0,0.00233579,0,0,0,0.0649292,-0.0246,0.588234,0,0,0,0,0,0
0.302002,0.000315443,-1.12218,0.000125952,2.21106,-0.000592641,0.630276,0.000645746,0.00214104,-0.0892638,0.000894852,-0.0407565,-0.00391973,0.130022,0.00429637,0,0,0,-0.0352877,0,0.00235912,0,0,0,0.0648939,-0.0246,0.588236,0,0,0,0,0,0
0.303002,0.000317592,-1.12227,0.000126851,2.21102,-0.000596574,0.630407,0.000650057,0.00214889,-0.0895252,0.000898662,-0.0409496,-0.00393276,0.130477,0.00431098,0,0,0,-0.0354035,0,0.00238261,0,0,0,0.0648585,-0.0246,0.588238,0,0,0,0,0,0
0.304002,0.000319749,-1.12236,0.000127753,2.21097,-0.000600521,0.630538,0.000654384,0.00215676,-0.0897862,0.00090248,-0.0411432,-0.00394579,0.130931,0.0043256,0,0,0,-0.0355193,0,0.00240626,0,0,0,0.064823,-0.0246,0.588241,0,0,0,0,0,0
0.305003,0.000321914,-1.12245,0.00012866,2.21093,-0.00060448,0.630669,0.000658725,0.00216463,-0.0900469,0.000906307,-0.0413374,-0.00395882,0.131386,0.00434022,0,0,0,-0.0356351,0,0.00243007,0,0,0,0.0647873,-0.0246,0.588243,0,0,0,0,0,0
0.306003,0.000324087,-1.12254,0.00012957,2.21089,-0.000608453,0.630801,0.00066308,0.00217251,-0.0903072,0.000910142,-0.0415321,-0.00397185,0.131841,0.00435485,0,0,0,-0.0357508,0,0.00245403,0,0,0,0.0647516,-0.0246,0.588246,0,0,0,0,0,0
0.307003,0.000326268,-1.12263,0.000130484,2.21085,-0.000612438,0.630933,0.000667451,0.0021804,-0.0905671,0.000913986,-0.0417275,-0.00398487,0.132296,0.00436947,0,0,0,-0.0358666,0,0.00247814,0,0,0,0.0647157,-0.0246,0.588248,0,0,0,0,0,0
0.308003,0.000328456,-1.12272,0.000131402,2.21081,-0.000616437,0.631066,0.000671835,0.00218829,-0.0908266,0.000917837,-0.0419234,-0.0039979,0.132752,0.0043841,0,0,0,-0.0359823,0,0.00250241,0,0,0,0.0646797,-0.0246,0.588251,0,0,0,0,0,0
0.309003,0.000330653,-1.12282,0.000132324,2.21077,-0.000620448,0.631199,0.000676234,0.00219619,-0.0910857,0.000921697,-0.0421198,-0.00401092,0.133207,0.00439872,0,0,0,-0.036098,0,0.00252684,0,0,0,0.0646436,-0.0246,0.588253,0,0,0,0,0,0
0.310003,0.000332857,-1.12291,0.000133249,2.21072,-0.000624472,0.631333,0.000680648,0.0022041,-0.0913445,0.000925565,-0.0423168,-0.00402394,0.133663,0.00441335,0,0,0,-0.0362137,0,0.00255143,0,0,0,0.0646074,-0.0246,0.588256,0,0,0,0,0,0
0.311003,0.000335069,-1.123,0.000134179,2.21068,-0.00062851,0.631467,0.000685077,0.00221201,-0.0916028,0.000929442,-0.0425144,-0.00403696,0.134119,0.00442798,0,0,0,-0.0363293,0,0.00257618,0,0,0,0.0645711,-0.0246,0.588258,0,0,0,0,0,0
0.312003,0.00033729,-1.12309,0.000135112,2.21064,-0.00063256,0.631602,0.00068952,0.00221993,-0.0918608,0.000933327,-0.0427126,-0.00404998,0.134575,0.00444262,0,0,0,-0.036445,0,0.00260108,0,0,0,0.0645346,-0.0246,0.588261,0,0,0,0,0,0
0.313004,0.000339518,-1.12318,0.00013605,2.2106,-0.000636624,0.631737,0.000693978,0.00222786,-0.0921184,0.000937221,-0.0429114,-0.00406299,0.135032,0.00445725,0,0,0,-0.0365606,0,0.00262615,0,0,0,0.064498,-0.0246,0.588263,0,0,0,0,0,0
0.314004,0.000341754,-1.12328,0.000136991,2.21055,-0.0006407,0.631872,0.00069845,0.0022358,-0.0923756,0.000941123,-0.0431107,-0.00407601,0.135488,0.00447189,0,0,0,-0.0366762,0,0.00265137,0,0,0,0.0644614,-0.0246,0.588266,0,0,0,0,0,0
0.315004,0.000343998,-1.12337,0.000137936,2.21051,-0.00064479,0.632008,0.000702937,0.00224374,-0.0926324,0.000945033,-0.0433106,-0.00408902,0.135945,0.00448652,0,0,0,-0.0367918,0,0.00267676,0,0,0,0.0644246,-0.0246,0.588269,0,0,0,0,0,0
0.316004,0.00034625,-1.12346,0.000138885,2.21047,-0.000648893,0.632145,0.000707439,0.00225169,-0.0928889,0.000948952,-0.0435111,-0.00410204,0.136402,0.00450116,0,0,0,-0.0369074,0,0.0027023,0,0,0,0.0643877,-0.0246,0.588272,0,0,0,0,0,0
0.317004,0.00034851,-1.12355,0.000139838,2.21042,-0.000653008,0.632282,0.000711955,0.00225964,-0.0931449,0.00095288,-0.0437122,-0.00411505,0.136859,0.0045158,0,0,0,-0.0370229,0,0.00272801,0,0,0,0.0643506,-0.0246,0.588274,0,0,0,0,0,0
0.318004,0.000350778,-1.12365,0.000140795,2.21038,-0.000657136,0.632419,0.000716486,0.00226761,-0.0934005,0.000956815,-0.0439138,-0.00412805,0.137316,0.00453044,0,0,0,-0.0371384,0,0.00275388,0,0,0,0.0643135,-0.0246,0.588277,0,0,0,0,0,0
0.319004,0.000353053,-1.12374,0.000141756,2.21033,-0.000661278,0.632557,0.000721032,0.00227558,-0.0936558,0.00096076,-0.0441161,-0.00414106,0.137774,0.00454509,0,0,0,-0.037254,0,0.00277991,0,0,0,0.0642762,-0.0246,0.58828,0,0,0,0,0,0
0.320004,0.000355337,-1.12384,0.000142721,2.21029,-0.000665432,0.632695,0.000725592,0.00228355,-0.0939106,0.000964713,-0.0443189,-0.00415407,0.138232,0.00455973,0,0,0,-0.0373694,0,0.00280611,0,0,0,0.0642389,-0.0246,0.588283,0,0,0,0,0,0
0.321005,0.000357629,-1.12393,0.00014369,2.21024,-0.0006696,0.632834,0.000730167,0.00229154,-0.094165,0.000968675,-0.0445224,-0.00416707,0.138689,0.00457438,0,0,0,-0.0374849,0,0.00283247,0,0,0,0.0642014,-0.0246,0.588285,0,0,0,0,0,0
0.322005,0.000359929,-1.12402,0.000144662,2.2102,-0.00067378,0.632973,0.000734756,0.00229953,-0.094419,0.000972645,-0.0447264,-0.00418007,0.139148,0.00458903,0,0,0,-0.0376003,0,0.00285899,0,0,0,0.0641638,-0.0246,0.588288,0,0,0,0,0,0
0.323052,0.000362347,-1.12412,0.000145686,2.21015,-0.000678174,0.633119,0.00073958,0.00230787,-0.0946853,0.000976769,-0.0449402,-0.0041937,0.139628,0.00460436,0,0,0,-0.0377213,0,0.00288695,0,0,0,0.0641242,-0.0246,0.588291,0,0,0,0,0,0
0.324053,0.000364663,-1.12422,0.000146667,2.21011,-0.000682382,0.633259,0.0007442,0.00231591,-0.0949379,0.000980802,-0.045146,-0.00420669,0.140086,0.00461903,0,0,0,-0.0378367,0,0.00291381,0,0,0,0.0640864,-0.0246,0.588294,0,0,0,0,0,0
0.325053,0.000366987,-1.12431,0.000147652,2.21006,-0.000686602,0.6334,0.000748835,0.00232393,-0.0951907,0.000984799,-0.0453518,-0.00421969,0.140545,0.00463368,0,0,0,-0.0379521,0,0.00294084,0,0,0,0.0640484,-0.0246,0.588297,0,0,0,0,0,0
0.326053,0.00036932,-1.12441,0.000148641,2.21002,-0.000690835,0.633541,0.000753484,0.00233195,-0.0954431,0.000988804,-0.0455583,-0.00423268,0.141004,0.00464833,0,0,0,-0.0380674,0,0.00296803,0,0,0,0.0640104,-0.0246,0.5883,0,0,0,0,0,0
0.327053,0.00037166,-1.1245,0.000149634,2.20997,-0.000695081,0.633682,0.000758147,0.00233998,-0.095695,0.000992819,-0.0457653,-0.00424567,0.141463,0.00466299,0,0,0,-0.0381828,0,0.00299539,0,0,0,0.0639722,-0.0246,0.588303,0,0,0,0,0,0
0.328053,0.000374008,-1.1246,0.00015063,2.20993,-0.00069934,0.633824,0.000762825,0.00234801,-0.0959466,0.000996842,-0.0459729,-0.00425866,0.141922,0.00467764,0,0,0,-0.0382981,0,0.00302292,0,0,0,0.0639339,-0.0246,0.588306,0,0,0,0,0,0
0.329053,0.000376364,-1.1247,0.000151631,2.20988,-0.000703613,0.633967,0.000767518,0.00235605,-0.0961977,0.00100087,-0.0461812,-0.00427165,0.142381,0.0046923,0,0,0,-0.0384134,0,0.00305061,0,0,0,0.0638954,-0.0246,0.588309,0,0,0,0,0,0
0.330053,0.000378729,-1.12479,0.000152636,2.20983,-0.000707898,0.63411,0.000772225,0.0023641,-0.0964484,0.00100491,-0.04639,-0.00428464,0.142841,0.00470696,0,0,0,-0.0385286,0,0.00307847,0,0,0,0.0638569,-0.0246,0.588312,0,0,0,0,0,0
0.331053,0.000381101,-1.12489,0.000153646,2.20979,-0.000712196,0.634253,0.000776948,0.00237216,-0.0966987,0.00100896,-0.0465994,-0.00429762,0.1433,0.00472162,0,0,0,-0.0386439,0,0.0031065,0,0,0,0.0638183,-0.0246,0.588315,0,0,0,0,0,0
0.332053,0.000383481,-1.12499,0.000154659,2.20974,-0.000716507,0.634397,0.000781684,0.00238022,-0.0969485,0.00101302,-0.0468095,-0.00431061,0.14376,0.00473628,0,0,0,-0.0387591,0,0.0031347,0,0,0,0.0637795,-0.0246,0.588318,0,0,0,0,0,0
0.333054,0.00038587,-1.12508,0.000155676,2.20969,-0.000720831,0.634541,0.000786436,0.00238829,-0.0971979,0.00101709,-0.0470201,-0.00432358,0.14422,0.00475094,0,0,0,-0.0388743,0,0.00316306,0,0,0,0.0637406,-0.0246,0.588322,0,0,0,0,0,0
0.334054,0.000388267,-1.12518,0.000156697,2.20965,-0.000725168,0.634686,0.000791202,0.00239637,-0.097447,0.00102116,-0.0472314,-0.00433656,0.144681,0.0047656,0,0,0,-0.0389895,0,0.0031916,0,0,0,0.0637016,-0.0246,0.588325,0,0,0,0,0,0
0.335054,0.000390671,-1.12528,0.000157722,2.2096,-0.000729518,0.634831,0.000795983,0.00240445,-0.0976955,0.00102525,-0.0474433,-0.00434954,0.145141,0.00478026,0,0,0,-0.0391046,0,0.00322031,0,0,0,0.0636625,-0.0246,0.588328,0,0,0,0,0,0
0.336054,0.000393084,-1.12538,0.000158752,2.20955,-0.000733881,0.634976,0.000800778,0.00241254,-0.0979437,0.00102934,-0.0476558,-0.00436251,0.145602,0.00479493,0,0,0,-0.0392198,0,0.00324919,0,0,0,0.0636233,-0.0246,0.588331,0,0,0,0,0,0
0.337054,0.000395505,-1.12547,0.000159785,2.2095,-0.000738257,0.635122,0.000805588,0.00242064,-0.0981914,0.00103345,-0.0478689,-0.00437548,0.146063,0.00480959,0,0,0,-0.0393349,0,0.00327824,0,0,0,0.063584,-0.0246,0.588335,0,0,0,0,0,0
0.338054,0.000397934,-1.12557,0.000160823,2.20945,-0.000742645,0.635269,0.000810413,0.00242875,-0.0984387,0.00103756,-0.0480826,-0.00438845,0.146524,0.00482426,0,0,0,-0.03945,0,0.00330746,0,0,0,0.0635445,-0.0246,0.588338,0,0,0,0,0,0
0.339054,0.000400371,-1.12567,0.000161865,2.20941,-0.000747047,0.635416,0.000815252,0.00243686,-0.0986855,0.00104168,-0.0482969,-0.00440142,0.146985,0.00483893,0,0,0,-0.039565,0,0.00333686,0,0,0,0.0635049,-0.0246,0.588341,0,0,0,0,0,0
0.340056,0.000402822,-1.12577,0.000162913,2.20936,-0.000751472,0.635564,0.000820117,0.002445,-0.0989325,0.00104581,-0.0485123,-0.00441441,0.147447,0.00485363,0,0,0,-0.0396803,0,0.00336649,0,0,0,0.0634652,-0.0246,0.588345,0,0,0,0,0,0
0.341057,0.000405275,-1.12587,0.000163963,2.20931,-0.0007559,0.635712,0.000824986,0.00245313,-0.0991784,0.00104996,-0.048728,-0.00442737,0.147909,0.0048683,0,0,0,-0.0397953,0,0.00339624,0,0,0,0.0634254,-0.0246,0.588348,0,0,0,0,0,0
0.342057,0.000407737,-1.12597,0.000165017,2.20926,-0.000760341,0.63586,0.00082987,0.00246126,-0.099424,0.0010541,-0.0489442,-0.00444033,0.148371,0.00488296,0,0,0,-0.0399103,0,0.00342615,0,0,0,0.0633854,-0.0246,0.588351,0,0,0,0,0,0
0.343057,0.000410206,-1.12607,0.000166076,2.20921,-0.000764795,0.636009,0.000834768,0.0024694,-0.099669,0.00105826,-0.049161,-0.00445329,0.148833,0.00489763,0,0,0,-0.0400253,0,0.00345624,0,0,0,0.0633454,-0.0246,0.588355,0,0,0,0,0,0
0.344057,0.000412684,-1.12617,0.000167138,2.20916,-0.000769261,0.636158,0.000839681,0.00247755,-0.0999137,0.00106243,-0.0493784,-0.00446624,0.149295,0.00491231,0,0,0,-0.0401402,0,0.00348651,0,0,0,0.0633053,-0.0246,0.588358,0,0,0,0,0,0
0.345057,0.00041517,-1.12627,0.000168205,2.20911,-0.000773741,0.636308,0.000844609,0.00248571,-0.100158,0.0010666,-0.0495965,-0.00447919,0.149757,0.00492698,0,0,0,-0.0402551,0,0.00351695,0,0,0,0.063265,-0.0246,0.588362,0,0,0,0,0,0
0.346057,0.000417665,-1.12637,0.000169276,2.20906,-0.000778234,0.636458,0.000849551,0.00249387,-0.100402,0.00107079,-0.0498152,-0.00449214,0.15022,0.00494165,0,0,0,-0.04037,0,0.00354757,0,0,0,0.0632246,-0.0246,0.588365,0,0,0,0,0,0
0.347057,0.000420167,-1.12647,0.000170351,2.20901,-0.00078274,0.636609,0.000854508,0.00250204,-0.100645,0.00107498,-0.0500346,-0.00450509,0.150682,0.00495632,0,0,0,-0.0404849,0,0.00357836,0,0,0,0.0631841,-0.0246,0.588369,0,0,0,0,0,0
0.348058,0.000422678,-1.12657,0.000171431,2.20896,-0.000787258,0.63676,0.00085948,0.00251022,-0.100888,0.00107918,-0.0502546,-0.00451803,0.151145,0.004971,0,0,0,-0.0405997,0,0.00360933,0,0,0,0.0631435,-0.0246,0.588373,0,0,0,0,0,0
0.349058,0.000425196,-1.12667,0.000172514,2.20891,-0.00079179,0.636912,0.000864466,0.00251841,-0.10113,0.00108339,-0.0504752,-0.00453097,0.151608,0.00498567,0,0,0,-0.0407145,0,0.00364048,0,0,0,0.0631028,-0.0246,0.588376,0,0,0,0,0,0
0.350058,0.000427723,-1.12677,0.000173602,2.20886,-0.000796334,0.637064,0.000869467,0.0025266,-0.101372,0.00108761,-0.0506964,-0.00454391,0.152071,0.00500034,0,0,0,-0.0408293,0,0.00367181,0,0,0,0.063062,-0.0246,0.58838,0,0,0,0,0,0
0.351058,0.000430258,-1.12688,0.000174694,2.20881,-0.000800892,0.637216,0.000874483,0.0025348,-0.101614,0.00109184,-0.0509183,-0.00455684,0.152535,0.00501502,0,0,0,-0.0409441,0,0.00370331,0,0,0,0.063021,-0.0246,0.588384,0,0,0,0,0,0
0.352058,0.000432802,-1.12698,0.00017579,2.20876,-0.000805462,0.637369,0.000879513,0.00254301,-0.101855,0.00109608,-0.0511408,-0.00456977,0.152998,0.00502969,0,0,0,-0.0410588,0,0.003735,0,0,0,0.0629799,-0.0246,0.588387,0,0,0,0,0,0
0.353058,0.000435353,-1.12708,0.000176891,2.20871,-0.000810046,0.637523,0.000884558,0.00255122,-0.102095,0.00110033,-0.051364,-0.0045827,0.153462,0.00504437,0,0,0,-0.0411735,0,0.00376686,0,0,0,0.0629388,-0.0246,0.588391,0,0,0,0,0,0
0.354058,0.000437913,-1.12718,0.000177995,2.20865,-0.000814642,0.637677,0.000889618,0.00255944,-0.102335,0.00110459,-0.0515878,-0.00459563,0.153926,0.00505904,0,0,0,-0.0412882,0,0.0037989,0,0,0,0.0628975,-0.0246,0.588395,0,0,0,0,0,0
0.355058,0.000440481,-1.12728,0.000179104,2.2086,-0.000819251,0.637831,0.000894692,0.00256767,-0.102575,0.00110886,-0.0518122,-0.00460855,0.15439,0.00507372,0,0,0,-0.0414028,0,0.00383112,0,0,0,0.0628561,-0.0246,0.588399,0,0,0,0,0,0
0.356059,0.000443057,-1.12739,0.000180218,2.20855,-0.000823873,0.637986,0.000899781,0.00257591,-0.102814,0.00111313,-0.0520373,-0.00462147,0.154854,0.00508839,0,0,0,-0.0415175,0,0.00386353,0,0,0,0.0628145,-0.0246,0.588403,0,0,0,0,0,0
0.357059,0.000445642,-1.12749,0.000181335,2.2085,-0.000828508,0.638141,0.000904885,0.00258415,-0.103053,0.00111742,-0.052263,-0.00463438,0.155319,0.00510307,0,0,0,-0.041632,0,0.00389611,0,0,0,0.0627729,-0.0246,0.588406,0,0,0,0,0,0
0.358059,0.000448235,-1.12759,0.000182457,2.20845,-0.000833156,0.638297,0.000910004,0.0025924,-0.103291,0.00112171,-0.0524894,-0.0046473,0.155783,0.00511775,0,0,0,-0.0417466,0,0.00392888,0,0,0,0.0627311,-0.0246,0.58841,0,0,0,0,0,0
0.359059,0.000450836,-1.1277,0.000183583,2.20839,-0.000837817,0.638454,0.000915137,0.00260066,-0.103529,0.00112602,-0.0527164,-0.00466021,0.156248,0.00513242,0,0,0,-0.0418611,0,0.00396183,0,0,0,0.0626893,-0.0246,0.588414,0,0,0,0,0,0
0.360059,0.000453445,-1.1278,0.000184714,2.20834,-0.000842491,0.63861,0.000920284,0.00260892,-0.103766,0.00113033,-0.0529441,-0.00467311,0.156713,0.0051471,0,0,0,-0.0419756,0,0.00399496,0,0,0,0.0626473,-0.0246,0.588418,0,0,0,0,0,0
0.361059,0.000456063,-1.12791,0.000185849,2.20829,-0.000847178,0.638767,0.000925447,0.00261719,-0.104003,0.00113466,-0.0531724,-0.00468602,0.157178,0.00516177,0,0,0,-0.0420901,0,0.00402828,0,0,0,0.0626052,-0.0246,0.588422,0,0,0,0,0,0
0.36206,0.000458689,-1.12801,0.000186988,2.20823,-0.000851877,0.638925,0.000930624,0.00262547,-0.104239,0.00113899,-0.0534014,-0.00469892,0.157643,0.00517645,0,0,0,-0.0422046,0,0.00406178,0,0,0,0.062563,-0.0246,0.588426,0,0,0,0,0,0
0.36306,0.000461323,-1.12811,0.000188131,2.20818,-0.00085659,0.639083,0.000935816,0.00263376,-0.104475,0.00114333,-0.053631,-0.00471181,0.158109,0.00519112,0,0,0,-0.042319,0,0.00409546,0,0,0,0.0625207,-0.0246,0.588431,0,0,0,0,0,0
0.36406,0.000463965,-1.12822,0.000189279,2.20813,-0.000861315,0.639242,0.000941022,0.00264205,-0.10471,0.00114768,-0.0538613,-0.00472471,0.158574,0.0052058,0,0,0,-0.0424334,0,0.00412933,0,0,0,0.0624782,-0.0246,0.588435,0,0,0,0,0,0
0.36506,0.000466616,-1.12832,0.000190431,2.20807,-0.000866053,0.639401,0.000946244,0.00265036,-0.104945,0.00115204,-0.0540922,-0.0047376,0.15904,0.00522047,0,0,0,-0.0425477,0,0.00416339,0,0,0,0.0624357,-0.0246,0.588439,0,0,0,0,0,0
0.36606,0.000469275,-1.12843,0.000191588,2.20802,-0.000870804,0.63956,0.00095148,0.00265866,-0.105179,0.00115641,-0.0543238,-0.00475048,0.159506,0.00523515,0,0,0,-0.0426621,0,0.00419762,0,0,0,0.062393,-0.0246,0.588443,0,0,0,0,0,0
0.36706,0.000471942,-1.12853,0.000192749,2.20796,-0.000875569,0.63972,0.000956731,0.00266698,-0.105413,0.00116079,-0.0545561,-0.00476336,0.159972,0.00524982,0,0,0,-0.0427764,0,0.00423205,0,0,0,0.0623502,-0.0246,0.588447,0,0,0,0,0,0
0.36806,0.000474618,-1.12864,0.000193914,2.20791,-0.000880345,0.639881,0.000961996,0.0026753,-0.105646,0.00116518,-0.054789,-0.00477624,0.160439,0.0052645,0,0,0,-0.0428906,0,0.00426666,0,0,0,0.0623073,-0.0246,0.588452,0,0,0,0,0,0
0.36906,0.000477302,-1.12875,0.000195084,2.20785,-0.000885135,0.640042,0.000967275,0.00268363,-0.105879,0.00116958,-0.0550225,-0.00478912,0.160905,0.00527917,0,0,0,-0.0430048,0,0.00430146,0,0,0,0.0622643,-0.0246,0.588456,0,0,0,0,0,0
0.370061,0.000479994,-1.12885,0.000196258,2.2078,-0.000889938,0.640203,0.00097257,0.00269197,-0.106111,0.00117399,-0.0552568,-0.00480199,0.161372,0.00529384,0,0,0,-0.043119,0,0.00433645,0,0,0,0.0622212,-0.0246,0.58846,0,0,0,0,0,0
0.371061,0.000482695,-1.12896,0.000197436,2.20774,-0.000894753,0.640365,0.000977879,0.00270031,-0.106343,0.00117841,-0.0554917,-0.00481485,0.161838,0.00530851,0,0,0,-0.0432332,0,0.00437162,0,0,0,0.0621779,-0.0246,0.588465,0,0,0,0,0,0
0.372061,0.000485403,-1.12906,0.000198619,2.20769,-0.000899581,0.640527,0.000983202,0.00270866,-0.106575,0.00118284,-0.0557272,-0.00482771,0.162305,0.00532318,0,0,0,-0.0433473,0,0.00440698,0,0,0,0.0621346,-0.0246,0.588469,0,0,0,0,0,0
0.373061,0.000488121,-1.12917,0.000199807,2.20763,-0.000904423,0.64069,0.000988541,0.00271702,-0.106806,0.00118728,-0.0559635,-0.00484057,0.162772,0.00533786,0,0,0,-0.0434615,0,0.00444254,0,0,0,0.0620911,-0.0246,0.588473,0,0,0,0,0,0
0.374061,0.000490847,-1.12928,0.000200999,2.20757,-0.000909277,0.640853,0.000993895,0.00272539,-0.107036,0.00119172,-0.0562004,-0.00485343,0.16324,0.00535253,0,0,0,-0.0435755,0,0.00447828,0,0,0,0.0620475,-0.0246,0.588478,0,0,0,0,0,0
0.375061,0.000493581,-1.12939,0.000202195,2.20752,-0.000914144,0.641017,0.000999263,0.00273376,-0.107266,0.00119618,-0.056438,-0.00486628,0.163707,0.0053672,0,0,0,-0.0436896,0,0.00451422,0,0,0,0.0620038,-0.0246,0.588482,0,0,0,0,0,0
0.376061,0.000496324,-1.12949,0.000203396,2.20746,-0.000919024,0.641181,0.00100465,0.00274214,-0.107495,0.00120065,-0.0566762,-0.00487913,0.164175,0.00538187,0,0,0,-0.0438036,0,0.00455034,0,0,0,0.06196,-0.0246,0.588487,0,0,0,0,0,0
0.377062,0.000499075,-1.1296,0.000204601,2.2074,-0.000923916,0.641346,0.00101004,0.00275053,-0.107724,0.00120512,-0.0569151,-0.00489197,0.164643,0.00539653,0,0,0,-0.0439176,0,0.00458665,0,0,0,0.0619161,-0.0246,0.588491,0,0,0,0,0,0
0.378062,0.000501834,-1.12971,0.000205811,2.20735,-0.000928822,0.641511,0.00101545,0.00275893,-0.107952,0.00120961,-0.0571547,-0.00490481,0.16511,0.0054112,0,0,0,-0.0440315,0,0.00462316,0,0,0,0.0618721,-0.0246,0.588496,0,0,0,0,0,0
0.379062,0.000504602,-1.12982,0.000207025,2.20729,-0.00093374,0.641677,0.00102088,0.00276733,-0.10818,0.0012141,-0.057395,-0.00491764,0.165579,0.00542587,0,0,0,-0.0441454,0,0.00465986,0,0,0,0.0618279,-0.0246,0.588501,0,0,0,0,0,0
0.380062,0.000507378,-1.12993,0.000208244,2.20723,-0.000938671,0.641843,0.00102632,0.00277574,-0.108407,0.00121861,-0.0576359,-0.00493047,0.166047,0.00544053,0,0,0,-0.0442593,0,0.00469674,0,0,0,0.0617836,-0.0246,0.588505,0,0,0,0,0,0
0.381062,0.000510162,-1.13003,0.000209468,2.20717,-0.000943616,0.642009,0.00103178,0.00278415,-0.108634,0.00122312,-0.0578775,-0.0049433,0.166515,0.0054552,0,0,0,-0.0443731,0,0.00473383,0,0,0,0.0617392,-0.0246,0.58851,0,0,0,0,0,0
0.382062,0.000512955,-1.13014,0.000210695,2.20712,-0.000948572,0.642176,0.00103725,0.00279258,-0.10886,0.00122765,-0.0581198,-0.00495612,0.166984,0.00546986,0,0,0,-0.0444869,0,0.0047711,0,0,0,0.0616948,-0.0246,0.588515,0,0,0,0,0,0
0.383062,0.000515756,-1.13025,0.000211928,2.20706,-0.000953542,0.642344,0.00104273,0.00280101,-0.109086,0.00123218,-0.0583628,-0.00496894,0.167452,0.00548452,0,0,0,-0.0446007,0,0.00480857,0,0,0,0.0616501,-0.0246,0.58852,0,0,0,0,0,0
0.384062,0.000518566,-1.13036,0.000213164,2.207,-0.000958524,0.642512,0.00104823,0.00280945,-0.109311,0.00123673,-0.0586065,-0.00498175,0.167921,0.00549918,0,0,0,-0.0447144,0,0.00484624,0,0,0,0.0616054,-0.0246,0.588525,0,0,0,0,0,0
0.385063,0.000521384,-1.13047,0.000214406,2.20694,-0.000963519,0.64268,0.00105375,0.00281789,-0.109536,0.00124128,-0.0588508,-0.00499456,0.16839,0.00551384,0,0,0,-0.0448281,0,0.0048841,0,0,0,0.0615606,-0.0246,0.588529,0,0,0,0,0,0
0.386063,0.000524211,-1.13058,0.000215652,2.20688,-0.000968527,0.642849,0.00105928,0.00282634,-0.10976,0.00124584,-0.0590958,-0.00500736,0.168859,0.00552849,0,0,0,-0.0449418,0,0.00492215,0,0,0,0.0615156,-0.0246,0.588534,0,0,0,0,0,0
0.387063,0.000527046,-1.13069,0.000216902,2.20682,-0.000973547,0.643018,0.00106482,0.0028348,-0.109983,0.00125042,-0.0593415,-0.00502016,0.169329,0.00554315,0,0,0,-0.0450554,0,0.0049604,0,0,0,0.0614706,-0.0246,0.588539,0,0,0,0,0,0
0.388063,0.00052989,-1.1308,0.000218158,2.20676,-0.000978581,0.643188,0.00107038,0.00284327,-0.110206,0.001255,-0.059588,-0.00503295,0.169798,0.00555781,0,0,0,-0.045169,0,0.00499885,0,0,0,0.0614254,-0.0246,0.588544,0,0,0,0,0,0
0.389063,0.000532742,-1.13091,0.000219417,2.2067,-0.000983628,0.643359,0.00107595,0.00285174,-0.110429,0.00125959,-0.0598351,-0.00504574,0.170268,0.00557246,0,0,0,-0.0452825,0,0.00503749,0,0,0,0.0613801,-0.0246,0.588549,0,0,0,0,0,0
0.390063,0.000535603,-1.13102,0.000220682,2.20664,-0.000988688,0.643529,0.00108154,0.00286023,-0.110651,0.0012642,-0.0600829,-0.00505853,0.170738,0.00558711,0,0,0,-0.0453961,0,0.00507634,0,0,0,0.0613347,-0.0246,0.588554,0,0,0,0,0,0
0.391149,0.000538718,-1.13114,0.00022206,2.20658,-0.000994194,0.643715,0.00108762,0.00286935,-0.110893,0.00126909,-0.0603512,-0.00507243,0.171248,0.00560299,0,0,0,-0.0455192,0,0.00511872,0,0,0,0.0612853,-0.0246,0.58856,0,0,0,0,0,0
0.392362,0.000542212,-1.13128,0.000223606,2.2065,-0.00100037,0.643924,0.00109444,0.00287952,-0.111163,0.00127452,-0.0606515,-0.00508796,0.171818,0.00562073,0,0,0,-0.0456569,0,0.00516637,0,0,0,0.0612299,-0.0246,0.588566,0,0,0,0,0,0
0.393481,0.000545445,-1.1314,0.000225038,2.20644,-0.00100608,0.644117,0.00110075,0.00288913,-0.111408,0.00127984,-0.0609329,-0.00510222,0.172344,0.00563714,0,0,0,-0.0457837,0,0.00521057,0,0,0,0.0611787,-0.0246,0.588572,0,0,0,0,0,0
0.394481,0.000548343,-1.13151,0.000226323,2.20637,-0.00101119,0.644289,0.0011064,0.00289778,-0.111625,0.00128465,-0.0611858,-0.00511494,0.172815,0.00565182,0,0,0,-0.0458971,0,0.00525029,0,0,0,0.0611328,-0.0246,0.588577,0,0,0,0,0,0
0.395481,0.000551249,-1.13163,0.000227612,2.20631,-0.00101632,0.644463,0.00111207,0.00290629,-0.111844,0.00128931,-0.0614373,-0.0051277,0.173285,0.00566646,0,0,0,-0.0460104,0,0.0052902,0,0,0,0.0610867,-0.0246,0.588583,0,0,0,0,0,0
0.396482,0.000554165,-1.13174,0.000228907,2.20625,-0.00102146,0.644637,0.00111775,0.00291482,-0.112062,0.00129397,-0.0616896,-0.00514046,0.173756,0.0056811,0,0,0,-0.0461237,0,0.00533033,0,0,0,0.0610406,-0.0246,0.588588,0,0,0,0,0,0
0.397482,0.000557088,-1.13185,0.000230205,2.20619,-0.00102662,0.644811,0.00112345,0.00292335,-0.11228,0.00129865,-0.0619425,-0.0051532,0.174227,0.00569574,0,0,0,-0.0462369,0,0.00537064,0,0,0,0.0609944,-0.0246,0.588593,0,0,0,0,0,0
0.398482,0.000560021,-1.13196,0.000231509,2.20613,-0.00103178,0.644985,0.00112916,0.0029319,-0.112498,0.00130334,-0.0621962,-0.00516594,0.174698,0.00571037,0,0,0,-0.0463501,0,0.00541116,0,0,0,0.060948,-0.0246,0.588599,0,0,0,0,0,0
0.399482,0.000562961,-1.13208,0.000232817,2.20606,-0.00103696,0.645161,0.00113489,0.00294044,-0.112714,0.00130803,-0.0624505,-0.00517868,0.175169,0.00572501,0,0,0,-0.0464632,0,0.00545188,0,0,0,0.0609015,-0.0246,0.588604,0,0,0,0,0,0
0.400482,0.000565911,-1.13219,0.00023413,2.206,-0.00104215,0.645336,0.00114063,0.002949,-0.11293,0.00131274,-0.0627056,-0.00519141,0.17564,0.00573964,0,0,0,-0.0465764,0,0.00549281,0,0,0,0.0608549,-0.0246,0.58861,0,0,0,0,0,0
0.401482,0.000568869,-1.1323,0.000235448,2.20594,-0.00104736,0.645512,0.00114638,0.00295756,-0.113146,0.00131746,-0.0629614,-0.00520414,0.176112,0.00575427,0,0,0,-0.0466894,0,0.00553394,0,0,0,0.0608082,-0.0246,0.588615,0,0,0,0,0,0
0.402482,0.000571835,-1.13242,0.00023677,2.20588,-0.00105258,0.645689,0.00115215,0.00296613,-0.113361,0.00132218,-0.0632178,-0.00521686,0.176583,0.0057689,0,0,0,-0.0468025,0,0.00557527,0,0,0,0.0607614,-0.0246,0.588621,0,0,0,0,0,0
0.403482,0.00057481,-1.13253,0.000238097,2.20581,-0.00105781,0.645866,0.00115794,0.0029747,-0.113576,0.00132692,-0.063475,-0.00522957,0.177055,0.00578352,0,0,0,-0.0469154,0,0.0056168,0,0,0,0.0607145,-0.0246,0.588626,0,0,0,0,0,0
0.404483,0.000577794,-1.13264,0.000239429,2.20575,-0.00106305,0.646044,0.00116373,0.00298329,-0.11379,0.00133167,-0.0637329,-0.00524228,0.177527,0.00579814,0,0,0,-0.0470284,0,0.00565854,0,0,0,0.0606675,-0.0246,0.588632,0,0,0,0,0,0
0.405483,0.000580786,-1.13276,0.000240765,2.20568,-0.0010683,0.646222,0.00116955,0.00299188,-0.114003,0.00133642,-0.0639915,-0.00525498,0.177999,0.00581276,0,0,0,-0.0471413,0,0.00570048,0,0,0,0.0606203,-0.0246,0.588638,0,0,0,0,0,0
0.406483,0.000583787,-1.13287,0.000242107,2.20562,-0.00107357,0.6464,0.00117538,0.00300047,-0.114216,0.00134119,-0.0642508,-0.00526768,0.178471,0.00582738,0,0,0,-0.0472542,0,0.00574263,0,0,0,0.0605731,-0.0246,0.588643,0,0,0,0,0,0
0.407483,0.000586796,-1.13299,0.000243453,2.20556,-0.00107885,0.646579,0.00118122,0.00300908,-0.114428,0.00134597,-0.0645108,-0.00528037,0.178943,0.005842,0,0,0,-0.047367,0,0.00578498,0,0,0,0.0605257,-0.0246,0.588649,0,0,0,0,0,0
0.408483,0.000589814,-1.1331,0.000244804,2.20549,-0.00108415,0.646759,0.00118708,0.00301769,-0.11464,0.00135075,-0.0647715,-0.00529305,0.179416,0.00585661,0,0,0,-0.0474798,0,0.00582754,0,0,0,0.0604782,-0.0246,0.588655,0,0,0,0,0,0
0.409483,0.000592841,-1.13321,0.00024616,2.20543,-0.00108945,0.646939,0.00119295,0.00302631,-0.114851,0.00135555,-0.065033,-0.00530574,0.179888,0.00587122,0,0,0,-0.0475925,0,0.00587031,0,0,0,0.0604306,-0.0246,0.588661,0,0,0,0,0,0
0.410483,0.000595877,-1.13333,0.00024752,2.20536,-0.00109477,0.647119,0.00119884,0.00303493,-0.115061,0.00136036,-0.0652952,-0.00531841,0.180361,0.00588583,0,0,0,-0.0477053,0,0.00591328,0,0,0,0.0603829,-0.0246,0.588667,0,0,0,0,0,0
0.411664,0.000599473,-1.13347,0.000249133,2.20528,-0.00110107,0.647333,0.00120581,0.00304491,-0.115313,0.00136578,-0.0656024,-0.00533343,0.18092,0.00590303,0,0,0,-0.0478383,0,0.0059643,0,0,0,0.0603264,-0.0246,0.588674,0,0,0,0,0,0
0.4127,0.000602636,-1.13359,0.000250553,2.20521,-0.00110661,0.64752,0.00121194,0.00305403,-0.115526,0.001371,-0.0658782,-0.00534649,0.181409,0.00591818,0,0,0,-0.0479549,0,0.00600927,0,0,0,0.0602767,-0.0246,0.58868,0,0,0,0,0,0
0.4137,0.0006057,-1.1337,0.000251929,2.20515,-0.00111197,0.647702,0.00121787,0.00306272,-0.115734,0.00137589,-0.0661434,-0.00535913,0.181882,0.00593279,0,0,0,-0.0480675,0,0.00605292,0,0,0,0.0602286,-0.0246,0.588686,0,0,0,0,0,0
0.414788,0.000609042,-1.13383,0.000253432,2.20508,-0.00111782,0.647901,0.00122434,0.00307203,-0.115962,0.00138103,-0.0664302,-0.00537292,0.182397,0.00594864,0,0,0,-0.0481899,0,0.00610063,0,0,0,0.0601762,-0.0246,0.588693,0,0,0,0,0,0
0.415883,0.000612415,-1.13395,0.000254949,2.205,-0.00112371,0.648101,0.00123087,0.0030815,-0.116189,0.00138634,-0.0667213,-0.00538676,0.182915,0.00596461,0,0,0,-0.0483129,0,0.00614888,0,0,0,0.0601233,-0.0246,0.5887,0,0,0,0,0,0
0.417009,0.000615895,-1.13409,0.000256516,2.20493,-0.00112979,0.648308,0.00123761,0.00309122,-0.116422,0.00139178,-0.067021,-0.005401,0.183448,0.00598102,0,0,0,-0.0484395,0,0.00619877,0,0,0,0.0600688,-0.0246,0.588707,0,0,0,0,0,0
0.418114,0.000619323,-1.13421,0.000258061,2.20485,-0.00113578,0.648511,0.00124424,0.00310084,-0.11665,0.00139721,-0.0673173,-0.00541495,0.183972,0.00599715,0,0,0,-0.0485637,0,0.00624803,0,0,0,0.0600151,-0.0246,0.588713,0,0,0,0,0,0
0.419218,0.000622755,-1.13434,0.000259608,2.20478,-0.00114177,0.648715,0.00125087,0.00311042,-0.116876,0.00140261,-0.0676134,-0.00542887,0.184494,0.00601323,0,0,0,-0.0486876,0,0.00629743,0,0,0,0.0599614,-0.0246,0.58872,0,0,0,0,0,0
0.420301,0.000626136,-1.13447,0.000261134,2.20471,-0.00114767,0.648915,0.0012574,0.00311987,-0.117097,0.00140796,-0.0679056,-0.00544253,0.185008,0.00602903,0,0,0,-0.0488093,0,0.00634622,0,0,0,0.0599085,-0.0246,0.588727,0,0,0,0,0,0
0.421493,0.000629866,-1.13461,0.000262819,2.20462,-0.00115417,0.649136,0.00126461,0.0031301,-0.117343,0.00141365,-0.0682252,-0.00545758,0.185573,0.00604637,0,0,0,-0.0489429,0,0.00640014,0,0,0,0.0598502,-0.0246,0.588735,0,0,0,0,0,0
0.422566,0.000633235,-1.13474,0.000264342,2.20455,-0.00116004,0.649336,0.00127111,0.00313959,-0.117558,0.00141912,-0.0685182,-0.00547106,0.186081,0.00606203,0,0,0,-0.0490633,0,0.00644897,0,0,0,0.0597975,-0.0246,0.588742,0,0,0,0,0,0
0.423658,0.000636672,-1.13487,0.000265896,2.20448,-0.00116603,0.64954,0.00127775,0.00314908,-0.11778,0.00142449,-0.0688143,-0.0054848,0.186599,0.00607792,0,0,0,-0.0491856,0,0.00649887,0,0,0,0.0597438,-0.0246,0.588749,0,0,0,0,0,0
0.424736,0.00064008,-1.13499,0.000267439,2.2044,-0.00117196,0.649741,0.00128432,0.0031585,-0.117997,0.00142985,-0.0691085,-0.00549837,0.187111,0.00609363,0,0,0,-0.0493065,0,0.00654846,0,0,0,0.0596906,-0.0246,0.588756,0,0,0,0,0,0
0.425809,0.000643477,-1.13512,0.000268978,2.20433,-0.00117787,0.649943,0.00129087,0.00316787,-0.118213,0.00143518,-0.0694017,-0.00551185,0.18762,0.00610923,0,0,0,-0.0494266,0,0.006598,0,0,0,0.0596376,-0.0246,0.588763,0,0,0,0,0,0
0.426878,0.000646874,-1.13525,0.000270518,2.20425,-0.00118378,0.650144,0.00129742,0.00317721,-0.118427,0.0014405,-0.0696947,-0.00552528,0.188127,0.00612479,0,0,0,-0.0495463,0,0.00664762,0,0,0,0.0595846,-0.0246,0.58877,0,0,0,0,0,0
0.427954,0.000650301,-1.13537,0.000272073,2.20418,-0.00118974,0.650347,0.00130403,0.00318661,-0.118642,0.00144585,-0.0699901,-0.00553879,0.188638,0.00614043,0,0,0,-0.0496666,0,0.00669779,0,0,0,0.0595312,-0.0246,0.588777,0,0,0,0,0,0
0.42903,0.000653742,-1.1355,0.000273636,2.2041,-0.00119571,0.65055,0.00131065,0.00319602,-0.118857,0.00145123,-0.0702868,-0.0055523,0.189149,0.00615608,0,0,0,-0.049787,0,0.00674826,0,0,0,0.0594776,-0.0246,0.588785,0,0,0,0,0,0
0.430137,0.00065729,-1.13563,0.000275248,2.20402,-0.00120187,0.65076,0.00131749,0.00320568,-0.119077,0.00145672,-0.0705922,-0.0055662,0.189675,0.00617217,0,0,0,-0.0499108,0,0.00680042,0,0,0,0.0594224,-0.0246,0.588792,0,0,0,0,0,0
0.431348,0.000661186,-1.13578,0.00027702,2.20394,-0.00120864,0.650991,0.00132498,0.00321616,-0.119319,0.00146263,-0.070926,-0.00558143,0.19025,0.00618975,0,0,0,-0.0500461,0,0.00685779,0,0,0,0.0593617,-0.0246,0.5888,0,0,0,0,0,0
0.43246,0.000664773,-1.13591,0.000278653,2.20386,-0.00121486,0.651203,0.00133188,0.00322605,-0.119536,0.00146838,-0.0712373,-0.00559531,0.190779,0.00620592,0,0,0,-0.0501703,0,0.00691075,0,0,0,0.0593059,-0.0246,0.588808,0,0,0,0,0,0
0.433568,0.000668358,-1.13604,0.000280286,2.20378,-0.00122107,0.651415,0.00133878,0.00323578,-0.119753,0.00147397,-0.0715463,-0.00560917,0.191305,0.00622201,0,0,0,-0.0502939,0,0.00696376,0,0,0,0.0592502,-0.0246,0.588816,0,0,0,0,0,0
0.434675,0.000671951,-1.13618,0.000281924,2.2037,-0.0012273,0.651627,0.00134568,0.00324551,-0.11997,0.00147957,-0.0718562,-0.00562303,0.191832,0.00623808,0,0,0,-0.0504174,0,0.00701702,0,0,0,0.0591944,-0.0246,0.588824,0,0,0,0,0,0
0.435786,0.000675566,-1.13631,0.000283573,2.20362,-0.00123356,0.651841,0.00135263,0.00325527,-0.120186,0.00148519,-0.0721677,-0.00563691,0.19236,0.00625419,0,0,0,-0.0505412,0,0.00707071,0,0,0,0.0591383,-0.0246,0.588831,0,0,0,0,0,0
0.43691,0.000679236,-1.13644,0.000285249,2.20354,-0.00123991,0.652058,0.00135968,0.00326514,-0.120405,0.00149087,-0.0724837,-0.00565095,0.192894,0.00627049,0,0,0,-0.0506665,0,0.00712532,0,0,0,0.0590813,-0.0246,0.588839,0,0,0,0,0,0
0.43804,0.000682939,-1.13658,0.000286941,2.20345,-0.00124631,0.652276,0.00136678,0.00327509,-0.120624,0.00149661,-0.0728028,-0.00566507,0.193432,0.00628689,0,0,0,-0.0507924,0,0.00718053,0,0,0,0.0590239,-0.0246,0.588847,0,0,0,0,0,0
0.439167,0.000686639,-1.13672,0.000288633,2.20337,-0.00125271,0.652495,0.00137388,0.00328503,-0.120841,0.00150236,-0.0731218,-0.00567912,0.193968,0.00630321,0,0,0,-0.0509178,0,0.00723582,0,0,0,0.0589665,-0.0246,0.588856,0,0,0,0,0,0
0.4403,0.000690374,-1.13685,0.000290342,2.20329,-0.00125916,0.652715,0.00138105,0.00329502,-0.121058,0.00150814,-0.0734435,-0.00569325,0.194508,0.00631964,0,0,0,-0.0510439,0,0.00729174,0,0,0,0.0589087,-0.0246,0.588864,0,0,0,0,0,0
0.44156,0.00069454,-1.13701,0.000292251,2.2032,-0.00126636,0.652961,0.00138903,0.00330598,-0.121303,0.00151438,-0.0737999,-0.00570901,0.195108,0.00633786,0,0,0,-0.051184,0,0.00735425,0,0,0,0.0588442,-0.0245999,0.588873,0,0,0,0,0,0
0.442669,0.000698216,-1.13714,0.000293936,2.20311,-0.0012727,0.653178,0.00139608,0.00331598,-0.12151,0.00152033,-0.0741199,-0.00572273,0.195636,0.00635394,0,0,0,-0.0513072,0,0.00740953,0,0,0,0.0587873,-0.0245999,0.588881,0,0,0,0,0,0
0.44376,0.000701843,-1.13727,0.0002956,2.20303,-0.00127896,0.653392,0.00140302,0.00332566,-0.121716,0.00152598,-0.0744329,-0.00573629,0.196155,0.00636973,0,0,0,-0.0514284,0,0.00746417,0,0,0,0.0587312,-0.0245999,0.58889,0,0,0,0,0,0
0.444827,0.000705403,-1.13741,0.000297235,2.20295,-0.00128509,0.653602,0.00140984,0.00333514,-0.121917,0.00153152,-0.0747401,-0.00574954,0.196664,0.00638517,0,0,0,-0.0515469,0,0.00751791,0,0,0,0.0586762,-0.0245999,0.588898,0,0,0,0,0,0
0.445876,0.000708912,-1.13753,0.000298848,2.20287,-0.00129114,0.653809,0.00141656,0.00334446,-0.122114,0.00153698,-0.075043,-0.00576257,0.197163,0.00640035,0,0,0,-0.0516633,0,0.00757099,0,0,0,0.058622,-0.0245999,0.588905,0,0,0,0,0,0
0.446924,0.000712425,-1.13766,0.000300463,2.2028,-0.00129719,0.654016,0.00142328,0.00335375,-0.122311,0.00154241,-0.0753457,-0.00577556,0.197663,0.00641549,0,0,0,-0.0517794,0,0.00762421,0,0,0,0.0585677,-0.0245999,0.588913,0,0,0,0,0,0
