Kcygt/SemiCircleKinovaTest_Cpp/x64/Debug/data.csv
t,q1,q2,q3,q4,q5,q6,q7,qp1,qp2,qp3,qp4,qp5,qp6,qp7,xd,yd,zd,vxd,vyd,vzd,wxd,wyd,wzd,x,y,z,vx,vy,vz,wx,wy,wz
9.7e-06,6.28905e-13,-1.10828,2.38799e-13,2.21657,-1.21307e-12,0.610865,1.31376e-12,6.48356e-08,-3.01997e-06,2.46185e-08,-1.02431e-06,-1.25059e-07,4.04428e-06,1.35439e-07,0.0702507,0.0246,0.588057,-1.13593e-06,0,7.82273e-17,0,0,0,0.0702507,-0.0246,0.588057,-1.13593e-06,4.03956e-18,3.93885e-17,-3.73457e-18,-1.09267e-19,1.00718e-17
0.0020833,2.88754e-08,-1.10829,1.09642e-08,2.21657,-5.56968e-08,0.610867,6.03197e-08,1.3925e-05,-0.000648607,5.28739e-06,-0.000219997,-2.68594e-05,0.000868605,2.90888e-05,0.0702505,0.0246,0.588057,-0.000243968,0,7.74995e-10,0,0,0,0.0702507,-0.0246,0.588057,-0.000243968,3.98334e-11,3.92009e-10,-3.68259e-11,-1.0659e-12,9.93175e-11
0.0030834,4.94873e-08,-1.10829,1.87907e-08,2.21657,-9.54541e-08,0.610868,1.03377e-07,2.06098e-05,-0.000959972,7.82576e-06,-0.000325614,-3.97534e-05,0.00128559,4.30531e-05,0.0702502,0.0246,0.588057,-0.000361087,0,2.51265e-09,0,0,0,0.0702502,-0.0246,0.588057,-0.000361087,4.20846e-11,2.10803e-09,-3.89072e-11,-1.12614e-12,1.0493e-10
0.0040836,7.67882e-08,-1.10829,2.91572e-08,2.21657,-1.48113e-07,0.61087,1.60407e-07,2.72954e-05,-0.00127136,1.03644e-05,-0.000431247,-5.26487e-05,0.00170261,5.70188e-05,0.0702498,0.0246,0.588057,-0.000478217,0,5.83677e-09,0,0,0,0.0702499,-0.0246,0.588057,-0.000478217,7.38235e-11,5.12699e-09,-6.82503e-11,-1.97546e-12,1.84066e-10
0.0053521,1.22168e-07,-1.10829,4.63887e-08,2.21657,-2.35644e-07,0.610873,2.55203e-07,3.57745e-05,-0.00166628,1.35842e-05,-0.000565226,-6.90032e-05,0.00223151,7.47309e-05,0.0702491,0.0246,0.588057,-0.000626767,0,1.31406e-08,0,0,0,0.0702494,-0.0246,0.588057,-0.000626767,1.60828e-10,1.15943e-08,-1.48688e-10,-4.30368e-12,4.00997e-10
0.0067611,1.85845e-07,-1.10829,7.05682e-08,2.21657,-3.58466e-07,0.610877,3.8822e-07,4.5193e-05,-0.00210493,1.71608e-05,-0.000714065,-8.71693e-05,0.002819,9.4405e-05,0.0702481,0.0246,0.588057,-0.00079177,0,2.64908e-08,0,0,0,0.0702486,-0.0246,0.588057,-0.000791771,2.85083e-10,2.37499e-08,-2.63568e-10,-7.62881e-12,7.10807e-10
0.0086938,2.98159e-07,-1.1083,1.13217e-07,2.21656,-5.75097e-07,0.610884,6.22834e-07,5.81125e-05,-0.0027066,2.20671e-05,-0.000918263,-0.000112088,0.00362487,0.000121392,0.0702463,0.0246,0.588057,-0.0010181,0,5.63212e-08,0,0,0,0.0702475,-0.0246,0.588057,-0.0010181,6.46569e-10,5.01048e-08,-5.97786e-10,-1.73026e-11,1.61211e-09
0.0100334,3.88004e-07,-1.1083,1.47335e-07,2.21656,-7.48387e-07,0.610889,8.1051e-07,6.70684e-05,-0.00312361,2.54689e-05,-0.00105984,-0.000129359,0.00418346,0.000140098,0.0702449,0.0246,0.588057,-0.00117498,0,8.6574e-08,0,0,0,0.0702455,-0.0246,0.588057,-0.00117498,5.96909e-10,8.08351e-08,-5.51883e-10,-1.59741e-11,1.48829e-09
0.0113727,4.89821e-07,-1.10831,1.86001e-07,2.21656,-9.44764e-07,0.610896,1.02319e-06,7.60224e-05,-0.00354051,2.887e-05,-0.00120142,-0.000146627,0.00474193,0.0001588,0.0702432,0.0246,0.588057,-0.00133182,0,1.26076e-07,0,0,0,0.0702439,-0.0246,0.588057,-0.00133182,7.66739e-10,1.18705e-07,-7.08918e-10,-2.05196e-11,1.91174e-09
0.0125626,5.89746e-07,-1.10831,2.2395e-07,2.21656,-1.13749e-06,0.610902,1.23192e-06,8.39782e-05,-0.00391089,3.18924e-05,-0.00132724,-0.000161969,0.00523813,0.000175416,0.0702415,0.0246,0.588057,-0.00147116,0,1.69935e-07,0,0,0,0.0702422,-0.0246,0.588057,-0.00147117,8.31223e-10,1.61943e-07,-7.68557e-10,-2.2246e-11,2.07252e-09
0.013717,6.95601e-07,-1.10832,2.64152e-07,2.21656,-1.34165e-06,0.610909,1.45303e-06,9.1697e-05,-0.0042702,3.4825e-05,-0.00144934,-0.000176853,0.00571954,0.000191537,0.0702397,0.0246,0.588057,-0.00160635,0,2.21218e-07,0,0,0,0.0702404,-0.0246,0.588057,-0.00160635,9.61455e-10,2.11975e-07,-8.88991e-10,-2.57322e-11,2.39724e-09
0.0147171,7.93996e-07,-1.10832,3.01522e-07,2.21656,-1.53142e-06,0.610915,1.65855e-06,9.83848e-05,-0.00458147,3.73662e-05,-0.00155515,-0.000189748,0.00613662,0.000205504,0.0702381,0.0246,0.588057,-0.00172347,0,2.73218e-07,0,0,0,0.0702386,-0.0246,0.588057,-0.00172347,9.58844e-10,2.64e-07,-8.86596e-10,-2.56631e-11,2.39073e-09
0.0157173,8.9909e-07,-1.10833,3.41438e-07,2.21655,-1.7341e-06,0.610921,1.87807e-06,0.000105073,-0.00489276,3.99079e-05,-0.001661,-0.000202645,0.00655376,0.000219472,0.0702363,0.0246,0.588057,-0.0018406,0,3.32795e-07,0,0,0,0.0702368,-0.0246,0.588057,-0.0018406,1.09373e-09,3.2228e-07,-1.01134e-09,-2.92741e-11,2.72705e-09
0.0167174,1.01086e-06,-1.10833,3.83892e-07,2.21655,-1.94966e-06,0.610928,2.11153e-06,0.000111762,-0.00520401,4.24497e-05,-0.00176686,-0.00021554,0.00697087,0.000233439,0.0702344,0.0246,0.588057,-0.00195772,0,4.00451e-07,0,0,0,0.070235,-0.0246,0.588057,-0.00195772,1.23724e-09,3.88556e-07,-1.14407e-09,-3.31163e-11,3.08488e-09
0.0177175,1.12933e-06,-1.10834,4.28888e-07,2.21655,-2.17812e-06,0.610936,2.35896e-06,0.000118451,-0.00551524,4.4992e-05,-0.00187276,-0.000228435,0.007388,0.000247406,0.0702324,0.0246,0.588057,-0.00207484,0,4.76706e-07,0,0,0,0.070233,-0.0246,0.588057,-0.00207484,1.38972e-09,4.63346e-07,-1.2851e-09,-3.7199e-11,3.46508e-09
0.0187176,1.25448e-06,-1.10834,4.76428e-07,2.21655,-2.41948e-06,0.610943,2.62036e-06,0.00012514,-0.00582645,4.75348e-05,-0.00197869,-0.000241331,0.00780514,0.000261374,0.0702302,0.0246,0.588057,-0.00219196,0,5.62074e-07,0,0,0,0.070231,-0.0246,0.588057,-0.00219196,1.55107e-09,5.47163e-07,-1.43434e-09,-4.15192e-11,3.86738e-09
0.0197187,1.38646e-06,-1.10835,5.26563e-07,2.21655,-2.674e-06,0.610952,2.89602e-06,0.000131836,-0.00613795,5.00807e-05,-0.00208477,-0.00025424,0.00822272,0.000275356,0.070228,0.0246,0.588057,-0.00230919,0,6.57171e-07,0,0,0,0.0702288,-0.0246,0.588057,-0.0023092,1.72317e-09,6.40605e-07,-1.59354e-09,-4.61279e-11,4.2965e-09
0.0207188,1.525e-06,-1.10836,5.79193e-07,2.21654,-2.94116e-06,0.61096,3.18537e-06,0.000138527,-0.00644913,5.26245e-05,-0.00219078,-0.000267136,0.0086399,0.000289325,0.0702256,0.0246,0.588057,-0.00242631,0,7.6232e-07,0,0,0,0.0702265,-0.0246,0.588057,-0.00242631,1.90053e-09,7.44049e-07,-1.75761e-09,-5.08777e-11,4.73874e-09
0.0217189,1.67023e-06,-1.10836,6.34368e-07,2.21654,-3.22122e-06,0.610969,3.4887e-06,0.000145218,-0.00676028,5.51689e-05,-0.00229683,-0.000280032,0.00905711,0.000303294,0.0702231,0.0246,0.588057,-0.00254343,0,8.78126e-07,0,0,0,0.070224,-0.0246,0.588057,-0.00254343,2.08848e-09,8.58049e-07,-1.93148e-09,-5.59114e-11,5.20737e-09
0.022719,1.82216e-06,-1.10837,6.92087e-07,2.21654,-3.51418e-06,0.610979,3.80599e-06,0.000151909,-0.00707141,5.7714e-05,-0.00240292,-0.000292928,0.00947433,0.000317263,0.0702205,0.0246,0.588057,-0.00266055,0,1.0051e-06,0,0,0,0.0702215,-0.0246,0.588057,-0.00266055,2.28529e-09,9.83135e-07,-2.11357e-09,-6.11831e-11,5.69811e-09
0.0237191,1.98077e-06,-1.10838,7.52353e-07,2.21654,-3.82003e-06,0.610989,4.13726e-06,0.000158601,-0.00738253,6.02596e-05,-0.00250906,-0.000305825,0.00989158,0.000331233,0.0702178,0.0246,0.588057,-0.00277766,0,1.14377e-06,0,0,0,0.0702188,-0.0246,0.588057,-0.00277767,2.49097e-09,1.11982e-06,-2.30388e-09,-6.66927e-11,6.21096e-09
0.0247192,2.14608e-06,-1.10838,8.15165e-07,2.21653,-4.13878e-06,0.610999,4.4825e-06,0.000165294,-0.00769362,6.28059e-05,-0.00261524,-0.000318722,0.0103089,0.000345204,0.070215,0.0246,0.588057,-0.00289478,0,1.29463e-06,0,0,0,0.070216,-0.0246,0.588057,-0.00289479,2.70552e-09,1.26862e-06,-2.5024e-09,-7.24405e-11,6.74593e-09
0.0257193,2.31809e-06,-1.10839,8.80525e-07,2.21653,-4.47044e-06,0.61101,4.84171e-06,0.000171988,-0.00800468,6.53529e-05,-0.00272147,-0.000331619,0.0107262,0.000359175,0.070212,0.0246,0.588057,-0.0030119,0,1.45821e-06,0,0,0,0.0702132,-0.0246,0.588057,-0.00301191,2.92893e-09,1.43006e-06,-2.70915e-09,-7.84265e-11,7.30302e-09
0.0267194,2.49679e-06,-1.1084,9.48432e-07,2.21653,-4.81499e-06,0.611021,5.21489e-06,0.000178682,-0.00831572,6.79007e-05,-0.00282775,-0.000344516,0.0111435,0.000373147,0.0702089,0.0246,0.588057,-0.00312902,0,1.63502e-06,0,0,0,0.0702101,-0.0246,0.588057,-0.00312903,3.16122e-09,1.60463e-06,-2.92412e-09,-8.46507e-11,7.88223e-09
0.0277195,2.68218e-06,-1.10841,1.01889e-06,2.21653,-5.17244e-06,0.611033,5.60205e-06,0.000185377,-0.00862674,7.04491e-05,-0.00293408,-0.000357413,0.0115608,0.000387119,0.0702058,0.0246,0.588057,-0.00324614,0,1.82557e-06,0,0,0,0.070207,-0.0246,0.588057,-0.00324615,3.40238e-09,1.79287e-06,-3.14733e-09,-9.11134e-11,8.48357e-09
0.0287196,2.87428e-06,-1.10842,1.09189e-06,2.21652,-5.54278e-06,0.611045,6.00318e-06,0.000192073,-0.00893773,7.29984e-05,-0.00304047,-0.000370311,0.0119782,0.000401092,0.0702025,0.0246,0.588057,-0.00336326,0,2.03038e-06,0,0,0,0.0702038,-0.0246,0.588057,-0.00336327,3.65241e-09,1.99528e-06,-3.37876e-09,-9.78146e-11,9.10703e-09
0.0297595,3.08125e-06,-1.10843,1.17056e-06,2.21652,-5.94182e-06,0.611057,6.43539e-06,0.000199035,-0.00926107,7.56496e-05,-0.00315115,-0.000383723,0.0124122,0.000415621,0.0701989,0.0246,0.588057,-0.00348504,0,2.25902e-06,0,0,0,0.0702004,-0.0246,0.588057,-0.00348505,4.07788e-09,2.21982e-06,-3.77252e-09,-1.09215e-10,1.01679e-08
0.0309568,3.32916e-06,-1.10844,1.26479e-06,2.21652,-6.41974e-06,0.611073,6.95304e-06,0.000207052,-0.00963332,7.87023e-05,-0.00327864,-0.000399164,0.012912,0.00043235,0.0701946,0.0246,0.588057,-0.00362525,0,2.5428e-06,0,0,0,0.0701968,-0.0246,0.588057,-0.00362526,5.08066e-09,2.49396e-06,-4.70047e-09,-1.36081e-10,1.26684e-08
0.0319569,3.54293e-06,-1.10845,1.34606e-06,2.21651,-6.83184e-06,0.611086,7.39941e-06,0.000213752,-0.0099442,8.12559e-05,-0.00338524,-0.000412063,0.0133294,0.000446326,0.0701909,0.0246,0.588057,-0.00374236,0,2.79729e-06,0,0,0,0.0701924,-0.0246,0.588057,-0.00374238,4.52263e-09,2.75382e-06,-4.1844e-09,-1.21143e-10,1.1277e-08
0.032957,3.7634e-06,-1.10846,1.42987e-06,2.21651,-7.25685e-06,0.6111,7.85976e-06,0.000220452,-0.0102551,8.38087e-05,-0.00349188,-0.000424962,0.013747,0.000460301,0.0701871,0.0246,0.588057,-0.00385948,0,3.06822e-06,0,0,0,0.0701887,-0.0246,0.588057,-0.0038595,4.81028e-09,3.02198e-06,-4.45075e-09,-1.28857e-10,1.19942e-08
0.0339571,3.99058e-06,-1.10847,1.51624e-06,2.21651,-7.69475e-06,0.611114,8.33408e-06,0.000227152,-0.0105659,8.63624e-05,-0.00359858,-0.000437862,0.0141645,0.000474278,0.0701832,0.0246,0.588057,-0.0039766,0,3.3561e-06,0,0,0,0.0701848,-0.0246,0.588057,-0.00397662,5.1068e-09,3.30702e-06,-4.72535e-09,-1.36809e-10,1.27337e-08
0.0349572,4.22446e-06,-1.10848,1.60517e-06,2.2165,-8.14556e-06,0.611129,8.82238e-06,0.000233853,-0.0108767,8.89171e-05,-0.00370535,-0.000450761,0.0145821,0.000488255,0.0701792,0.0246,0.588057,-0.00409372,0,3.66145e-06,0,0,0,0.0701809,-0.0246,0.588057,-0.00409373,5.41221e-09,3.60943e-06,-5.0082e-09,-1.45001e-10,1.34952e-08
0.0359573,4.46503e-06,-1.10849,1.69665e-06,2.2165,-8.60927e-06,0.611144,9.32467e-06,0.000240555,-0.0111875,9.14728e-05,-0.00381219,-0.000463662,0.0149997,0.000502232,0.070175,0.0246,0.588057,-0.00421084,0,3.98478e-06,0,0,0,0.0701768,-0.0246,0.588057,-0.00421085,5.72651e-09,3.92974e-06,-5.29932e-09,-1.53432e-10,1.4279e-08
0.0369574,4.71232e-06,-1.1085,1.79069e-06,2.21649,-9.08588e-06,0.611159,9.84093e-06,0.000247258,-0.0114982,9.40295e-05,-0.0039191,-0.000476562,0.0154173,0.000516211,0.0701708,0.0246,0.588057,-0.00432796,0,4.32661e-06,0,0,0,0.0701726,-0.0246,0.588057,-0.00432797,6.04969e-09,4.26847e-06,-5.59869e-09,-1.62103e-10,1.50849e-08
0.0381113,5.00655e-06,-1.10852,1.9026e-06,2.21649,-9.65296e-06,0.611177,1.04552e-05,0.000254992,-0.0118567,9.69787e-05,-0.00404251,-0.000491447,0.0158992,0.000532339,0.0701657,0.0246,0.588057,-0.00446308,0,4.74465e-06,0,0,0,0.0701682,-0.0246,0.588057,-0.00446311,7.42298e-09,4.67332e-06,-6.87006e-09,-1.98916e-10,1.85093e-08
0.0391114,5.26828e-06,-1.10853,2.00214e-06,2.21648,-1.01574e-05,0.611194,1.10016e-05,0.000261699,-0.0121674,9.95396e-05,-0.0041496,-0.000504348,0.016317,0.00054632,0.0701612,0.0246,0.588057,-0.0045802,0,5.12806e-06,0,0,0,0.0701631,-0.0246,0.588057,-0.00458022,6.77593e-09,5.06295e-06,-6.27157e-09,-1.81592e-10,1.68959e-08
0.0401115,5.53671e-06,-1.10854,2.10425e-06,2.21648,-1.06747e-05,0.611211,1.15619e-05,0.000268406,-0.012478,0.0001021,-0.00425675,-0.000517249,0.0167347,0.000560302,0.0701565,0.0246,0.588057,-0.00469732,0,5.53159e-06,0,0,0,0.0701585,-0.0246,0.588057,-0.00469734,7.12715e-09,5.4631e-06,-6.59704e-09,-1.9102e-10,1.77717e-08
0.0411116,5.81185e-06,-1.10855,2.20893e-06,2.21648,-1.12049e-05,0.611228,1.21363e-05,0.000275113,-0.0127886,0.000104661,-0.00436397,-0.000530151,0.0171525,0.000574284,0.0701518,0.0246,0.588057,-0.00481444,0,5.95575e-06,0,0,0,0.0701538,-0.0246,0.588057,-0.00481446,7.48726e-09,5.8838e-06,-6.93078e-09,-2.00688e-10,1.86697e-08
0.0421117,6.0937e-06,-1.10857,2.31616e-06,2.21647,-1.1748e-05,0.611245,1.27246e-05,0.000281822,-0.0130991,0.000107223,-0.00447127,-0.000543054,0.0175704,0.000588267,0.0701469,0.0246,0.588057,-0.00493156,0,6.40105e-06,0,0,0,0.070149,-0.0246,0.588057,-0.00493158,7.85626e-09,6.32556e-06,-7.27282e-09,-2.10596e-10,1.959e-08
0.0431118,6.38226e-06,-1.10858,2.42596e-06,2.21647,-1.2304e-05,0.611263,1.33269e-05,0.000288532,-0.0134096,0.000109787,-0.00457866,-0.000555956,0.0179883,0.00060225,0.0701419,0.0246,0.588057,-0.00504867,0,6.86802e-06,0,0,0,0.070144,-0.0246,0.588057,-0.0050487,8.23416e-09,6.7889e-06,-7.62314e-09,-2.20745e-10,2.05324e-08
0.0441119,6.67754e-06,-1.10859,2.53832e-06,2.21646,-1.28729e-05,0.611282,1.39432e-05,0.000295243,-0.0137201,0.000112351,-0.00468612,-0.000568859,0.0184062,0.000616235,0.0701368,0.0246,0.588057,-0.00516579,0,7.35716e-06,0,0,0,0.070139,-0.0246,0.588057,-0.00516582,8.62096e-09,7.27433e-06,-7.98176e-09,-2.31134e-10,2.1497e-08
0.045112,6.97952e-06,-1.10861,2.65325e-06,2.21646,-1.34547e-05,0.6113,1.45735e-05,0.000301956,-0.0140305,0.000114917,-0.00479368,-0.000581763,0.0188242,0.000630221,0.0701316,0.0246,0.588057,-0.00528291,0,7.869e-06,0,0,0,0.0701338,-0.0246,0.588057,-0.00528294,9.01667e-09,7.78236e-06,-8.34868e-09,-2.41765e-10,2.24838e-08
0.0461121,7.28822e-06,-1.10862,2.77074e-06,2.21645,-1.40494e-05,0.61132,1.52178e-05,0.000308669,-0.0143409,0.000117484,-0.00490132,-0.000594667,0.0192422,0.000644207,0.0701262,0.0246,0.588057,-0.00540003,0,8.40403e-06,0,0,0,0.0701286,-0.0246,0.588057,-0.00540005,9.42127e-09,8.31351e-06,-8.72391e-09,-2.52636e-10,2.34928e-08
0.0471122,7.60364e-06,-1.10864,2.89081e-06,2.21645,-1.46571e-05,0.611339,1.5876e-05,0.000315384,-0.0146512,0.000120053,-0.00500906,-0.000607571,0.0196603,0.000658195,0.0701208,0.0246,0.588057,-0.00551715,0,8.96279e-06,0,0,0,0.0701231,-0.0246,0.588057,-0.00551717,9.83479e-09,8.8683e-06,-9.10745e-09,-2.63749e-10,2.45241e-08
0.0481123,7.92577e-06,-1.10865,3.01344e-06,2.21644,-1.52776e-05,0.611359,1.65483e-05,0.0003221,-0.0149615,0.000122623,-0.00511688,-0.000620476,0.0200784,0.000672184,0.0701152,0.0246,0.588057,-0.00563426,0,9.54578e-06,0,0,0,0.0701176,-0.0246,0.588057,-0.00563429,1.02572e-08,9.44723e-06,-9.49931e-09,-2.75104e-10,2.55775e-08
0.0491124,8.25462e-06,-1.10867,3.13865e-06,2.21644,-1.59111e-05,0.61138,1.72345e-05,0.000328818,-0.0152717,0.000125194,-0.0052248,-0.000633381,0.0204965,0.000686173,0.0701095,0.0246,0.588057,-0.00575138,0,1.01535e-05,0,0,0,0.070112,-0.0246,0.588057,-0.00575141,1.06885e-08,1.00508e-05,-9.89949e-09,-2.867e-10,2.66532e-08
0.0501125,8.59019e-06,-1.10868,3.26643e-06,2.21643,-1.65574e-05,0.611401,1.79347e-05,0.000335537,-0.0155819,0.000127766,-0.00533282,-0.000646287,0.0209147,0.000700164,0.0701037,0.0246,0.588057,-0.0058685,0,1.07865e-05,0,0,0,0.0701062,-0.0246,0.588057,-0.00586853,1.11288e-08,1.06796e-05,-1.0308e-08,-2.98538e-10,2.77512e-08
0.0511126,8.93248e-06,-1.1087,3.39678e-06,2.21643,-1.72167e-05,0.611422,1.8649e-05,0.000342257,-0.0158921,0.00013034,-0.00544093,-0.000659193,0.021333,0.000714156,0.0700978,0.0246,0.588057,-0.00598562,0,1.14453e-05,0,0,0,0.0701004,-0.0246,0.588057,-0.00598565,1.15779e-08,1.13341e-05,-1.07249e-08,-3.10619e-10,2.88714e-08
0.0521127,9.2815e-06,-1.10872,3.52971e-06,2.21642,-1.78888e-05,0.611444,1.93772e-05,0.000348979,-0.0162021,0.000132915,-0.00554915,-0.0006721,0.0217513,0.000728149,0.0700917,0.0246,0.588057,-0.00610273,0,1.21304e-05,0,0,0,0.0700944,-0.0246,0.588057,-0.00610277,1.2036e-08,1.20147e-05,-1.115e-08,-3.22941e-10,3.00138e-08
0.0533903,9.73832e-06,-1.10874,3.70372e-06,2.21641,-1.87686e-05,0.611472,2.03303e-05,0.000357562,-0.0165983,0.000136201,-0.00568744,-0.000688589,0.0222857,0.000746023,0.0700838,0.0246,0.588057,-0.00625235,0,1.30446e-05,0,0,0,0.0700883,-0.0246,0.588057,-0.00625239,1.61397e-08,1.28895e-05,-1.49532e-08,-4.33098e-10,4.02473e-08
0.0543904,1.01026e-05,-1.10875,3.84252e-06,2.21641,-1.94701e-05,0.611495,2.10904e-05,0.000364293,-0.0169082,0.000138786,-0.00579598,-0.000701497,0.0227042,0.000760022,0.0700775,0.0246,0.588057,-0.00636946,0,1.37914e-05,0,0,0,0.0700803,-0.0246,0.588057,-0.0063695,1.31126e-08,1.36655e-05,-1.21496e-08,-3.51911e-10,3.26987e-08
0.0553905,1.04737e-05,-1.10877,3.9839e-06,2.2164,-2.01846e-05,0.611518,2.18645e-05,0.00037102,-0.0172181,0.000141366,-0.00590454,-0.000714405,0.0231227,0.000774018,0.0700711,0.0246,0.588057,-0.00648658,0,1.45663e-05,0,0,0,0.0700739,-0.0246,0.588057,-0.00648662,1.35999e-08,1.44357e-05,-1.26021e-08,-3.6503e-10,3.39142e-08
0.0563906,1.08515e-05,-1.10879,4.12786e-06,2.2164,-2.0912e-05,0.611542,2.26526e-05,0.000377748,-0.017528,0.000143948,-0.0060132,-0.000727314,0.0235412,0.000788016,0.0700646,0.0246,0.588057,-0.0066037,0,1.53696e-05,0,0,0,0.0700674,-0.0246,0.588057,-0.00660374,1.40961e-08,1.52342e-05,-1.30631e-08,-3.78392e-10,3.51519e-08
0.0573907,1.1236e-05,-1.10881,4.27441e-06,2.21639,-2.16523e-05,0.611566,2.34547e-05,0.000384478,-0.0178378,0.000146532,-0.00612198,-0.000740223,0.0239598,0.000802015,0.0700579,0.0246,0.588057,-0.00672081,0,1.6202e-05,0,0,0,0.0700608,-0.0246,0.588057,-0.00672086,1.46013e-08,1.60617e-05,-1.35324e-08,-3.91997e-10,3.64118e-08
0.0583908,1.16273e-05,-1.10882,4.42354e-06,2.21638,-2.24055e-05,0.61159,2.42708e-05,0.000391209,-0.0181476,0.000149117,-0.00623086,-0.000753133,0.0243785,0.000816015,0.0700511,0.0246,0.588057,-0.00683793,0,1.70638e-05,0,0,0,0.0700541,-0.0246,0.588057,-0.00683797,1.51154e-08,1.69186e-05,-1.40101e-08,-4.05846e-10,3.76941e-08
0.0593909,1.20252e-05,-1.10884,4.57526e-06,2.21638,-2.31716e-05,0.611615,2.51009e-05,0.000397942,-0.0184573,0.000151703,-0.00633986,-0.000766044,0.0247972,0.000830017,0.0700442,0.0246,0.588057,-0.00695505,0,1.79557e-05,0,0,0,0.0700473,-0.0246,0.588057,-0.00695509,1.56385e-08,1.78055e-05,-1.44961e-08,-4.19939e-10,3.89987e-08
0.060391,1.243e-05,-1.10886,4.72957e-06,2.21637,-2.39507e-05,0.61164,2.5945e-05,0.000404677,-0.0187669,0.000154291,-0.00644898,-0.000778955,0.0252159,0.00084402,0.0700372,0.0246,0.588057,-0.00707216,0,1.88781e-05,0,0,0,0.0700403,-0.0246,0.588057,-0.00707221,1.61705e-08,1.87229e-05,-1.49906e-08,-4.34276e-10,4.03256e-08
0.0613911,1.28414e-05,-1.10888,4.88646e-06,2.21636,-2.47426e-05,0.611666,2.68031e-05,0.000411413,-0.0190765,0.000156881,-0.00655821,-0.000791866,0.0256348,0.000858024,0.0700301,0.0246,0.588057,-0.00718928,0,1.98317e-05,0,0,0,0.0700332,-0.0246,0.588057,-0.00718933,1.67114e-08,1.96712e-05,-1.54935e-08,-4.48857e-10,4.16748e-08
0.0624732,1.32945e-05,-1.1089,5.05926e-06,2.21636,-2.56146e-05,0.611694,2.7748e-05,0.000418701,-0.0194115,0.000159683,-0.0066765,-0.000805837,0.026088,0.000873176,0.0700222,0.0246,0.588057,-0.007316,0,2.08989e-05,0,0,0,0.0700261,-0.0246,0.588057,-0.00731605,1.87257e-08,2.07191e-05,-1.73627e-08,-5.03025e-10,4.66984e-08
0.0634733,1.372e-05,-1.10892,5.22155e-06,2.21635,-2.64334e-05,0.611721,2.86352e-05,0.000425443,-0.0197209,0.000162279,-0.00678603,-0.00081875,0.026507,0.000887184,0.0700148,0.0246,0.588057,-0.00743311,0,2.19188e-05,0,0,0,0.0700181,-0.0246,0.588057,-0.00743317,1.78663e-08,2.17472e-05,-1.65674e-08,-4.80002e-10,4.45555e-08
0.0645146,1.41703e-05,-1.10894,5.39335e-06,2.21634,-2.73e-05,0.611749,2.95743e-05,0.000432462,-0.0200431,0.00016498,-0.00690014,-0.000832195,0.0269432,0.000901769,0.070007,0.0246,0.588057,-0.00755505,0,2.30153e-05,0,0,0,0.0700107,-0.0246,0.588057,-0.00755511,1.92188e-08,2.28308e-05,-1.78234e-08,-5.16405e-10,4.79287e-08
0.0655147,1.46095e-05,-1.10896,5.56094e-06,2.21634,-2.81452e-05,0.611776,3.04901e-05,0.000439206,-0.0203524,0.000167579,-0.0070099,-0.000845109,0.0273623,0.000915779,0.0699994,0.0246,0.588057,-0.00767217,0,2.41023e-05,0,0,0,0.0700028,-0.0246,0.588057,-0.00767222,1.90363e-08,2.39195e-05,-1.76558e-08,-5.11568e-10,4.74738e-08
0.0665148,1.50555e-05,-1.10898,5.73114e-06,2.21633,-2.90033e-05,0.611804,3.142e-05,0.000445952,-0.0206617,0.000170178,-0.00711977,-0.000858023,0.0277815,0.00092979,0.0699917,0.0246,0.588057,-0.00778929,0,2.5223e-05,0,0,0,0.0699952,-0.0246,0.588057,-0.00778934,1.9623e-08,2.50346e-05,-1.82018e-08,-5.27406e-10,4.89374e-08
0.0675149,1.55083e-05,-1.109,5.90393e-06,2.21632,-2.98743e-05,0.611832,3.23639e-05,0.000452699,-0.0209709,0.000172779,-0.00722977,-0.000870939,0.0282007,0.000943802,0.0699838,0.0246,0.588057,-0.0079064,0,2.6378e-05,0,0,0,0.0699874,-0.0246,0.588057,-0.00790646,2.02188e-08,2.61839e-05,-1.87563e-08,-5.4349e-10,5.04235e-08
0.068515,1.59678e-05,-1.10903,6.07933e-06,2.21631,-3.07583e-05,0.611861,3.33218e-05,0.000459448,-0.0212801,0.000175382,-0.0073399,-0.000883854,0.02862,0.000957816,0.0699759,0.0246,0.588057,-0.00802352,0,2.75676e-05,0,0,0,0.0699795,-0.0246,0.588057,-0.00802358,2.08235e-08,2.73677e-05,-1.93193e-08,-5.5982e-10,5.19319e-08
0.0695223,1.64374e-05,-1.10905,6.25864e-06,2.21631,-3.16617e-05,0.61189,3.43008e-05,0.000466247,-0.0215914,0.000178005,-0.00745096,-0.000896864,0.0290423,0.000971932,0.0699677,0.0246,0.588057,-0.00814147,0,2.88015e-05,0,0,0,0.0699714,-0.0246,0.588057,-0.00814154,2.1596e-08,2.85942e-05,-2.0038e-08,-5.80668e-10,5.38588e-08
0.0705225,1.69105e-05,-1.10907,6.43928e-06,2.2163,-3.25717e-05,0.611919,3.5287e-05,0.000473001,-0.0219004,0.000180612,-0.00756137,-0.000909782,0.0294618,0.00098595,0.0699595,0.0246,0.588057,-0.0082586,0,3.00625e-05,0,0,0,0.0699632,-0.0246,0.588057,-0.00825866,2.20666e-08,2.98507e-05,-2.04768e-08,-5.93404e-10,5.50329e-08
0.0715226,1.73903e-05,-1.10909,6.62252e-06,2.21629,-3.34944e-05,0.611949,3.62871e-05,0.000479756,-0.0222094,0.000183221,-0.00767192,-0.0009227,0.0298813,0.000999968,0.0699512,0.0246,0.588057,-0.00837571,0,3.13597e-05,0,0,0,0.069955,-0.0246,0.588057,-0.00837578,2.26961e-08,3.11419e-05,-2.10632e-08,-6.10418e-10,5.66031e-08
0.0725227,1.78769e-05,-1.10911,6.80837e-06,2.21628,-3.44302e-05,0.611979,3.73012e-05,0.000486513,-0.0225182,0.000185832,-0.0077826,-0.000935618,0.0303009,0.00101399,0.0699428,0.0246,0.588057,-0.00849283,0,3.26937e-05,0,0,0,0.0699466,-0.0246,0.588057,-0.0084929,2.33367e-08,3.24697e-05,-2.16601e-08,-6.27739e-10,5.82013e-08
0.0735228,1.83702e-05,-1.10914,6.99684e-06,2.21628,-3.53788e-05,0.61201,3.83293e-05,0.000493272,-0.0228271,0.000188444,-0.00789342,-0.000948537,0.0307205,0.00102801,0.0699342,0.0246,0.588057,-0.00860994,0,3.4065e-05,0,0,0,0.0699381,-0.0246,0.588057,-0.00861001,2.39864e-08,3.38348e-05,-2.22655e-08,-6.45307e-10,5.98219e-08
0.0745229,1.88703e-05,-1.10916,7.18792e-06,2.21627,-3.63403e-05,0.612041,3.93714e-05,0.000500033,-0.0231358,0.000191059,-0.00800438,-0.000961456,0.0311402,0.00104203,0.0699256,0.0246,0.588057,-0.00872706,0,3.54741e-05,0,0,0,0.0699295,-0.0246,0.588057,-0.00872713,2.4645e-08,3.52376e-05,-2.28794e-08,-6.63123e-10,6.1465e-08
0.075523,1.93771e-05,-1.10918,7.38161e-06,2.21626,-3.73148e-05,0.612073,4.04276e-05,0.000506796,-0.0234445,0.000193676,-0.0081155,-0.000974377,0.03156,0.00105606,0.0699168,0.0246,0.588057,-0.00884417,0,3.69215e-05,0,0,0,0.0699208,-0.0246,0.588057,-0.00884424,2.53126e-08,3.66786e-05,-2.35018e-08,-6.81188e-10,6.31304e-08
0.0765231,1.98908e-05,-1.10921,7.57793e-06,2.21625,-3.83022e-05,0.612105,4.14977e-05,0.000513561,-0.023753,0.000196295,-0.00822675,-0.000987298,0.0319798,0.00107008,0.0699079,0.0246,0.588057,-0.00896128,0,3.84078e-05,0,0,0,0.0699119,-0.0246,0.588057,-0.00896136,2.59892e-08,3.81584e-05,-2.41328e-08,-6.99502e-10,6.48184e-08
0.0775232,2.04111e-05,-1.10923,7.77686e-06,2.21624,-3.93025e-05,0.612137,4.2582e-05,0.000520328,-0.0240616,0.000198916,-0.00833816,-0.00100022,0.0323998,0.00108411,0.0698989,0.0246,0.588057,-0.0090784,0,3.99335e-05,0,0,0,0.069903,-0.0246,0.588057,-0.00907847,2.66748e-08,3.96775e-05,-2.47722e-08,-7.18064e-10,6.65288e-08
0.0785234,2.09383e-05,-1.10926,7.97844e-06,2.21623,-4.03159e-05,0.61217,4.36803e-05,0.000527098,-0.02437,0.00020154,-0.00844973,-0.00101314,0.0328198,0.00109814,0.0698897,0.0246,0.588058,-0.00919552,0,4.14991e-05,0,0,0,0.0698939,-0.0246,0.588058,-0.0091956,2.73722e-08,4.12365e-05,-2.54229e-08,-7.36951e-10,6.82686e-08
0.0795235,2.14723e-05,-1.10928,8.18263e-06,2.21623,-4.1342e-05,0.612203,4.47926e-05,0.00053387,-0.0246784,0.000204165,-0.00856145,-0.00102607,0.0332399,0.00111217,0.0698805,0.0246,0.588058,-0.00931263,0,4.31051e-05,0,0,0,0.0698847,-0.0246,0.588058,-0.00931271,2.8073e-08,4.28357e-05,-2.60769e-08,-7.55939e-10,7.00171e-08
0.0805236,2.2013e-05,-1.10931,8.38944e-06,2.21622,-4.23811e-05,0.612237,4.59189e-05,0.000540643,-0.0249867,0.000206793,-0.00867332,-0.00103899,0.03366,0.0011262,0.0698711,0.0246,0.588058,-0.00942974,0,4.47519e-05,0,0,0,0.0698754,-0.0246,0.588058,-0.00942983,2.87856e-08,4.44757e-05,-2.6742e-08,-7.75251e-10,7.1795e-08
0.0815237,2.25604e-05,-1.10933,8.59889e-06,2.21621,-4.34332e-05,0.612271,4.70593e-05,0.000547419,-0.0252949,0.000209423,-0.00878534,-0.00105191,0.0340803,0.00114024,0.0698616,0.0246,0.588058,-0.00954686,0,4.64401e-05,0,0,0,0.0698659,-0.0246,0.588058,-0.00954694,2.95072e-08,4.6157e-05,-2.74157e-08,-7.94812e-10,7.35953e-08
0.0825238,2.31147e-05,-1.10936,8.81096e-06,2.2162,-4.44981e-05,0.612306,4.82137e-05,0.000554198,-0.025603,0.000212055,-0.00889753,-0.00106484,0.0345006,0.00115427,0.069852,0.0246,0.588058,-0.00966397,0,4.81703e-05,0,0,0,0.0698564,-0.0246,0.588058,-0.00966405,3.02378e-08,4.78802e-05,-2.80979e-08,-8.14625e-10,7.54181e-08
0.0835239,2.36757e-05,-1.10938,9.02567e-06,2.21619,-4.5576e-05,0.612341,4.93821e-05,0.000560978,-0.0259111,0.00021469,-0.00900987,-0.00107776,0.034921,0.00116831,0.0698423,0.0246,0.588058,-0.00978108,0,4.99429e-05,0,0,0,0.0698467,-0.0246,0.588058,-0.00978117,3.09774e-08,4.96457e-05,-2.87888e-08,-8.34688e-10,7.72635e-08
0.084524,2.42435e-05,-1.10941,9.24302e-06,2.21618,-4.66668e-05,0.612376,5.05646e-05,0.000567761,-0.026219,0.000217327,-0.00912238,-0.00109069,0.0353415,0.00118235,0.0698324,0.0246,0.588058,-0.00989819,0,5.17585e-05,0,0,0,0.069837,-0.0246,0.588058,-0.00989828,3.1726e-08,5.14541e-05,-2.94883e-08,-8.55003e-10,7.91314e-08
0.0855241,2.48181e-05,-1.10943,9.46301e-06,2.21617,-4.77705e-05,0.612412,5.17611e-05,0.000574546,-0.0265269,0.000219966,-0.00923506,-0.00110362,0.035762,0.00119639,0.0698225,0.0246,0.588058,-0.0100153,0,5.36175e-05,0,0,0,0.0698271,-0.0246,0.588058,-0.0100154,3.24837e-08,5.33059e-05,-3.01963e-08,-8.75569e-10,8.10218e-08
0.0865242,2.53995e-05,-1.10946,9.68564e-06,2.21616,-4.88872e-05,0.612448,5.29716e-05,0.000581334,-0.0268347,0.000222608,-0.0093479,-0.00111655,0.0361827,0.00121043,0.0698124,0.0246,0.588058,-0.0101324,0,5.55206e-05,0,0,0,0.069817,-0.0246,0.588058,-0.0101325,3.32504e-08,5.52016e-05,-3.0913e-08,-8.96387e-10,8.29348e-08
0.0875243,2.59877e-05,-1.10949,9.91092e-06,2.21615,-5.00167e-05,0.612484,5.41962e-05,0.000588124,-0.0271425,0.000225252,-0.00946091,-0.00112948,0.0366034,0.00122448,0.0698022,0.0246,0.588058,-0.0102495,0,5.74681e-05,0,0,0,0.0698069,-0.0246,0.588058,-0.0102496,3.40261e-08,5.71418e-05,-3.16383e-08,-9.17458e-10,8.48703e-08
0.0885244,2.65827e-05,-1.10952,1.01388e-05,2.21614,-5.11593e-05,0.612521,5.54349e-05,0.000594916,-0.0274501,0.000227899,-0.00957409,-0.00114241,0.0370242,0.00123852,0.0697919,0.0246,0.588058,-0.0103666,0,5.94607e-05,0,0,0,0.0697967,-0.0246,0.588058,-0.0103667,3.48108e-08,5.91268e-05,-3.23722e-08,-9.38781e-10,8.68284e-08
0.0895245,2.71845e-05,-1.10954,1.03694e-05,2.21613,-5.23147e-05,0.612559,5.66876e-05,0.000601711,-0.0277576,0.000230548,-0.00968744,-0.00115534,0.0374451,0.00125257,0.0697815,0.0246,0.588058,-0.0104837,0,6.14988e-05,0,0,0,0.0697863,-0.0246,0.588058,-0.0104838,3.56046e-08,6.11573e-05,-3.31148e-08,-9.60358e-10,8.88091e-08
0.0905246,2.7793e-05,-1.10957,1.06026e-05,2.21612,-5.34831e-05,0.612597,5.79543e-05,0.000608508,-0.0280651,0.0002332,-0.00980097,-0.00116827,0.0378661,0.00126662,0.0697709,0.0246,0.588058,-0.0106008,0,6.35829e-05,0,0,0,0.0697758,-0.0246,0.588058,-0.0106009,3.64075e-08,6.32338e-05,-3.38661e-08,-9.82188e-10,9.08124e-08
0.0915247,2.84084e-05,-1.1096,1.08385e-05,2.21611,-5.46644e-05,0.612635,5.92351e-05,0.000615308,-0.0283725,0.000235854,-0.00991468,-0.0011812,0.0382872,0.00128067,0.0697603,0.0246,0.588058,-0.010718,0,6.57136e-05,0,0,0,0.0697652,-0.0246,0.588058,-0.0107181,3.72193e-08,6.53567e-05,-3.4626e-08,-1.00427e-09,9.28383e-08
0.0925248,2.90306e-05,-1.10963,1.1077e-05,2.2161,-5.58587e-05,0.612674,6.053e-05,0.000622111,-0.0286797,0.000238511,-0.0100286,-0.00119413,0.0387083,0.00129473,0.0697495,0.0246,0.588058,-0.0108351,0,6.78914e-05,0,0,0,0.0697545,-0.0246,0.588058,-0.0108352,3.80402e-08,6.75267e-05,-3.53946e-08,-1.02661e-09,9.48868e-08
0.0935249,2.96596e-05,-1.10966,1.13182e-05,2.21609,-5.70659e-05,0.612713,6.18389e-05,0.000628916,-0.0289869,0.00024117,-0.0101426,-0.00120706,0.0391296,0.00130878,0.0697386,0.0246,0.588058,-0.0109522,0,7.01168e-05,0,0,0,0.0697436,-0.0246,0.588058,-0.0109523,3.88702e-08,6.97441e-05,-3.61719e-08,-1.0492e-09,9.6958e-08
0.094525,3.02953e-05,-1.10969,1.15621e-05,2.21608,-5.8286e-05,0.612752,6.31619e-05,0.000635723,-0.029294,0.000243832,-0.0102569,-0.00122,0.0395509,0.00132284,0.0697276,0.0246,0.588058,-0.0110693,0,7.23903e-05,0,0,0,0.0697327,-0.0246,0.588058,-0.0110694,3.97092e-08,7.20096e-05,-3.69578e-08,-1.07205e-09,9.90517e-08
0.0955352,3.09445e-05,-1.10972,1.18111e-05,2.21607,-5.95316e-05,0.612793,6.45125e-05,0.000642601,-0.0296041,0.000246523,-0.0103725,-0.00123306,0.0399766,0.00133704,0.0697163,0.0246,0.588059,-0.0111876,0,7.47361e-05,0,0,0,0.0697216,-0.0246,0.588058,-0.0111877,4.09756e-08,7.43433e-05,-3.81419e-08,-1.10645e-09,1.02212e-07
0.0965353,3.1594e-05,-1.10975,1.20603e-05,2.21606,-6.07777e-05,0.612833,6.58638e-05,0.000649415,-0.029911,0.000249191,-0.0104871,-0.001246,0.0403982,0.0013511,0.0697051,0.0246,0.588059,-0.0113047,0,7.71078e-05,0,0,0,0.0697103,-0.0246,0.588059,-0.0113048,4.14232e-08,7.67107e-05,-3.85641e-08,-1.11875e-09,1.03329e-07
0.0975354,3.22503e-05,-1.10978,1.23122e-05,2.21605,-6.20368e-05,0.612874,6.72291e-05,0.00065623,-0.0302179,0.000251861,-0.0106019,-0.00125894,0.0408198,0.00136517,0.0696937,0.0246,0.588059,-0.0114218,0,7.95292e-05,0,0,0,0.069699,-0.0246,0.588059,-0.0114219,4.22895e-08,7.91238e-05,-3.93764e-08,-1.14236e-09,1.05491e-07
0.0985457,3.29202e-05,-1.10981,1.25694e-05,2.21604,-6.33219e-05,0.612916,6.86227e-05,0.000663117,-0.0305277,0.00025456,-0.010718,-0.00127201,0.0412458,0.00137938,0.0696821,0.0246,0.588059,-0.0115401,0,8.20262e-05,0,0,0,0.0696876,-0.0246,0.588059,-0.0115402,4.36142e-08,8.16082e-05,-4.06158e-08,-1.17838e-09,1.08796e-07
0.0999064,3.38351e-05,-1.10985,1.29207e-05,2.21603,-6.50767e-05,0.612973,7.05256e-05,0.000672371,-0.0309452,0.00025817,-0.0108744,-0.00128961,0.0418197,0.0013985,0.0696663,0.0246,0.588059,-0.0116994,0,8.54711e-05,0,0,0,0.0696759,-0.0246,0.588059,-0.0116996,6.03802e-08,8.48924e-05,-5.62409e-08,-1.63174e-09,1.50622e-07
0.100906,3.45144e-05,-1.10988,1.31816e-05,2.21602,-6.63794e-05,0.613015,7.19383e-05,0.000679224,-0.0312513,0.000260881,-0.0109903,-0.00130255,0.0422417,0.00141259,0.0696546,0.0246,0.588059,-0.0118165,0,8.80636e-05,0,0,0,0.06966,-0.0246,0.588059,-0.0118166,4.52765e-08,8.76297e-05,-4.21787e-08,-1.22386e-09,1.12946e-07
0.101907,3.52005e-05,-1.10991,1.34452e-05,2.21601,-6.7695e-05,0.613058,7.33651e-05,0.000686051,-0.0315577,0.000263564,-0.0111059,-0.00131549,0.0426637,0.00142666,0.0696427,0.0246,0.588059,-0.0119336,0,9.07081e-05,0,0,0,0.0696482,-0.0246,0.588059,-0.0119337,4.61825e-08,9.02655e-05,-4.30293e-08,-1.2486e-09,1.15207e-07
0.102907,3.58935e-05,-1.10995,1.37115e-05,2.21599,-6.90235e-05,0.613101,7.4806e-05,0.000692881,-0.031864,0.000266249,-0.0112218,-0.00132843,0.0430859,0.00144073,0.0696307,0.0246,0.588059,-0.0120507,0,9.34049e-05,0,0,0,0.0696363,-0.0246,0.588059,-0.0120508,4.70976e-08,9.29536e-05,-4.38886e-08,-1.2736e-09,1.17491e-07
0.103907,3.65933e-05,-1.10998,1.39804e-05,2.21598,-7.03651e-05,0.613144,7.6261e-05,0.000699714,-0.0321702,0.000268937,-0.0113379,-0.00134137,0.0435081,0.00145481,0.0696186,0.0246,0.588059,-0.0121678,0,9.61547e-05,0,0,0,0.0696242,-0.0246,0.588059,-0.0121679,4.80218e-08,9.56946e-05,-4.47568e-08,-1.29886e-09,1.19798e-07
0.104907,3.72999e-05,-1.11001,1.42521e-05,2.21597,-7.17195e-05,0.613188,7.773e-05,0.00070655,-0.0324763,0.000271628,-0.0114541,-0.00135431,0.0439305,0.00146889,0.0696063,0.0246,0.588059,-0.0122849,0,9.8958e-05,0,0,0,0.069612,-0.0246,0.588059,-0.012285,4.89551e-08,9.84889e-05,-4.56338e-08,-1.32438e-09,1.22127e-07
0.105907,3.80133e-05,-1.11004,1.45264e-05,2.21596,-7.30869e-05,0.613232,7.92131e-05,0.000713389,-0.0327823,0.000274321,-0.0115706,-0.00136726,0.0443529,0.00148297,0.069594,0.0246,0.588059,-0.012402,0,0.000101815,0,0,0,0.0695997,-0.0246,0.588059,-0.0124021,4.98976e-08,0.000101337,-4.65196e-08,-1.35016e-09,1.24479e-07
0.106907,3.87336e-05,-1.11008,1.48035e-05,2.21595,-7.44672e-05,0.613277,8.07103e-05,0.000720231,-0.0330881,0.000277018,-0.0116872,-0.0013802,0.0447755,0.00149705,0.0695815,0.0246,0.58806,-0.0125191,0,0.000104727,0,0,0,0.0695873,-0.0246,0.588059,-0.0125192,5.08491e-08,0.00010424,-4.74142e-08,-1.37619e-09,1.26854e-07
0.107907,3.94608e-05,-1.11011,1.50832e-05,2.21594,-7.58605e-05,0.613322,8.22216e-05,0.000727076,-0.0333939,0.000279718,-0.0118041,-0.00139315,0.0451981,0.00151113,0.069569,0.0246,0.58806,-0.0126362,0,0.000107693,0,0,0,0.0695748,-0.0246,0.58806,-0.0126363,5.18097e-08,0.000107197,-4.83177e-08,-1.40249e-09,1.29252e-07
0.108907,4.01948e-05,-1.11014,1.53657e-05,2.21592,-7.72668e-05,0.613368,8.3747e-05,0.000733923,-0.0336996,0.000282421,-0.0119212,-0.00140609,0.0456209,0.00152522,0.0695563,0.0246,0.58806,-0.0127533,0,0.000110716,0,0,0,0.0695622,-0.0246,0.58806,-0.0127534,5.27794e-08,0.00011021,-4.92301e-08,-1.42905e-09,1.31673e-07
0.109907,4.09356e-05,-1.11018,1.56508e-05,2.21591,-7.86859e-05,0.613414,8.52864e-05,0.000740774,-0.0340051,0.000285127,-0.0120385,-0.00141904,0.0460437,0.00153931,0.0695435,0.0246,0.58806,-0.0128704,0,0.000113794,0,0,0,0.0695494,-0.0246,0.58806,-0.0128705,5.37583e-08,0.000113279,-5.01514e-08,-1.45587e-09,1.34116e-07
0.110908,4.16833e-05,-1.11021,1.59387e-05,2.2159,-8.01181e-05,0.613461,8.684e-05,0.000747627,-0.0343106,0.000287836,-0.012156,-0.00143199,0.0464667,0.0015534,0.0695305,0.0246,0.58806,-0.0129875,0,0.000116928,0,0,0,0.0695366,-0.0246,0.58806,-0.0129876,5.47463e-08,0.000116404,-5.10815e-08,-1.48295e-09,1.36582e-07
0.111918,4.24459e-05,-1.11025,1.62324e-05,2.21589,-8.15785e-05,0.613508,8.84243e-05,0.000754555,-0.0346191,0.000290575,-0.012275,-0.00144507,0.0468942,0.00156764,0.0695173,0.0246,0.58806,-0.0131058,0,0.000120154,0,0,0,0.0695236,-0.0246,0.58806,-0.013106,5.63393e-08,0.000119614,-5.25768e-08,-1.52643e-09,1.40558e-07
0.112925,4.32126e-05,-1.11028,1.65277e-05,2.21587,-8.30466e-05,0.613556,9.0017e-05,0.000761462,-0.0349264,0.000293309,-0.0123937,-0.00145811,0.0473202,0.00158183,0.0695041,0.0246,0.58806,-0.0132237,0,0.000123426,0,0,0,0.0695103,-0.0246,0.58806,-0.0132239,5.71532e-08,0.000122879,-5.33453e-08,-1.54883e-09,1.4259e-07
0.1145,4.44285e-05,-1.11034,1.69962e-05,2.21586,-8.53747e-05,0.613631,9.25427e-05,0.000772212,-0.0354075,0.000297526,-0.012579,-0.0014785,0.0479865,0.001604,0.0694831,0.0246,0.58806,-0.013408,0,0.000128661,0,0,0,0.069497,-0.0246,0.58806,-0.0134083,9.18976e-08,0.000127782,-8.57988e-08,-2.4911e-09,2.2928e-07
0.1155,4.52077e-05,-1.11037,1.72965e-05,2.21584,-8.68663e-05,0.61368,9.4161e-05,0.000779138,-0.0357117,0.000300316,-0.0126984,-0.00149145,0.0484102,0.00161813,0.0694696,0.0246,0.588061,-0.0135251,0,0.000132062,0,0,0,0.0694759,-0.0246,0.58806,-0.0135253,5.94003e-08,0.000131494,-5.54672e-08,-1.61067e-09,1.48201e-07
0.1165,4.59938e-05,-1.11041,1.75996e-05,2.21583,-8.83709e-05,0.613728,9.57934e-05,0.000786009,-0.0360165,0.000303042,-0.0128171,-0.00150441,0.0488337,0.00163224,0.0694561,0.0246,0.588061,-0.0136422,0,0.000135523,0,0,0,0.0694624,-0.0246,0.588061,-0.0136424,6.04394e-08,0.000134944,-5.64473e-08,-1.63922e-09,1.50795e-07
0.1175,4.67868e-05,-1.11045,1.79054e-05,2.21582,-8.98884e-05,0.613778,9.74399e-05,0.000792883,-0.0363212,0.000305772,-0.0129361,-0.00151736,0.0492574,0.00164634,0.0694424,0.0246,0.588061,-0.0137593,0,0.000139043,0,0,0,0.0694487,-0.0246,0.588061,-0.0137595,6.14877e-08,0.000138454,-5.74364e-08,-1.66804e-09,1.53412e-07
0.1185,4.75866e-05,-1.11048,1.82139e-05,2.2158,-9.14188e-05,0.613827,9.91005e-05,0.00079976,-0.0366258,0.000308506,-0.0130553,-0.00153032,0.0496812,0.00166045,0.0694285,0.0246,0.588061,-0.0138764,0,0.000142623,0,0,0,0.069435,-0.0246,0.588061,-0.0138766,6.25452e-08,0.000142025,-5.84345e-08,-1.69712e-09,1.56052e-07
0.1195,4.83934e-05,-1.11052,1.85252e-05,2.21579,-9.29623e-05,0.613878,0.000100775,0.000806641,-0.0369303,0.000311242,-0.0131747,-0.00154327,0.0501051,0.00167456,0.0694146,0.0246,0.588061,-0.0139935,0,0.000146265,0,0,0,0.0694211,-0.0246,0.588061,-0.0139937,6.36118e-08,0.000145656,-5.94416e-08,-1.72647e-09,1.58715e-07
0.1205,4.9207e-05,-1.11056,1.88392e-05,2.21578,-9.45186e-05,0.613928,0.000102464,0.000813525,-0.0372346,0.000313982,-0.0132944,-0.00155623,0.0505291,0.00168868,0.0694006,0.0246,0.588061,-0.0141106,0,0.000149968,0,0,0,0.0694071,-0.0246,0.588061,-0.0141108,6.46876e-08,0.000149349,-6.04578e-08,-1.75608e-09,1.61401e-07
0.1215,5.00275e-05,-1.11059,1.9156e-05,2.21576,-9.6088e-05,0.613979,0.000104167,0.000820412,-0.0375388,0.000316726,-0.0134143,-0.00156919,0.0509532,0.00170279,0.0693864,0.0246,0.588061,-0.0142277,0,0.000153733,0,0,0,0.069393,-0.0246,0.588061,-0.0142279,6.57726e-08,0.000153103,-6.14829e-08,-1.78596e-09,1.6411e-07
0.12259,5.09294e-05,-1.11063,1.95043e-05,2.21575,-9.78128e-05,0.614035,0.000106039,0.000827908,-0.0378702,0.000319706,-0.013545,-0.0015833,0.0514153,0.00171817,0.0693708,0.0246,0.588062,-0.0143552,0,0.000157905,0,0,0,0.0693788,-0.0246,0.588061,-0.0143554,7.29439e-08,0.000157207,-6.82002e-08,-1.98119e-09,1.82006e-07
0.12359,5.17643e-05,-1.11067,1.98268e-05,2.21574,-9.94093e-05,0.614087,0.000107771,0.000834813,-0.0381741,0.000322469,-0.0136656,-0.00159626,0.0518397,0.00173229,0.0693564,0.0246,0.588062,-0.0144723,0,0.000161801,0,0,0,0.0693631,-0.0246,0.588062,-0.0144725,6.80691e-08,0.00016115,-6.36541e-08,-1.84926e-09,1.69844e-07
0.12459,5.26061e-05,-1.11071,2.0152e-05,2.21572,-0.000101019,0.614139,0.000109518,0.000841711,-0.0384779,0.000325223,-0.0137862,-0.00160922,0.0522642,0.00174641,0.0693419,0.0246,0.588062,-0.0145894,0,0.000165761,0,0,0,0.0693486,-0.0246,0.588062,-0.0145896,6.91824e-08,0.000165099,-6.47072e-08,-1.87997e-09,1.72624e-07
0.12559,5.34548e-05,-1.11075,2.048e-05,2.21571,-0.000102641,0.614192,0.000111279,0.000848612,-0.0387816,0.00032798,-0.0139071,-0.00162218,0.0526888,0.00176054,0.0693272,0.0246,0.588062,-0.0147064,0,0.000169785,0,0,0,0.0693341,-0.0246,0.588062,-0.0147067,7.0305e-08,0.000169112,-6.57695e-08,-1.91094e-09,1.75427e-07
0.12659,5.43104e-05,-1.11079,2.08108e-05,2.21569,-0.000104276,0.614245,0.000113053,0.000855516,-0.0390852,0.000330741,-0.0140282,-0.00163514,0.0531135,0.00177467,0.0693124,0.0246,0.588062,-0.0148235,0,0.000173873,0,0,0,0.0693193,-0.0246,0.588062,-0.0148237,7.14368e-08,0.00017319,-6.68409e-08,-1.94219e-09,1.78253e-07
0.12759,5.51729e-05,-1.11083,2.11444e-05,2.21568,-0.000105925,0.614299,0.000114842,0.000862424,-0.0393887,0.000333506,-0.0141496,-0.00164811,0.0535384,0.0017888,0.0692976,0.0246,0.588062,-0.0149406,0,0.000178027,0,0,0,0.0693045,-0.0246,0.588062,-0.0149408,7.25777e-08,0.000177332,-6.79214e-08,-1.9737e-09,1.81102e-07
0.12859,5.60423e-05,-1.11087,2.14807e-05,2.21567,-0.000107586,0.614352,0.000116646,0.000869335,-0.039692,0.000336274,-0.0142712,-0.00166107,0.0539633,0.00180293,0.0692826,0.0246,0.588063,-0.0150577,0,0.000182246,0,0,0,0.0692896,-0.0246,0.588062,-0.0150579,7.37279e-08,0.000181541,-6.9011e-08,-2.00549e-09,1.83975e-07
0.129687,5.70037e-05,-1.11091,2.18527e-05,2.21565,-0.000109423,0.614412,0.000118639,0.000876904,-0.0400246,0.000339299,-0.0144046,-0.00167528,0.0544293,0.00181842,0.069266,0.0246,0.588063,-0.015186,0,0.000186947,0,0,0,0.0692745,-0.0246,0.588063,-0.0151863,8.22207e-08,0.000186161,-7.69769e-08,-2.2371e-09,2.0517e-07
0.130687,5.78878e-05,-1.11095,2.21948e-05,2.21563,-0.000111111,0.614467,0.000120472,0.000883836,-0.0403275,0.000342089,-0.0145269,-0.00168825,0.0548546,0.00183256,0.0692507,0.0246,0.588063,-0.0153031,0,0.000191306,0,0,0,0.0692579,-0.0246,0.588063,-0.0153033,7.61767e-08,0.000190577,-7.13322e-08,-2.07321e-09,1.9009e-07
0.131687,5.87786e-05,-1.11099,2.25397e-05,2.21562,-0.000112813,0.614522,0.000122319,0.000890758,-0.0406305,0.000344869,-0.0146493,-0.00170122,0.0552799,0.0018467,0.0692354,0.0246,0.588063,-0.0154202,0,0.000195731,0,0,0,0.0692426,-0.0246,0.588063,-0.0154204,7.73479e-08,0.000194992,-7.24431e-08,-2.10563e-09,1.93015e-07
0.132687,5.96764e-05,-1.11103,2.28874e-05,2.21561,-0.000114527,0.614578,0.00012418,0.000897684,-0.0409333,0.000347652,-0.014772,-0.00171419,0.0557054,0.00186085,0.0692199,0.0246,0.588063,-0.0155373,0,0.000200225,0,0,0,0.0692271,-0.0246,0.588063,-0.0155375,7.85358e-08,0.000199474,-7.35703e-08,-2.13853e-09,1.95982e-07
0.133687,6.05811e-05,-1.11108,2.32379e-05,2.21559,-0.000116254,0.614634,0.000126055,0.000904614,-0.041236,0.000350439,-0.0148949,-0.00172716,0.056131,0.00187499,0.0692043,0.0246,0.588064,-0.0156543,0,0.000204786,0,0,0,0.0692116,-0.0246,0.588063,-0.0156546,7.97331e-08,0.000204024,-7.47068e-08,-2.1717e-09,1.98972e-07
0.134687,6.14927e-05,-1.11112,2.35912e-05,2.21558,-0.000117995,0.614691,0.000127945,0.000911547,-0.0415385,0.000353229,-0.0150181,-0.00174012,0.0565567,0.00188914,0.0691886,0.0246,0.588064,-0.0157714,0,0.000209416,0,0,0,0.0691959,-0.0246,0.588064,-0.0157716,8.09395e-08,0.000208643,-7.58525e-08,-2.20514e-09,2.01985e-07
0.135687,6.24113e-05,-1.11116,2.39472e-05,2.21556,-0.000119748,0.614748,0.000129848,0.000918484,-0.0418409,0.000356024,-0.0151415,-0.0017531,0.0569825,0.00190329,0.0691727,0.0246,0.588064,-0.0158885,0,0.000214116,0,0,0,0.0691802,-0.0246,0.588064,-0.0158887,8.21553e-08,0.00021333,-7.70074e-08,-2.23886e-09,2.05021e-07
0.136687,6.33368e-05,-1.1112,2.43061e-05,2.21555,-0.000121514,0.614805,0.000131766,0.000925425,-0.0421432,0.000358822,-0.0152652,-0.00176607,0.0574085,0.00191744,0.0691568,0.0246,0.588064,-0.0160055,0,0.000218885,0,0,0,0.0691643,-0.0246,0.588064,-0.0160058,8.33802e-08,0.000218088,-7.81715e-08,-2.27285e-09,2.08081e-07
0.137688,6.42693e-05,-1.11124,2.46677e-05,2.21553,-0.000123293,0.614863,0.000133697,0.000932369,-0.0424453,0.000361624,-0.0153891,-0.00177904,0.0578346,0.0019316,0.0691407,0.0246,0.588064,-0.0161226,0,0.000223725,0,0,0,0.0691483,-0.0246,0.588064,-0.0161228,8.46145e-08,0.000222916,-7.9345e-08,-2.30712e-09,2.11163e-07
0.138688,6.52087e-05,-1.11129,2.50322e-05,2.21551,-0.000125085,0.614921,0.000135643,0.000939317,-0.0427473,0.00036443,-0.0155134,-0.00179201,0.0582608,0.00194576,0.0691246,0.0246,0.588065,-0.0162396,0,0.000228635,0,0,0,0.0691321,-0.0246,0.588065,-0.0162399,8.5858e-08,0.000227814,-8.05277e-08,-2.34166e-09,2.14269e-07
0.139688,6.6155e-05,-1.11133,2.53995e-05,2.2155,-0.000126891,0.61498,0.000137604,0.000946269,-0.0430491,0.00036724,-0.0156379,-0.00180499,0.0586871,0.00195992,0.0691083,0.0246,0.588065,-0.0163567,0,0.000233617,0,0,0,0.0691159,-0.0246,0.588065,-0.016357,8.71107e-08,0.000232784,-8.17198e-08,-2.37648e-09,2.17399e-07
0.140688,6.71084e-05,-1.11137,2.57696e-05,2.21548,-0.000128709,0.615039,0.000139578,0.000953224,-0.0433508,0.000370054,-0.0157626,-0.00181796,0.0591136,0.00197408,0.0690918,0.0246,0.588065,-0.0164738,0,0.00023867,0,0,0,0.0690995,-0.0246,0.588065,-0.016474,8.83728e-08,0.000237826,-8.29212e-08,-2.41158e-09,2.20551e-07
0.141688,6.80686e-05,-1.11142,2.61425e-05,2.21547,-0.00013054,0.615099,0.000141566,0.000960184,-0.0436524,0.000372871,-0.0158877,-0.00183094,0.0595402,0.00198824,0.0690753,0.0246,0.588065,-0.0165908,0,0.000243796,0,0,0,0.0690831,-0.0246,0.588065,-0.0165911,8.96441e-08,0.00024294,-8.41319e-08,-2.44695e-09,2.23727e-07
0.142688,6.90359e-05,-1.11146,2.65182e-05,2.21545,-0.000132384,0.615159,0.000143569,0.000967147,-0.0439538,0.000375693,-0.016013,-0.00184392,0.059967,0.00200241,0.0690587,0.0246,0.588066,-0.0167079,0,0.000248995,0,0,0,0.0690665,-0.0246,0.588065,-0.0167082,9.09247e-08,0.000248126,-8.53519e-08,-2.4826e-09,2.26926e-07
0.143688,7.00101e-05,-1.1115,2.68968e-05,2.21543,-0.000134241,0.615219,0.000145586,0.000974114,-0.0442551,0.000378519,-0.0161386,-0.0018569,0.0603938,0.00201658,0.0690419,0.0246,0.588066,-0.0168249,0,0.000254267,0,0,0,0.0690498,-0.0246,0.588066,-0.0168252,9.22146e-08,0.000253386,-8.65814e-08,-2.51853e-09,2.30148e-07
0.144695,7.09977e-05,-1.11155,2.72806e-05,2.21542,-0.000136123,0.61528,0.00014763,0.000981129,-0.0445582,0.000381366,-0.0162652,-0.00186996,0.0608236,0.00203085,0.0690249,0.0246,0.588066,-0.0169427,0,0.000259648,0,0,0,0.0690329,-0.0246,0.588066,-0.016943,9.41301e-08,0.000258749,-8.83991e-08,-2.57158e-09,2.34932e-07
0.145696,7.19875e-05,-1.11159,2.76655e-05,2.2154,-0.00013801,0.615342,0.000149678,0.000988116,-0.0448596,0.000384205,-0.0163916,-0.00188296,0.0612514,0.00204505,0.0690079,0.0246,0.588066,-0.01706,0,0.000265078,0,0,0,0.0690159,-0.0246,0.588066,-0.0170603,9.49846e-08,0.00026417,-8.92211e-08,-2.59567e-09,2.37068e-07
0.146697,7.29827e-05,-1.11164,2.80526e-05,2.21539,-0.000139906,0.615403,0.000151738,0.000995096,-0.0451605,0.000387043,-0.016518,-0.00189594,0.0616787,0.00205923,0.0689907,0.0246,0.588067,-0.017177,0,0.000270574,0,0,0,0.0689988,-0.0246,0.588066,-0.0171773,9.61508e-08,0.000269655,-9.03363e-08,-2.6283e-09,2.39981e-07
0.147697,7.39849e-05,-1.11168,2.84425e-05,2.21537,-0.000141815,0.615465,0.000153811,0.00100208,-0.0454611,0.000389885,-0.0166448,-0.00190892,0.0621061,0.00207341,0.0689735,0.0246,0.588067,-0.0172941,0,0.000276145,0,0,0,0.0689816,-0.0246,0.588067,-0.0172944,9.7478e-08,0.000275214,-9.16035e-08,-2.66535e-09,2.43297e-07
0.148697,7.4994e-05,-1.11173,2.88353e-05,2.21535,-0.000143737,0.615528,0.000155899,0.00100907,-0.0457617,0.000392731,-0.0167718,-0.00192191,0.0625336,0.00208759,0.0689561,0.0246,0.588067,-0.0174111,0,0.000281792,0,0,0,0.0689643,-0.0246,0.588067,-0.0174114,9.88145e-08,0.000280849,-9.28801e-08,-2.70268e-09,2.46636e-07
0.149697,7.60102e-05,-1.11178,2.92309e-05,2.21534,-0.000145672,0.615591,0.000158001,0.00101606,-0.046062,0.000395582,-0.0168991,-0.00193489,0.0629613,0.00210178,0.0689387,0.0246,0.588067,-0.0175281,0,0.000287516,0,0,0,0.0689469,-0.0246,0.588067,-0.0175285,1.0016e-07,0.00028656,-9.41662e-08,-2.74029e-09,2.49999e-07
0.150697,7.70334e-05,-1.11182,2.96294e-05,2.21532,-0.00014762,0.615654,0.000160117,0.00102305,-0.0463623,0.000398436,-0.0170266,-0.00194788,0.0633891,0.00211597,0.0689211,0.0246,0.588068,-0.0176452,0,0.000293317,0,0,0,0.0689294,-0.0246,0.588068,-0.0176455,1.01516e-07,0.000292348,-9.54618e-08,-2.77819e-09,2.53384e-07
0.151697,7.80635e-05,-1.11187,3.00307e-05,2.2153,-0.000149581,0.615718,0.000162248,0.00103005,-0.0466623,0.000401295,-0.0171545,-0.00196086,0.0638171,0.00213016,0.0689034,0.0246,0.588068,-0.0177622,0,0.000299195,0,0,0,0.0689117,-0.0246,0.588068,-0.0177625,1.0288e-07,0.000298213,-9.67668e-08,-2.81637e-09,2.56794e-07
0.152697,7.91007e-05,-1.11192,3.04349e-05,2.21528,-0.000151555,0.615782,0.000164392,0.00103705,-0.0469623,0.000404158,-0.0172827,-0.00197385,0.0642451,0.00214436,0.0688856,0.0246,0.588068,-0.0178793,0,0.000305151,0,0,0,0.068894,-0.0246,0.588068,-0.0178796,1.04254e-07,0.000304156,-9.80814e-08,-2.85483e-09,2.60226e-07
0.153697,8.01448e-05,-1.11196,3.0842e-05,2.21527,-0.000153542,0.615847,0.000166551,0.00104406,-0.047262,0.000407025,-0.0174111,-0.00198684,0.0646734,0.00215856,0.0688676,0.0246,0.588069,-0.0179963,0,0.000311186,0,0,0,0.0688761,-0.0246,0.588068,-0.0179966,1.05637e-07,0.000310178,-9.94056e-08,-2.89358e-09,2.63683e-07
0.154697,8.1196e-05,-1.11201,3.12519e-05,2.21525,-0.000155542,0.615912,0.000168724,0.00105107,-0.0475616,0.000409897,-0.0175399,-0.00199983,0.0651017,0.00217276,0.0688496,0.0246,0.588069,-0.0181133,0,0.0003173,0,0,0,0.0688581,-0.0246,0.588069,-0.0181137,1.0703e-07,0.000316279,-1.00739e-07,-2.93261e-09,2.67162e-07
0.155697,8.22542e-05,-1.11206,3.16647e-05,2.21523,-0.000157555,0.615978,0.000170911,0.00105809,-0.0478611,0.000412773,-0.017669,-0.00201282,0.0655302,0.00218696,0.0688314,0.0246,0.588069,-0.0182303,0,0.000323493,0,0,0,0.06884,-0.0246,0.588069,-0.0182307,1.08431e-07,0.000322459,-1.02083e-07,-2.97193e-09,2.70665e-07
0.156698,8.33194e-05,-1.11211,3.20804e-05,2.21521,-0.000159581,0.616044,0.000173113,0.00106511,-0.0481603,0.000415653,-0.0177983,-0.00202581,0.0659589,0.00220117,0.0688131,0.0246,0.58807,-0.0183474,0,0.000329767,0,0,0,0.0688217,-0.0246,0.588069,-0.0183477,1.09843e-07,0.000328719,-1.03435e-07,-3.01153e-09,2.74192e-07
0.157698,8.43917e-05,-1.11216,3.2499e-05,2.2152,-0.00016162,0.61611,0.000175328,0.00107213,-0.0484595,0.000418538,-0.017928,-0.0020388,0.0663877,0.00221538,0.0687947,0.0246,0.58807,-0.0184644,0,0.000336121,0,0,0,0.0688034,-0.0246,0.58807,-0.0184647,1.11263e-07,0.000335059,-1.04798e-07,-3.05143e-09,2.77742e-07
0.158698,8.54709e-05,-1.1122,3.29205e-05,2.21518,-0.000163672,0.616177,0.000177558,0.00107916,-0.0487584,0.000421427,-0.018058,-0.00205179,0.0668166,0.00222959,0.0687762,0.0246,0.58807,-0.0185814,0,0.000342556,0,0,0,0.0687849,-0.0246,0.58807,-0.0185818,1.12693e-07,0.000341481,-1.0617e-07,-3.0916e-09,2.81315e-07
0.159698,8.65572e-05,-1.11225,3.33448e-05,2.21516,-0.000165737,0.616244,0.000179802,0.00108619,-0.0490572,0.000424321,-0.0181882,-0.00206479,0.0672457,0.00224381,0.0687575,0.0246,0.588071,-0.0186984,0,0.000349073,0,0,0,0.0687663,-0.0246,0.58807,-0.0186988,1.14133e-07,0.000347984,-1.07552e-07,-3.13207e-09,2.84912e-07
0.160698,8.76506e-05,-1.1123,3.37721e-05,2.21514,-0.000167815,0.616312,0.00018206,0.00109323,-0.0493558,0.000427219,-0.0183188,-0.00207778,0.0676749,0.00225802,0.0687388,0.0246,0.588071,-0.0188154,0,0.000355671,0,0,0,0.0687476,-0.0246,0.588071,-0.0188158,1.15581e-07,0.000354569,-1.08943e-07,-3.17282e-09,2.88533e-07
0.161698,8.87509e-05,-1.11235,3.42023e-05,2.21512,-0.000169906,0.61638,0.000184333,0.00110027,-0.0496543,0.000430122,-0.0184497,-0.00209078,0.0681043,0.00227224,0.0687199,0.0246,0.588071,-0.0189325,0,0.000362353,0,0,0,0.0687288,-0.0246,0.588071,-0.0189328,1.1704e-07,0.000361236,-1.10344e-07,-3.21387e-09,2.92177e-07
0.162717,8.98798e-05,-1.1124,3.46437e-05,2.2151,-0.000172051,0.61645,0.000186664,0.00110745,-0.0499584,0.00043308,-0.0185834,-0.00210402,0.068542,0.00228674,0.0687005,0.0246,0.588072,-0.0190517,0,0.000369248,0,0,0,0.0687099,-0.0246,0.588072,-0.0190521,1.20811e-07,0.000368096,-1.13928e-07,-3.31849e-09,3.01596e-07
0.163718,9.09944e-05,-1.11245,3.50797e-05,2.21508,-0.000174168,0.616519,0.000188965,0.0011145,-0.0502564,0.000435996,-0.018715,-0.00211702,0.0689717,0.00230097,0.0686814,0.0246,0.588072,-0.0191687,0,0.000376098,0,0,0,0.0686905,-0.0246,0.588072,-0.0191691,1.20012e-07,0.000374953,-1.13203e-07,-3.29763e-09,2.99607e-07
0.164772,9.21773e-05,-1.11251,3.55427e-05,2.21506,-0.000176415,0.616592,0.000191407,0.00112193,-0.0505707,0.000439058,-0.0188538,-0.00213072,0.0694248,0.00231596,0.0686611,0.0246,0.588073,-0.0192921,0,0.000383411,0,0,0,0.0686713,-0.0246,0.588072,-0.0192925,1.2818e-07,0.000382188,-1.20939e-07,-3.52322e-09,3.20004e-07
0.165772,9.33064e-05,-1.11256,3.59847e-05,2.21505,-0.000178559,0.616662,0.000193737,0.001129,-0.0508683,0.000441993,-0.0189862,-0.00214372,0.0698548,0.0023302,0.0686418,0.0246,0.588073,-0.0194091,0,0.000390434,0,0,0,0.068651,-0.0246,0.588073,-0.0194095,1.23076e-07,0.000389261,-1.16152e-07,-3.38406e-09,3.07265e-07
0.166772,9.44426e-05,-1.11261,3.64297e-05,2.21503,-0.000180716,0.616732,0.000196082,0.00113606,-0.0511659,0.000444919,-0.0191187,-0.00215672,0.0702849,0.00234444,0.0686223,0.0246,0.588073,-0.0195261,0,0.000397542,0,0,0,0.0686315,-0.0246,0.588073,-0.0195265,1.24582e-07,0.000396355,-1.17603e-07,-3.42658e-09,3.11029e-07
0.167772,9.55858e-05,-1.11266,3.68776e-05,2.21501,-0.000182886,0.616803,0.000198441,0.00114313,-0.0514634,0.000447849,-0.0192515,-0.00216973,0.0707152,0.00235867,0.0686027,0.0246,0.588074,-0.0196431,0,0.000404737,0,0,0,0.068612,-0.0246,0.588073,-0.0196435,1.26097e-07,0.000403535,-1.19063e-07,-3.46939e-09,3.14816e-07
0.168772,9.67362e-05,-1.11271,3.73284e-05,2.21499,-0.000185068,0.616874,0.000200814,0.0011502,-0.0517606,0.000450784,-0.0193847,-0.00218273,0.0711456,0.00237291,0.068583,0.0246,0.588074,-0.0197601,0,0.000412017,0,0,0,0.0685924,-0.0246,0.588074,-0.0197605,1.27622e-07,0.000410801,-1.20533e-07,-3.5125e-09,3.18628e-07
0.169772,9.78936e-05,-1.11276,3.77822e-05,2.21497,-0.000187264,0.616946,0.000203201,0.00115728,-0.0520577,0.000453724,-0.0195182,-0.00219573,0.0715762,0.00238716,0.0685632,0.0246,0.588075,-0.0198771,0,0.000419384,0,0,0,0.0685726,-0.0246,0.588074,-0.0198775,1.29156e-07,0.000418154,-1.22013e-07,-3.5559e-09,3.22462e-07
0.170773,9.9058e-05,-1.11282,3.82389e-05,2.21495,-0.000189473,0.617018,0.000205603,0.00116436,-0.0523546,0.000456669,-0.019652,-0.00220874,0.0720069,0.0024014,0.0685433,0.0246,0.588075,-0.019994,0,0.000426839,0,0,0,0.0685527,-0.0246,0.588075,-0.0199945,1.307e-07,0.000425594,-1.23503e-07,-3.5996e-09,3.26321e-07
0.171773,0.00010023,-1.11287,3.86986e-05,2.21493,-0.000191695,0.61709,0.000208019,0.00117144,-0.0526513,0.000459619,-0.0197861,-0.00222174,0.0724377,0.00241565,0.0685232,0.0246,0.588075,-0.020111,0,0.000434381,0,0,0,0.0685327,-0.0246,0.588075,-0.0201115,1.32253e-07,0.000433121,-1.25002e-07,-3.64359e-09,3.30203e-07
0.172773,0.000101408,-1.11292,3.91612e-05,2.21491,-0.00019393,0.617163,0.000210449,0.00117853,-0.0529479,0.000462573,-0.0199206,-0.00223475,0.0728687,0.00242991,0.068503,0.0246,0.588076,-0.020228,0,0.000442012,0,0,0,0.0685126,-0.0246,0.588076,-0.0202284,1.33815e-07,0.000440737,-1.26512e-07,-3.68788e-09,3.34109e-07
0.173773,0.000102594,-1.11298,3.96268e-05,2.21489,-0.000196178,0.617236,0.000212894,0.00118563,-0.0532442,0.000465532,-0.0200554,-0.00224775,0.0732999,0.00244416,0.0684828,0.0246,0.588076,-0.020345,0,0.000449731,0,0,0,0.0684924,-0.0246,0.588076,-0.0203454,1.35387e-07,0.000448442,-1.28031e-07,-3.73247e-09,3.38039e-07
0.174804,0.000103824,-1.11303,4.01099e-05,2.21487,-0.00019851,0.617312,0.000215429,0.00119294,-0.0535497,0.00046858,-0.0201946,-0.00226116,0.0737446,0.00245886,0.0684617,0.0246,0.588077,-0.0204656,0,0.000457784,0,0,0,0.068472,-0.0246,0.588076,-0.020466,1.41264e-07,0.000456438,-1.33625e-07,-3.89585e-09,3.52719e-07
0.175943,0.000105192,-1.11309,4.06475e-05,2.21485,-0.000201102,0.617397,0.000218248,0.00120101,-0.0538871,0.000471933,-0.0203485,-0.00227598,0.074236,0.00247509,0.0684383,0.0246,0.588077,-0.0205988,0,0.000466791,0,0,0,0.0684509,-0.0246,0.588077,-0.0205993,1.58124e-07,0.000465285,-1.49619e-07,-4.36243e-09,3.94824e-07
0.176943,0.0001064,-1.11315,4.11225e-05,2.21482,-0.000203392,0.617471,0.000220738,0.00120815,-0.0541825,0.000474946,-0.0204849,-0.00228899,0.0746677,0.00248937,0.0684177,0.0246,0.588078,-0.0207158,0,0.000474795,0,0,0,0.0684275,-0.0246,0.588077,-0.0207162,1.40432e-07,0.000473458,-1.32914e-07,-3.87578e-09,3.50653e-07
0.177943,0.000107616,-1.1132,4.16005e-05,2.2148,-0.000205694,0.617547,0.000223242,0.00121526,-0.0544781,0.000477925,-0.0206211,-0.002302,0.0750995,0.00250364,0.0683969,0.0246,0.588078,-0.0208327,0,0.00048289,0,0,0,0.0684068,-0.0246,0.588078,-0.0208332,1.42044e-07,0.000481538,-1.34475e-07,-3.92161e-09,3.54682e-07
0.178943,0.000108838,-1.11326,4.20814e-05,2.21478,-0.000208009,0.617622,0.00022576,0.00122238,-0.0547735,0.00048091,-0.0207577,-0.00231501,0.0755315,0.00251791,0.068376,0.0246,0.588079,-0.0209497,0,0.000491077,0,0,0,0.0683859,-0.0246,0.588078,-0.0209502,1.43665e-07,0.000489709,-1.36046e-07,-3.96775e-09,3.58735e-07
0.179943,0.000110068,-1.11331,4.25654e-05,2.21476,-0.000210337,0.617698,0.000228292,0.00122951,-0.0550687,0.0004839,-0.0208946,-0.00232803,0.0759636,0.00253218,0.068355,0.0246,0.588079,-0.0210667,0,0.000499356,0,0,0,0.068365,-0.0246,0.588079,-0.0210671,1.45295e-07,0.000497973,-1.37627e-07,-4.01418e-09,3.62811e-07
0.180944,0.000111305,-1.11337,4.30523e-05,2.21474,-0.000212679,0.617774,0.000230839,0.00123664,-0.0553637,0.000486895,-0.0210318,-0.00234104,0.0763959,0.00254646,0.0683339,0.0246,0.58808,-0.0211836,0,0.000507727,0,0,0,0.0683439,-0.0246,0.588079,-0.0211841,1.46935e-07,0.000506329,-1.39218e-07,-4.06092e-09,3.66911e-07
0.181944,0.000112549,-1.11342,4.35423e-05,2.21472,-0.000215033,0.617851,0.0002334,0.00124377,-0.0556586,0.000489894,-0.0211694,-0.00235405,0.0768284,0.00256074,0.0683126,0.0246,0.58808,-0.0213006,0,0.000516192,0,0,0,0.0683227,-0.0246,0.58808,-0.021301,1.48584e-07,0.000514778,-1.40819e-07,-4.10796e-09,3.71035e-07
0.182944,0.0001138,-1.11348,4.40352e-05,2.2147,-0.0002174,0.617929,0.000235975,0.00125091,-0.0559532,0.000492899,-0.0213073,-0.00236707,0.0772609,0.00257502,0.0682913,0.0246,0.588081,-0.0214175,0,0.00052475,0,0,0,0.0683014,-0.0246,0.58808,-0.021418,1.50243e-07,0.00052332,-1.4243e-07,-4.1553e-09,3.75184e-07
0.183944,0.000115058,-1.11353,4.45312e-05,2.21468,-0.000219781,0.618006,0.000238565,0.00125805,-0.0562477,0.000495909,-0.0214456,-0.00238009,0.0776937,0.00258931,0.0682698,0.0246,0.588081,-0.0215344,0,0.000533402,0,0,0,0.06828,-0.0246,0.588081,-0.0215349,1.51911e-07,0.000531956,-1.44051e-07,-4.20294e-09,3.79355e-07
0.184944,0.000116323,-1.11359,4.50301e-05,2.21466,-0.000222174,0.618084,0.000241169,0.0012652,-0.0565419,0.000498925,-0.0215843,-0.0023931,0.0781266,0.0026036,0.0682482,0.0246,0.588082,-0.0216514,0,0.000542148,0,0,0,0.0682585,-0.0246,0.588081,-0.0216519,1.53589e-07,0.000540687,-1.45683e-07,-4.2509e-09,3.83551e-07
0.185944,0.000117596,-1.11365,4.55321e-05,2.21463,-0.00022458,0.618163,0.000243787,0.00127235,-0.056836,0.000501945,-0.0217233,-0.00240612,0.0785597,0.00261789,0.0682265,0.0246,0.588082,-0.0217683,0,0.00055099,0,0,0,0.0682368,-0.0246,0.588082,-0.0217688,1.55276e-07,0.000549512,-1.47324e-07,-4.29915e-09,3.87771e-07
0.186944,0.000118875,-1.1137,4.60371e-05,2.21461,-0.000227,0.618242,0.000246419,0.00127951,-0.0571299,0.000504971,-0.0218627,-0.00241914,0.0789929,0.00263218,0.0682046,0.0246,0.588083,-0.0218852,0,0.000559927,0,0,0,0.068215,-0.0246,0.588083,-0.0218858,1.56973e-07,0.000558433,-1.48976e-07,-4.34772e-09,3.92015e-07
0.187944,0.000120162,-1.11376,4.65452e-05,2.21459,-0.000229432,0.618321,0.000249066,0.00128667,-0.0574236,0.000508001,-0.0220024,-0.00243216,0.0794263,0.00264648,0.0681827,0.0246,0.588083,-0.0220022,0,0.00056896,0,0,0,0.0681931,-0.0246,0.588083,-0.0220027,1.5868e-07,0.00056745,-1.50638e-07,-4.39659e-09,3.96282e-07
0.188944,0.000121456,-1.11382,4.70563e-05,2.21457,-0.000231877,0.618401,0.000251727,0.00129384,-0.057717,0.000511037,-0.0221425,-0.00244518,0.0798599,0.00266078,0.0681606,0.0246,0.588084,-0.0221191,0,0.00057809,0,0,0,0.0681711,-0.0246,0.588084,-0.0221196,1.60396e-07,0.000576564,-1.5231e-07,-4.44576e-09,4.00574e-07
0.189944,0.000122757,-1.11388,4.75704e-05,2.21455,-0.000234336,0.618482,0.000254403,0.00130101,-0.0580103,0.000514079,-0.0222829,-0.0024582,0.0802936,0.00267508,0.0681385,0.0246,0.588085,-0.022236,0,0.000587317,0,0,0,0.068149,-0.0246,0.588084,-0.0222365,1.62121e-07,0.000585775,-1.53993e-07,-4.49525e-09,4.04889e-07
0.190945,0.000124065,-1.11394,4.80876e-05,2.21452,-0.000236807,0.618562,0.000257092,0.00130819,-0.0583034,0.000517126,-0.0224237,-0.00247122,0.0807275,0.00268939,0.0681162,0.0246,0.588085,-0.0223529,0,0.000596641,0,0,0,0.0681268,-0.0246,0.588085,-0.0223535,1.63856e-07,0.000595083,-1.55685e-07,-4.54505e-09,4.09229e-07
0.191945,0.000125381,-1.11399,4.86078e-05,2.2145,-0.000239292,0.618643,0.000259796,0.00131537,-0.0585962,0.000520178,-0.0225649,-0.00248424,0.0811616,0.0027037,0.0680937,0.0246,0.588086,-0.0224698,0,0.000606064,0,0,0,0.0681044,-0.0246,0.588085,-0.0224704,1.65601e-07,0.000604489,-1.57388e-07,-4.59515e-09,4.13592e-07
0.192945,0.000126704,-1.11405,4.91311e-05,2.21448,-0.000241789,0.618725,0.000262514,0.00132256,-0.0588889,0.000523235,-0.0227065,-0.00249727,0.0815958,0.00271801,0.0680712,0.0246,0.588086,-0.0225867,0,0.000615585,0,0,0,0.068082,-0.0246,0.588086,-0.0225873,1.67355e-07,0.000613994,-1.59102e-07,-4.64557e-09,4.1798e-07
0.193945,0.000128033,-1.11411,4.96575e-05,2.21446,-0.0002443,0.618807,0.000265247,0.00132975,-0.0591813,0.000526298,-0.0228484,-0.00251029,0.0820302,0.00273233,0.0680486,0.0246,0.588087,-0.0227036,0,0.000625206,0,0,0,0.0680594,-0.0246,0.588087,-0.0227042,1.69118e-07,0.000623598,-1.60825e-07,-4.69629e-09,4.22392e-07
0.194945,0.000129371,-1.11417,5.0187e-05,2.21443,-0.000246824,0.61889,0.000267995,0.00133695,-0.0594736,0.000529367,-0.0229907,-0.00252332,0.0824648,0.00274665,0.0680258,0.0246,0.588088,-0.0228205,0,0.000634928,0,0,0,0.0680367,-0.0246,0.588087,-0.0228211,1.70926e-07,0.000633303,-1.62592e-07,-4.74829e-09,4.26913e-07
0.195945,0.000130715,-1.11423,5.07195e-05,2.21441,-0.000249361,0.618973,0.000270756,0.00134415,-0.0597657,0.00053244,-0.0231334,-0.00253635,0.0828995,0.00276097,0.0680029,0.0246,0.588088,-0.0229374,0,0.000644748,0,0,0,0.0680138,-0.0246,0.588088,-0.022938,1.72675e-07,0.000643107,-1.64304e-07,-4.7987e-09,4.31288e-07
0.196945,0.000132067,-1.11429,5.12551e-05,2.21439,-0.00025191,0.619056,0.000273531,0.00135136,-0.0600575,0.00053552,-0.0232764,-0.00254937,0.0833344,0.0027753,0.0679799,0.0246,0.588089,-0.0230543,0,0.000654669,0,0,0,0.0679909,-0.0246,0.588089,-0.0230549,1.74467e-07,0.000653011,-1.66058e-07,-4.85036e-09,4.35772e-07
0.19797,0.000133459,-1.11435,5.1807e-05,2.21436,-0.000254536,0.619142,0.00027639,0.00135874,-0.0603563,0.000538671,-0.0234233,-0.00256272,0.0837801,0.00278997,0.0679562,0.0246,0.58809,-0.0231741,0,0.000664938,0,0,0,0.0679678,-0.0246,0.588089,-0.0231747,1.80632e-07,0.000663222,-1.71979e-07,-5.02371e-09,4.51178e-07
0.19897,0.000134825,-1.11441,5.23488e-05,2.21434,-0.000257112,0.619226,0.000279195,0.00136597,-0.0606476,0.00054177,-0.0235672,-0.00257575,0.0842153,0.00280431,0.067933,0.0246,0.58809,-0.0232909,0,0.000675065,0,0,0,0.0679441,-0.0246,0.58809,-0.0232915,1.78125e-07,0.000673372,-1.69642e-07,-4.95592e-09,4.44923e-07
0.19997,0.000136198,-1.11448,5.28937e-05,2.21431,-0.000259701,0.619311,0.000282013,0.00137319,-0.0609388,0.000544866,-0.0237114,-0.00258878,0.0846507,0.00281864,0.0679096,0.0246,0.588091,-0.0234078,0,0.000685293,0,0,0,0.0679208,-0.0246,0.588091,-0.0234084,1.79946e-07,0.000683584,-1.71428e-07,-5.00854e-09,4.49479e-07
0.20097,0.000137579,-1.11454,5.34417e-05,2.21429,-0.000262303,0.619396,0.000284847,0.00138042,-0.0612298,0.000547968,-0.023856,-0.00260181,0.0850862,0.00283298,0.0678862,0.0246,0.588092,-0.0235247,0,0.000695625,0,0,0,0.0678974,-0.0246,0.588091,-0.0235253,1.81777e-07,0.000693898,-1.73225e-07,-5.06147e-09,4.5406e-07
0.20197,0.000138967,-1.1146,5.39929e-05,2.21427,-0.000264918,0.619481,0.000287694,0.00138766,-0.0615205,0.000551075,-0.0240009,-0.00261484,0.085522,0.00284732,0.0678626,0.0246,0.588092,-0.0236415,0,0.000706059,0,0,0,0.0678739,-0.0246,0.588092,-0.0236421,1.83618e-07,0.000704315,-1.75032e-07,-5.11473e-09,4.58665e-07
0.20297,0.000140362,-1.11466,5.45471e-05,2.21424,-0.000267546,0.619567,0.000290556,0.0013949,-0.0618111,0.000554188,-0.0241463,-0.00262787,0.0859579,0.00286166,0.0678389,0.0246,0.588093,-0.0237584,0,0.000716598,0,0,0,0.0678502,-0.0246,0.588093,-0.023759,1.85468e-07,0.000714836,-1.7685e-07,-5.1683e-09,4.63294e-07
0.20397,0.000141764,-1.11472,5.51045e-05,2.21422,-0.000270187,0.619654,0.000293433,0.00140214,-0.0621014,0.000557306,-0.024292,-0.0026409,0.0863939,0.00287601,0.0678151,0.0246,0.588094,-0.0238752,0,0.000727241,0,0,0,0.0678265,-0.0246,0.588093,-0.0238759,1.87328e-07,0.000725462,-1.78678e-07,-5.22219e-09,4.67947e-07
0.205284,0.000143618,-1.1148,5.58416e-05,2.21419,-0.000273678,0.619768,0.000297234,0.00141156,-0.0624836,0.000561293,-0.0244824,-0.00265802,0.0869665,0.00289481,0.0677836,0.0246,0.588095,-0.0240287,0,0.000741376,0,0,0,0.0678026,-0.0246,0.588094,-0.0240295,2.49212e-07,0.000739009,-2.37803e-07,-6.95049e-09,6.22555e-07
0.206284,0.000145037,-1.11487,5.64062e-05,2.21416,-0.00027635,0.619855,0.000300144,0.00141892,-0.0627721,0.000564542,-0.0246307,-0.00267105,0.0874033,0.00290921,0.0677595,0.0246,0.588096,-0.0241455,0,0.000752262,0,0,0,0.067771,-0.0246,0.588095,-0.0241462,1.91667e-07,0.000750442,-1.82947e-07,-5.34807e-09,4.78804e-07
0.207299,0.000146484,-1.11493,5.69825e-05,2.21414,-0.000279074,0.619944,0.000303111,0.00142628,-0.063066,0.00056772,-0.0247798,-0.00268428,0.0878464,0.00292377,0.067735,0.0246,0.588096,-0.0242641,0,0.000763418,0,0,0,0.0677469,-0.0246,0.588096,-0.0242647,1.9647e-07,0.000761553,-1.87592e-07,-5.48432e-09,4.90813e-07
0.208299,0.000147918,-1.11499,5.75534e-05,2.21411,-0.000281772,0.620033,0.00030605,0.00143356,-0.0633553,0.000570869,-0.0249273,-0.00269732,0.0882832,0.00293814,0.0677106,0.0246,0.588097,-0.0243809,0,0.000774519,0,0,0,0.0677222,-0.0246,0.588097,-0.0243816,1.95488e-07,0.000772663,-1.86712e-07,-5.45912e-09,4.88366e-07
0.209299,0.000149359,-1.11506,5.81275e-05,2.21409,-0.000284482,0.620121,0.000309003,0.00144083,-0.0636444,0.000574018,-0.0250752,-0.00271035,0.0887202,0.0029525,0.0676862,0.0246,0.588098,-0.0244977,0,0.000785726,0,0,0,0.0676979,-0.0246,0.588097,-0.0244984,1.97399e-07,0.000783852,-1.88597e-07,-5.51472e-09,4.93148e-07
0.210299,0.000150807,-1.11512,5.87047e-05,2.21406,-0.000287206,0.620211,0.00031197,0.00144811,-0.0639333,0.000577173,-0.0252234,-0.00272339,0.0891573,0.00296686,0.0676616,0.0246,0.588099,-0.0246145,0,0.00079704,0,0,0,0.0676734,-0.0246,0.588098,-0.0246152,1.9932e-07,0.000795149,-1.90492e-07,-5.57065e-09,4.97955e-07
0.211299,0.000152263,-1.11519,5.92851e-05,2.21404,-0.000289943,0.6203,0.000314951,0.00145539,-0.064222,0.000580334,-0.0253721,-0.00273643,0.0895947,0.00298123,0.067637,0.0246,0.588099,-0.0247313,0,0.000808463,0,0,0,0.0676487,-0.0246,0.588099,-0.024732,2.0125e-07,0.000806553,-1.92398e-07,-5.62689e-09,5.02786e-07
0.212299,0.000153726,-1.11525,5.98686e-05,2.21401,-0.000292692,0.62039,0.000317947,0.00146268,-0.0645104,0.000583501,-0.0255211,-0.00274946,0.0900322,0.0029956,0.0676122,0.0246,0.5881,-0.0248481,0,0.000819994,0,0,0,0.067624,-0.0246,0.5881,-0.0248488,2.0319e-07,0.000818066,-1.94315e-07,-5.68347e-09,5.07641e-07
0.213301,0.000155198,-1.11532,6.04561e-05,2.21398,-0.000295459,0.620481,0.000320961,0.00146999,-0.064799,0.000586677,-0.0256708,-0.00276252,0.0904704,0.00301,0.0675872,0.0246,0.588101,-0.0249651,0,0.00083165,0,0,0,0.0675992,-0.0246,0.588101,-0.0249658,2.05409e-07,0.000829701,-1.965e-07,-5.7479e-09,5.13193e-07
0.214301,0.000156675,-1.11538,6.10461e-05,2.21396,-0.000298235,0.620572,0.000323986,0.00147729,-0.065087,0.000589856,-0.0258207,-0.00277556,0.0909083,0.00302438,0.0675622,0.0246,0.588102,-0.0250819,0,0.0008434,0,0,0,0.0675742,-0.0246,0.588101,-0.0250826,2.07101e-07,0.000841435,-1.98183e-07,-5.79767e-09,5.1743e-07
0.215301,0.00015816,-1.11545,6.16392e-05,2.21393,-0.000301024,0.620663,0.000327025,0.00148459,-0.0653747,0.000593041,-0.0259709,-0.0027886,0.0913463,0.00303876,0.0675371,0.0246,0.588103,-0.0251987,0,0.00085526,0,0,0,0.0675491,-0.0246,0.588102,-0.0251994,2.0907e-07,0.000853277,-2.00132e-07,-5.85523e-09,5.22358e-07
0.216301,0.000159652,-1.11551,6.22355e-05,2.21391,-0.000303825,0.620755,0.000330079,0.0014919,-0.0656622,0.000596232,-0.0261216,-0.00280164,0.0917845,0.00305314,0.0675118,0.0246,0.588104,-0.0253155,0,0.000867231,0,0,0,0.0675239,-0.0246,0.588103,-0.0253162,2.11049e-07,0.000865229,-2.02092e-07,-5.91311e-09,5.27311e-07
0.217301,0.000161152,-1.11558,6.2835e-05,2.21388,-0.000306641,0.620847,0.000333147,0.00149922,-0.0659495,0.000599428,-0.0262727,-0.00281468,0.0922229,0.00306753,0.0674864,0.0246,0.588104,-0.0254322,0,0.000879314,0,0,0,0.0674986,-0.0246,0.588104,-0.025433,2.13059e-07,0.000877293,-2.04084e-07,-5.97193e-09,5.32341e-07
0.218301,0.000162658,-1.11564,6.34377e-05,2.21385,-0.000309469,0.62094,0.000336229,0.00150654,-0.0662365,0.000602631,-0.0264243,-0.00282772,0.0926614,0.00308192,0.0674609,0.0246,0.588105,-0.025549,0,0.000891507,0,0,0,0.0674731,-0.0246,0.588105,-0.0255497,2.15035e-07,0.000889468,-2.06045e-07,-6.02987e-09,5.37289e-07
0.219302,0.000164172,-1.11571,6.40436e-05,2.21383,-0.00031231,0.621033,0.000339326,0.00151387,-0.0665233,0.00060584,-0.0265762,-0.00284077,0.0931002,0.00309631,0.0674353,0.0246,0.588106,-0.0256658,0,0.000903813,0,0,0,0.0674476,-0.0246,0.588106,-0.0256665,2.17043e-07,0.000901755,-2.08037e-07,-6.08875e-09,5.42314e-07
0.220302,0.000165694,-1.11578,6.46528e-05,2.2138,-0.000315164,0.621126,0.000342437,0.00152121,-0.0668099,0.000609055,-0.0267286,-0.00285381,0.0935392,0.00311071,0.0674096,0.0246,0.588107,-0.0257825,0,0.000916233,0,0,0,0.0674219,-0.0246,0.588107,-0.0257833,2.19104e-07,0.000914156,-2.10083e-07,-6.1492e-09,5.47474e-07
0.221773,0.000167947,-1.11588,6.55555e-05,2.21376,-0.000319391,0.621265,0.000347045,0.00153183,-0.0672333,0.00061359,-0.0269507,-0.00287301,0.0941847,0.00313182,0.0673715,0.0246,0.588109,-0.0259543,0,0.000934706,0,0,0,0.0673961,-0.0246,0.588108,-0.0259554,3.26604e-07,0.00093161,-3.13314e-07,-9.1709e-09,8.16118e-07
0.222773,0.000169487,-1.11594,6.61726e-05,2.21373,-0.000322277,0.62136,0.000350191,0.00153935,-0.0675169,0.000617026,-0.0271069,-0.00288604,0.0946245,0.0031463,0.0673455,0.0246,0.588109,-0.026071,0,0.000947404,0,0,0,0.0673579,-0.0246,0.588109,-0.0260718,2.24087e-07,0.000945281,-2.15038e-07,-6.2957e-09,5.59948e-07
0.223773,0.000171034,-1.11601,6.67929e-05,2.21371,-0.000325177,0.621455,0.000353352,0.00154671,-0.0678026,0.000620263,-0.0272607,-0.00289909,0.095064,0.0031607,0.0673194,0.0246,0.58811,-0.0261877,0,0.000960218,0,0,0,0.0673318,-0.0246,0.58811,-0.0261885,2.26138e-07,0.000958075,-2.17079e-07,-6.35606e-09,5.65082e-07
0.224773,0.000172588,-1.11608,6.74165e-05,2.21368,-0.000328089,0.62155,0.000356528,0.00155407,-0.0680881,0.000623505,-0.0274149,-0.00291213,0.0955037,0.00317511,0.0672931,0.0246,0.588111,-0.0263044,0,0.000973146,0,0,0,0.0673057,-0.0246,0.588111,-0.0263052,2.28198e-07,0.000970984,-2.19132e-07,-6.41676e-09,5.70241e-07
0.225773,0.00017415,-1.11615,6.80433e-05,2.21365,-0.000331014,0.621646,0.000359717,0.00156143,-0.0683733,0.000626754,-0.0275696,-0.00292518,0.0959436,0.00318953,0.0672668,0.0246,0.588112,-0.0264212,0,0.000986189,0,0,0,0.0672793,-0.0246,0.588112,-0.026422,2.30269e-07,0.000984008,-2.21195e-07,-6.47779e-09,5.75424e-07
0.226773,0.000175719,-1.11622,6.86734e-05,2.21362,-0.000333953,0.621743,0.000362922,0.0015688,-0.0686582,0.000630009,-0.0277247,-0.00293822,0.0963836,0.00320394,0.0672403,0.0246,0.588113,-0.0265379,0,0.000999349,0,0,0,0.0672529,-0.0246,0.588113,-0.0265387,2.32349e-07,0.000997148,-2.2327e-07,-6.53917e-09,5.80632e-07
0.227774,0.000177295,-1.11629,6.93067e-05,2.2136,-0.000336905,0.621839,0.00036614,0.00157618,-0.0689429,0.000633271,-0.0278803,-0.00295127,0.0968239,0.00321836,0.0672137,0.0246,0.588114,-0.0266546,0,0.00101262,0,0,0,0.0672264,-0.0246,0.588114,-0.0266554,2.34439e-07,0.0010104,-2.25355e-07,-6.60088e-09,5.85865e-07
0.228777,0.000178884,-1.11636,6.99455e-05,2.21357,-0.00033988,0.621937,0.000369385,0.00158359,-0.0692283,0.000636548,-0.0280368,-0.00296436,0.0972659,0.00323283,0.0671869,0.0246,0.588115,-0.0267717,0,0.00102606,0,0,0,0.0671997,-0.0246,0.588115,-0.0267725,2.37373e-07,0.00102382,-2.28255e-07,-6.68645e-09,5.93209e-07
0.229777,0.000180475,-1.11642,7.05854e-05,2.21354,-0.000342857,0.622035,0.000372632,0.00159097,-0.0695125,0.000639824,-0.0281932,-0.00297741,0.0977065,0.00324726,0.06716,0.0246,0.588116,-0.0268884,0,0.00103958,0,0,0,0.0671729,-0.0246,0.588116,-0.0268892,2.38655e-07,0.00103732,-2.29567e-07,-6.72553e-09,5.96421e-07
0.230777,0.000182074,-1.11649,7.12286e-05,2.21351,-0.000345848,0.622133,0.000375894,0.00159837,-0.0697964,0.000643105,-0.0283501,-0.00299046,0.0981473,0.00326169,0.0671331,0.0246,0.588117,-0.027005,0,0.0010532,0,0,0,0.067146,-0.0246,0.588117,-0.0270059,2.40774e-07,0.00105092,-2.31686e-07,-6.78826e-09,6.01727e-07
0.231777,0.00018368,-1.11656,7.1875e-05,2.21348,-0.000348852,0.622231,0.000379171,0.00160577,-0.0700801,0.000646392,-0.0285073,-0.00300351,0.0985882,0.00327612,0.067106,0.0246,0.588119,-0.0271217,0,0.00106695,0,0,0,0.067119,-0.0246,0.588118,-0.0271226,2.42902e-07,0.00106465,-2.33816e-07,-6.85133e-09,6.07058e-07
0.232777,0.000185293,-1.11664,7.25248e-05,2.21345,-0.000351869,0.622331,0.000382462,0.00161317,-0.0703635,0.000649685,-0.0286651,-0.00301656,0.0990294,0.00329055,0.0670788,0.0246,0.58812,-0.0272384,0,0.00108082,0,0,0,0.0670918,-0.0246,0.588119,-0.0272392,2.45041e-07,0.0010785,-2.35958e-07,-6.91475e-09,6.12412e-07
0.233778,0.000186914,-1.11671,7.31778e-05,2.21343,-0.000354899,0.62243,0.000385767,0.00162058,-0.0706467,0.000652985,-0.0288232,-0.00302961,0.0994707,0.00330499,0.0670515,0.0246,0.588121,-0.027355,0,0.0010948,0,0,0,0.0670646,-0.0246,0.58812,-0.0273559,2.47189e-07,0.00109246,-2.3811e-07,-6.9785e-09,6.17792e-07
0.234778,0.000188542,-1.11678,7.38342e-05,2.2134,-0.000357942,0.62253,0.000389087,0.001628,-0.0709296,0.000656291,-0.0289819,-0.00304266,0.0999122,0.00331943,0.0670241,0.0246,0.588122,-0.0274717,0,0.00110891,0,0,0,0.0670372,-0.0246,0.588121,-0.0274725,2.49347e-07,0.00110655,-2.40274e-07,-7.0426e-09,6.23196e-07
0.235778,0.000190178,-1.11685,7.44939e-05,2.21337,-0.000360998,0.62263,0.000392421,0.00163543,-0.0712122,0.000659604,-0.0291409,-0.00305571,0.100354,0.00333387,0.0669966,0.0246,0.588123,-0.0275883,0,0.00112314,0,0,0,0.0670098,-0.0246,0.588122,-0.0275892,2.51515e-07,0.00112076,-2.42449e-07,-7.10704e-09,6.28624e-07
0.236778,0.000191821,-1.11692,7.51569e-05,2.21334,-0.000364067,0.622731,0.00039577,0.00164285,-0.0714946,0.000662924,-0.0293004,-0.00306876,0.100796,0.00334832,0.0669689,0.0246,0.588124,-0.0277049,0,0.00113748,0,0,0,0.0669822,-0.0246,0.588123,-0.0277058,2.53692e-07,0.00113508,-2.44635e-07,-7.17183e-09,6.34078e-07
0.237778,0.000193471,-1.11699,7.58232e-05,2.21331,-0.000367149,0.622832,0.000399133,0.00165029,-0.0717767,0.00066625,-0.0294604,-0.00308181,0.101238,0.00336277,0.0669412,0.0246,0.588125,-0.0278216,0,0.00115195,0,0,0,0.0669545,-0.0246,0.588125,-0.0278225,2.55879e-07,0.00114953,-2.46833e-07,-7.23697e-09,6.39555e-07
0.238778,0.000195129,-1.11706,7.64928e-05,2.21328,-0.000370244,0.622934,0.00040251,0.00165773,-0.0720585,0.000669582,-0.0296208,-0.00309486,0.10168,0.00337722,0.0669133,0.0246,0.588126,-0.0279382,0,0.00116654,0,0,0,0.0669266,-0.0246,0.588126,-0.0279391,2.58076e-07,0.0011641,-2.49042e-07,-7.30245e-09,6.45058e-07
0.239778,0.000196794,-1.11714,7.71658e-05,2.21325,-0.000373352,0.623036,0.000405902,0.00166518,-0.0723401,0.000672922,-0.0297817,-0.00310791,0.102123,0.00339167,0.0668853,0.0246,0.588128,-0.0280548,0,0.00118126,0,0,0,0.0668987,-0.0246,0.588127,-0.0280557,2.60283e-07,0.00117879,-2.51263e-07,-7.36828e-09,6.50584e-07
0.240778,0.000198467,-1.11721,7.78421e-05,2.21322,-0.000376473,0.623139,0.000409309,0.00167263,-0.0726213,0.000676268,-0.029943,-0.00312096,0.102565,0.00340613,0.0668572,0.0246,0.588129,-0.0281714,0,0.00119609,0,0,0,0.0668706,-0.0246,0.588128,-0.0281723,2.62499e-07,0.00119361,-2.53494e-07,-7.43446e-09,6.56136e-07
0.241778,0.000200147,-1.11728,7.85218e-05,2.21319,-0.000379608,0.623242,0.00041273,0.00168009,-0.0729024,0.00067962,-0.0301048,-0.00313401,0.103008,0.00342059,0.066829,0.0246,0.58813,-0.028288,0,0.00121105,0,0,0,0.0668425,-0.0246,0.588129,-0.0282889,2.64725e-07,0.00120855,-2.55738e-07,-7.50099e-09,6.61712e-07
0.242779,0.000201835,-1.11735,7.92049e-05,2.21316,-0.000382755,0.623345,0.000416165,0.00168755,-0.0731831,0.00068298,-0.030267,-0.00314707,0.103451,0.00343505,0.0668006,0.0246,0.588131,-0.0284045,0,0.00122614,0,0,0,0.0668142,-0.0246,0.58813,-0.0284055,2.66961e-07,0.00122361,-2.57992e-07,-7.56787e-09,6.67313e-07
0.243779,0.00020353,-1.11743,7.98913e-05,2.21313,-0.000385916,0.623449,0.000419615,0.00169503,-0.0734636,0.000686346,-0.0304298,-0.00316012,0.103894,0.00344952,0.0667721,0.0246,0.588132,-0.0285211,0,0.00124135,0,0,0,0.0667858,-0.0246,0.588132,-0.0285221,2.69207e-07,0.0012388,-2.60259e-07,-7.6351e-09,6.72938e-07
0.244779,0.000205233,-1.1175,8.05811e-05,2.2131,-0.000389089,0.623553,0.000423079,0.0017025,-0.0737438,0.000689718,-0.0305929,-0.00317317,0.104338,0.00346399,0.0667436,0.0246,0.588134,-0.0286377,0,0.00125668,0,0,0,0.0667572,-0.0246,0.588133,-0.0286386,2.71463e-07,0.00125411,-2.62536e-07,-7.70268e-09,6.78588e-07
0.245779,0.000206943,-1.11758,8.12743e-05,2.21307,-0.000392276,0.623658,0.000426558,0.00170999,-0.0740237,0.000693098,-0.0307565,-0.00318622,0.104781,0.00347846,0.0667149,0.0246,0.588135,-0.0287542,0,0.00127214,0,0,0,0.0667286,-0.0246,0.588134,-0.0287552,2.73728e-07,0.00126955,-2.64826e-07,-7.77061e-09,6.84263e-07
0.246779,0.000208661,-1.11765,8.19708e-05,2.21304,-0.000395475,0.623764,0.000430051,0.00171748,-0.0743033,0.000696485,-0.0309206,-0.00319928,0.105225,0.00349294,0.066686,0.0246,0.588136,-0.0288708,0,0.00128773,0,0,0,0.0666998,-0.0246,0.588135,-0.0288718,2.76003e-07,0.00128512,-2.67126e-07,-7.8389e-09,6.89962e-07
0.247779,0.000210386,-1.11772,8.26708e-05,2.213,-0.000398688,0.623869,0.000433559,0.00172497,-0.0745827,0.000699878,-0.0310852,-0.00321233,0.105669,0.00350742,0.0666571,0.0246,0.588137,-0.0289873,0,0.00130344,0,0,0,0.066671,-0.0246,0.588137,-0.0289883,2.78288e-07,0.00130081,-2.69439e-07,-7.90755e-09,6.95686e-07
0.248779,0.000212119,-1.1178,8.33741e-05,2.21297,-0.000401914,0.623975,0.000437082,0.00173247,-0.0748617,0.000703278,-0.0312502,-0.00322538,0.106113,0.0035219,0.0666281,0.0246,0.588139,-0.0291038,0,0.00131928,0,0,0,0.066642,-0.0246,0.588138,-0.0291048,2.80582e-07,0.00131663,-2.71763e-07,-7.97655e-09,7.01434e-07
0.249779,0.000213859,-1.11787,8.40809e-05,2.21294,-0.000405152,0.624082,0.000440618,0.00173998,-0.0751405,0.000706685,-0.0314157,-0.00323844,0.106557,0.00353638,0.0665989,0.0246,0.58814,-0.0292203,0,0.00133525,0,0,0,0.0666129,-0.0246,0.588139,-0.0292214,2.82887e-07,0.00133257,-2.74098e-07,-8.0459e-09,7.07208e-07
0.250779,0.000215606,-1.11795,8.4791e-05,2.21291,-0.000408404,0.624189,0.000444169,0.0017475,-0.075419,0.000710099,-0.0315817,-0.00325149,0.107002,0.00355087,0.0665696,0.0246,0.588141,-0.0293368,0,0.00135134,0,0,0,0.0665836,-0.0246,0.588141,-0.0293379,2.85201e-07,0.00134865,-2.76445e-07,-8.11562e-09,7.13006e-07
0.251779,0.000217362,-1.11803,8.55046e-05,2.21288,-0.000411669,0.624296,0.000447735,0.00175502,-0.0756972,0.00071352,-0.0317482,-0.00326455,0.107446,0.00356536,0.0665402,0.0246,0.588143,-0.0294533,0,0.00136757,0,0,0,0.0665543,-0.0246,0.588142,-0.0294544,2.87525e-07,0.00136485,-2.78804e-07,-8.18569e-09,7.18828e-07
0.25283,0.000219213,-1.11811,8.62578e-05,2.21285,-0.000415112,0.62441,0.000451496,0.0017629,-0.0759894,0.000717091,-0.0319231,-0.00327826,0.107914,0.00358057,0.0665092,0.0246,0.588144,-0.0295756,0,0.00138474,0,0,0,0.0665248,-0.0246,0.588143,-0.0295768,3.0453e-07,0.00138187,-2.95412e-07,-8.67409e-09,7.61358e-07
0.253975,0.000221243,-1.11819,8.70838e-05,2.21281,-0.000418885,0.624534,0.000455617,0.00177148,-0.0763081,0.000720972,-0.0321142,-0.00329322,0.108423,0.00359716,0.0664753,0.0246,0.588146,-0.0297091,0,0.00140364,0,0,0,0.0664938,-0.0246,0.588145,-0.0297103,3.35265e-07,0.00140048,-3.25371e-07,-9.55459e-09,8.38218e-07
0.255258,0.000223528,-1.11829,8.80144e-05,2.21277,-0.000423132,0.624674,0.000460256,0.00178109,-0.0766647,0.000725311,-0.0323288,-0.00330997,0.108994,0.00361573,0.066437,0.0246,0.588148,-0.0298585,0,0.00142501,0,0,0,0.0664597,-0.0246,0.588146,-0.0298599,3.79315e-07,0.00142143,-3.68306e-07,-1.08163e-08,9.48381e-07
0.256259,0.000225317,-1.11837,8.87434e-05,2.21273,-0.000426455,0.624783,0.000463887,0.00178877,-0.0769397,0.000728927,-0.0324995,-0.00332301,0.10944,0.00363029,0.0664071,0.0246,0.588149,-0.0299749,0,0.00144182,0,0,0,0.0664214,-0.0246,0.588148,-0.029976,2.98053e-07,0.00143901,-2.89513e-07,-8.50394e-09,7.45209e-07
0.257268,0.00022713,-1.11845,8.94826e-05,2.2127,-0.000429822,0.624894,0.000467566,0.00179639,-0.0772189,0.000732413,-0.0326701,-0.00333618,0.10989,0.00364492,0.0663768,0.0246,0.588151,-0.0300924,0,0.00145891,0,0,0,0.0663915,-0.0246,0.58815,-0.0300936,3.03217e-07,0.00145605,-2.94644e-07,-8.65552e-09,7.58132e-07
0.258274,0.000228945,-1.11852,9.02229e-05,2.21267,-0.000433192,0.625005,0.000471247,0.001804,-0.0774969,0.000735902,-0.0328407,-0.00334932,0.110339,0.00365952,0.0663465,0.0246,0.588152,-0.0302095,0,0.00147609,0,0,0,0.0663611,-0.0246,0.588151,-0.0302107,3.04641e-07,0.00147321,-2.96145e-07,-8.7005e-09,7.61708e-07
0.259274,0.000230757,-1.1186,9.09624e-05,2.21264,-0.000436555,0.625116,0.000474922,0.00181157,-0.0777729,0.00073938,-0.0330108,-0.00336237,0.110785,0.00367403,0.0663162,0.0246,0.588154,-0.030326,0,0.00149329,0,0,0,0.0663307,-0.0246,0.588153,-0.0303271,3.05283e-07,0.00149041,-2.96885e-07,-8.72316e-09,7.63326e-07
0.260274,0.000232576,-1.11868,9.17055e-05,2.2126,-0.000439931,0.625227,0.000478611,0.00181915,-0.0780486,0.000742861,-0.0331814,-0.00337543,0.111231,0.00368855,0.0662858,0.0246,0.588155,-0.0304424,0,0.00151063,0,0,0,0.0663004,-0.0246,0.588154,-0.0304435,3.07691e-07,0.00150773,-2.99345e-07,-8.79632e-09,7.6936e-07
0.261274,0.000234403,-1.11876,9.2452e-05,2.21257,-0.00044332,0.625339,0.000482315,0.00182673,-0.078324,0.000746349,-0.0333524,-0.00338848,0.111678,0.00370306,0.0662553,0.0246,0.588157,-0.0305588,0,0.0015281,0,0,0,0.0662699,-0.0246,0.588156,-0.03056,3.10108e-07,0.00152518,-3.01816e-07,-8.86985e-09,7.75418e-07
0.262378,0.000236428,-1.11885,9.32797e-05,2.21253,-0.000447075,0.625463,0.000486419,0.00183505,-0.0786283,0.000750143,-0.0335409,-0.00340289,0.11217,0.00371906,0.0662215,0.0246,0.588158,-0.0306872,0,0.00154754,0,0,0,0.0662393,-0.0246,0.588157,-0.0306885,3.45088e-07,0.00154428,-3.36008e-07,-9.87551e-09,8.62904e-07
0.263378,0.000238271,-1.11892,9.40336e-05,2.2125,-0.000450492,0.625575,0.000490153,0.00184269,-0.0789024,0.00075371,-0.0337139,-0.00341594,0.112617,0.00373361,0.0661908,0.0246,0.58816,-0.0308036,0,0.00156529,0,0,0,0.0662055,-0.0246,0.588159,-0.0308048,3.15225e-07,0.00156232,-3.07053e-07,-9.02571e-09,7.88242e-07
0.264497,0.000240343,-1.11901,9.48816e-05,2.21246,-0.000454332,0.625702,0.000494351,0.00185114,-0.0792104,0.000757566,-0.0339061,-0.00343056,0.113118,0.00374984,0.0661562,0.0246,0.588162,-0.0309338,0,0.00158532,0,0,0,0.0661747,-0.0246,0.58816,-0.0309352,3.55855e-07,0.00158197,-3.46787e-07,-1.01945e-08,8.89863e-07
0.265498,0.000242202,-1.11909,9.56428e-05,2.21243,-0.000457776,0.625815,0.000498116,0.00185881,-0.0794837,0.000761159,-0.0340802,-0.0034436,0.113565,0.00376439,0.0661252,0.0246,0.588163,-0.0310502,0,0.00160336,0,0,0,0.06614,-0.0246,0.588162,-0.0310514,3.20392e-07,0.00160034,-3.12352e-07,-9.18347e-09,8.01193e-07
0.266498,0.000244069,-1.11917,9.64076e-05,2.21239,-0.000461233,0.62593,0.000501895,0.00186642,-0.0797575,0.000764685,-0.0342538,-0.00345666,0.114013,0.00377892,0.0660941,0.0246,0.588165,-0.0311665,0,0.00162154,0,0,0,0.066109,-0.0246,0.588164,-0.0311677,3.22861e-07,0.0016185,-3.14886e-07,-9.25892e-09,8.0738e-07
0.267498,0.000245943,-1.11925,9.7176e-05,2.21236,-0.000464703,0.626044,0.000505689,0.00187404,-0.080031,0.000768219,-0.034428,-0.00346971,0.11446,0.00379346,0.0660629,0.0246,0.588166,-0.0312828,0,0.00163986,0,0,0,0.0660778,-0.0246,0.588165,-0.0312841,3.25372e-07,0.00163679,-3.17464e-07,-9.33568e-09,8.13674e-07
0.268513,0.000247854,-1.11933,9.79595e-05,2.21232,-0.000468239,0.626161,0.000509555,0.00188177,-0.0803085,0.000771803,-0.0346051,-0.00348296,0.114915,0.00380821,0.0660311,0.0246,0.588168,-0.0314009,0,0.00165859,0,0,0,0.0660465,-0.0246,0.588167,-0.0314022,3.32814e-07,0.00165545,-3.2486e-07,-9.55414e-09,8.32302e-07
0.269513,0.000249743,-1.11941,9.8735e-05,2.21229,-0.000471736,0.626276,0.000513378,0.00188942,-0.0805812,0.000775361,-0.0347804,-0.00349601,0.115363,0.00382275,0.0659996,0.0246,0.58817,-0.0315172,0,0.00167718,0,0,0,0.0660146,-0.0246,0.588169,-0.0315185,3.30363e-07,0.00167406,-3.22599e-07,-9.48866e-09,8.26185e-07
0.270513,0.000251641,-1.11949,9.9514e-05,2.21225,-0.000475245,0.626392,0.000517216,0.00189706,-0.0808538,0.000778917,-0.0349561,-0.00350906,0.115811,0.00383729,0.065968,0.0246,0.588171,-0.0316335,0,0.0016959,0,0,0,0.0659831,-0.0246,0.58817,-0.0316348,3.3287e-07,0.00169277,-3.25181e-07,-9.5656e-09,8.32471e-07
0.271513,0.000253546,-1.11958,0.000100297,2.21222,-0.000478768,0.626508,0.000521068,0.0019047,-0.081126,0.00078248,-0.0351323,-0.00352212,0.11626,0.00385183,0.0659363,0.0246,0.588173,-0.0317498,0,0.00171477,0,0,0,0.0659515,-0.0246,0.588172,-0.031751,3.35388e-07,0.00171161,-3.27775e-07,-9.64292e-09,8.38782e-07
0.272514,0.000255458,-1.11966,0.000101083,2.21218,-0.000482303,0.626625,0.000524935,0.00191235,-0.0813979,0.000786051,-0.0353089,-0.00353517,0.116708,0.00386638,0.0659045,0.0246,0.588175,-0.031866,0,0.00173378,0,0,0,0.0659197,-0.0246,0.588174,-0.0318673,3.37915e-07,0.00173059,-3.30382e-07,-9.72062e-09,8.45118e-07
0.273514,0.000257378,-1.11974,0.000101872,2.21215,-0.000485852,0.626742,0.000528816,0.00192001,-0.0816695,0.000789629,-0.0354861,-0.00354822,0.117157,0.00388093,0.0658726,0.0246,0.588177,-0.0319823,0,0.00175292,0,0,0,0.0658879,-0.0246,0.588176,-0.0319836,3.40453e-07,0.00174972,-3.33001e-07,-9.79869e-09,8.51479e-07
0.274514,0.000259306,-1.11982,0.000102666,2.21211,-0.000489413,0.62686,0.000532712,0.00192768,-0.0819408,0.000793214,-0.0356639,-0.00356127,0.117606,0.00389548,0.0658405,0.0246,0.588178,-0.0320985,0,0.00177221,0,0,0,0.0658559,-0.0246,0.588177,-0.0320998,3.43e-07,0.00176898,-3.35632e-07,-9.87715e-09,8.57864e-07
0.275514,0.000261242,-1.1199,0.000103463,2.21208,-0.000492988,0.626978,0.000536623,0.00193535,-0.0822117,0.000796807,-0.0358421,-0.00357432,0.118055,0.00391003,0.0658084,0.0246,0.58818,-0.0322147,0,0.00179164,0,0,0,0.0658238,-0.0246,0.588179,-0.032216,3.45557e-07,0.00178838,-3.38276e-07,-9.95598e-09,8.64275e-07
0.276514,0.000263185,-1.11999,0.000104263,2.21204,-0.000496576,0.627096,0.000540548,0.00194303,-0.0824824,0.000800408,-0.0360208,-0.00358737,0.118505,0.00392459,0.0657761,0.0246,0.588182,-0.0323309,0,0.0018112,0,0,0,0.0657916,-0.0246,0.588181,-0.0323323,3.48123e-07,0.00180793,-3.40932e-07,-1.00352e-08,8.7071e-07
0.277514,0.000265136,-1.12007,0.000105067,2.212,-0.000500176,0.627215,0.000544487,0.00195072,-0.0827527,0.000804016,-0.0362001,-0.00360042,0.118954,0.00393915,0.0657437,0.0246,0.588184,-0.0324471,0,0.00183091,0,0,0,0.0657592,-0.0246,0.588183,-0.0324485,3.507e-07,0.00182761,-3.436e-07,-1.01148e-08,8.7717e-07
0.278514,0.000267095,-1.12015,0.000105875,2.21197,-0.00050379,0.627335,0.000548441,0.00195841,-0.0830226,0.000807632,-0.0363799,-0.00361347,0.119404,0.00395371,0.0657112,0.0246,0.588186,-0.0325633,0,0.00185077,0,0,0,0.0657268,-0.0246,0.588185,-0.0325647,3.53286e-07,0.00184744,-3.4628e-07,-1.01948e-08,8.83655e-07
0.279812,0.000269649,-1.12026,0.000106929,2.21192,-0.000508502,0.62749,0.000553597,0.00196823,-0.0833749,0.000812129,-0.0366112,-0.00363042,0.119988,0.00397254,0.0656688,0.0246,0.588188,-0.0327141,0,0.00187674,0,0,0,0.0656942,-0.0246,0.588186,-0.0327158,4.62809e-07,0.00187238,-4.53885e-07,-1.33632e-08,1.15764e-06
0.281029,0.000272055,-1.12036,0.000107922,2.21187,-0.000512938,0.627637,0.000558452,0.00197765,-0.0837017,0.000816606,-0.0368322,-0.00364629,0.120535,0.00399028,0.0656289,0.0246,0.58819,-0.0328554,0,0.00190131,0,0,0,0.0656517,-0.0246,0.588189,-0.0328571,4.37755e-07,0.00189719,-4.29536e-07,-1.26483e-08,1.09499e-06
0.282029,0.000274041,-1.12045,0.000108743,2.21184,-0.000516598,0.627758,0.000562457,0.00198549,-0.0839687,0.000820401,-0.0370158,-0.00365932,0.120986,0.0040049,0.065596,0.0246,0.588192,-0.0329715,0,0.00192167,0,0,0,0.0656118,-0.0246,0.588191,-0.0329729,3.62454e-07,0.00191825,-3.55799e-07,-1.04789e-08,9.06641e-07
0.283029,0.000276034,-1.12053,0.000109567,2.2118,-0.000520271,0.627879,0.000566477,0.00199322,-0.0842372,0.000824052,-0.037198,-0.00367237,0.121437,0.00401947,0.065563,0.0246,0.588194,-0.0330876,0,0.00194217,0,0,0,0.0655788,-0.0246,0.588193,-0.033089,3.65085e-07,0.00193873,-3.58536e-07,-1.05606e-08,9.13238e-07
0.284029,0.000278035,-1.12061,0.000110395,2.21176,-0.000523957,0.628001,0.000570511,0.00200094,-0.0845053,0.00082771,-0.0373807,-0.00368542,0.121887,0.00403405,0.0655299,0.0246,0.588196,-0.0332037,0,0.00196281,0,0,0,0.0655457,-0.0246,0.588195,-0.0332051,3.67725e-07,0.00195935,-3.61285e-07,-1.06427e-08,9.1986e-07
0.285297,0.000280584,-1.12072,0.00011145,2.21171,-0.00052865,0.628157,0.000575649,0.00201059,-0.084847,0.000832165,-0.0376105,-0.00370197,0.122459,0.00405247,0.0654877,0.0246,0.588199,-0.0333509,0,0.00198919,0,0,0,0.0655125,-0.0246,0.588197,-0.0333527,4.70403e-07,0.00198477,-4.62423e-07,-1.36226e-08,1.17675e-06
0.286297,0.000282603,-1.12081,0.000112286,2.21168,-0.000532365,0.62828,0.000579717,0.0020185,-0.0851121,0.000836036,-0.0377969,-0.003715,0.12291,0.00406711,0.0654543,0.0246,0.588201,-0.0334669,0,0.00201017,0,0,0,0.0654702,-0.0246,0.588199,-0.0334684,3.7375e-07,0.00200665,-3.67566e-07,-1.08303e-08,9.34968e-07
0.287302,0.00028464,-1.12089,0.00011313,2.21164,-0.000536114,0.628404,0.000583821,0.00202629,-0.0853805,0.000839735,-0.0379823,-0.00372811,0.123364,0.00408177,0.0654205,0.0246,0.588203,-0.0335836,0,0.0020314,0,0,0,0.0654367,-0.0246,0.588201,-0.0335851,3.78469e-07,0.00202784,-3.72371e-07,-1.0973e-08,9.46791e-07
0.288302,0.000286675,-1.12098,0.000113974,2.2116,-0.000539855,0.628527,0.000587918,0.00203405,-0.0856472,0.000843431,-0.0381673,-0.00374115,0.123816,0.00409635,0.0653869,0.0246,0.588205,-0.0336997,0,0.00205267,0,0,0,0.065403,-0.0246,0.588204,-0.0337012,3.7912e-07,0.00204911,-3.73175e-07,-1.09979e-08,9.48434e-07
0.289303,0.000288717,-1.12106,0.000114821,2.21156,-0.00054361,0.628652,0.000592029,0.00204181,-0.0859135,0.000847131,-0.0383528,-0.0037542,0.124268,0.00411094,0.0653531,0.0246,0.588207,-0.0338157,0,0.00207409,0,0,0,0.0653693,-0.0246,0.588206,-0.0338172,3.81812e-07,0.0020705,-3.7599e-07,-1.1082e-08,9.55187e-07
0.290303,0.000290767,-1.12115,0.000115672,2.21152,-0.000547378,0.628776,0.000596155,0.00204958,-0.0861794,0.000850838,-0.0385388,-0.00376724,0.12472,0.00412553,0.0653193,0.0246,0.588209,-0.0339317,0,0.00209566,0,0,0,0.0653355,-0.0246,0.588208,-0.0339332,3.84514e-07,0.00209204,-3.78819e-07,-1.11666e-08,9.61964e-07
0.291303,0.000292824,-1.12124,0.000116527,2.21149,-0.000551158,0.628902,0.000600295,0.00205736,-0.0864451,0.000854554,-0.0387254,-0.00378028,0.125172,0.00414012,0.0652853,0.0246,0.588211,-0.0340477,0,0.00211737,0,0,0,0.0653015,-0.0246,0.58821,-0.0340492,3.87227e-07,0.00211373,-3.8166e-07,-1.12515e-08,9.68766e-07
0.292303,0.000294889,-1.12132,0.000117385,2.21145,-0.000554952,0.629027,0.000604451,0.00206514,-0.0867103,0.000858277,-0.0389125,-0.00379332,0.125624,0.00415471,0.0652512,0.0246,0.588213,-0.0341637,0,0.00213924,0,0,0,0.0652675,-0.0246,0.588212,-0.0341652,3.89948e-07,0.00213557,-3.84514e-07,-1.13368e-08,9.75593e-07
0.293303,0.000296963,-1.12141,0.000118247,2.21141,-0.000558759,0.629153,0.00060862,0.00207294,-0.0869752,0.000862009,-0.0391002,-0.00380636,0.126077,0.00416931,0.0652169,0.0246,0.588215,-0.0342797,0,0.00216125,0,0,0,0.0652333,-0.0246,0.588214,-0.0342812,3.9268e-07,0.00215756,-3.87381e-07,-1.14226e-08,9.82445e-07
0.294303,0.000299044,-1.1215,0.000119113,2.21137,-0.000562578,0.62928,0.000612805,0.00208073,-0.0872398,0.000865748,-0.0392884,-0.0038194,0.12653,0.00418391,0.0651826,0.0246,0.588217,-0.0343956,0,0.00218342,0,0,0,0.065199,-0.0246,0.588216,-0.0343972,3.95422e-07,0.0021797,-3.9026e-07,-1.15087e-08,9.89322e-07
0.295303,0.000301132,-1.12159,0.000119982,2.21133,-0.000566411,0.629407,0.000617004,0.00208854,-0.087504,0.000869496,-0.0394772,-0.00383243,0.126983,0.00419851,0.0651481,0.0246,0.58822,-0.0345115,0,0.00220573,0,0,0,0.0651646,-0.0246,0.588218,-0.0345131,3.98173e-07,0.00220199,-3.93152e-07,-1.15952e-08,9.96223e-07
0.296303,0.000303229,-1.12167,0.000120856,2.21129,-0.000570257,0.629534,0.000621217,0.00209635,-0.0877678,0.000873251,-0.0396665,-0.00384547,0.127436,0.00421311,0.0651136,0.0246,0.588222,-0.0346275,0,0.0022282,0,0,0,0.0651301,-0.0246,0.588221,-0.0346291,4.00934e-07,0.00222443,-3.96057e-07,-1.16822e-08,1.00315e-06
0.297303,0.000305333,-1.12176,0.000121733,2.21125,-0.000574116,0.629662,0.000625445,0.00210417,-0.0880313,0.000877015,-0.0398564,-0.00385851,0.127889,0.00422771,0.0650789,0.0246,0.588224,-0.0347434,0,0.00225081,0,0,0,0.0650955,-0.0246,0.588223,-0.034745,4.03705e-07,0.00224702,-3.98975e-07,-1.17695e-08,1.0101e-06
0.298303,0.000307445,-1.12185,0.000122614,2.21121,-0.000577988,0.629791,0.000629688,0.002112,-0.0882944,0.000880786,-0.0400468,-0.00387154,0.128343,0.00424232,0.0650441,0.0246,0.588226,-0.0348593,0,0.00227358,0,0,0,0.0650607,-0.0246,0.588225,-0.0348609,4.06486e-07,0.00226976,-4.01906e-07,-1.18572e-08,1.01708e-06
0.299304,0.000309566,-1.12194,0.000123499,2.21117,-0.000581874,0.629919,0.000633947,0.00211983,-0.0885572,0.000884567,-0.0402379,-0.00388458,0.128797,0.00425693,0.0650091,0.0246,0.588229,-0.0349752,0,0.00229651,0,0,0,0.0650259,-0.0246,0.588227,-0.0349768,4.09401e-07,0.00229267,-4.04973e-07,-1.19489e-08,1.02439e-06
0.300304,0.000311694,-1.12203,0.000124387,2.21113,-0.000585772,0.630049,0.000638219,0.00212767,-0.0888196,0.000888355,-0.0404294,-0.00389761,0.129251,0.00427154,0.0649741,0.0246,0.588231,-0.035091,0,0.00231959,0,0,0,0.0649909,-0.0246,0.58823,-0.0350927,4.12078e-07,0.00231572,-4.07808e-07,-1.20339e-08,1.0311e-06
0.301304,0.00031383,-1.12212,0.000125279,2.21109,-0.000589683,0.630178,0.000642505,0.00213552,-0.0890817,0.000892151,-0.0406215,-0.00391064,0.129705,0.00428615,0.0649389,0.0246,0.588233,-0.0352068,0,0.00234282,0,0,0,0.0649558,-0.0246,0.588232,-0.0352085,4.14889e-07,0.00233892,-4.10778e-07,-1.21228e-08,1.03815e-06
0.302304,0.000315973,-1.12221,0.000126175,2.21105,-0.000593607,0.630309,0.000646806,0.00214337,-0.0893433,0.000895955,-0.0408142,-0.00392367,0.130159,0.00430077,0.0649037,0.0246,0.588236,-0.0353227,0,0.0023662,0,0,0,0.0649206,-0.0246,0.588234,-0.0353244,4.17709e-07,0.00236228,-4.13761e-07,-1.22121e-08,1.04523e-06
0.303304,0.000318125,-1.1223,0.000127075,2.21101,-0.000597544,0.630439,0.000651122,0.00215123,-0.0896046,0.000899768,-0.0410074,-0.0039367,0.130614,0.00431538,0.0648683,0.0246,0.588238,-0.0354385,0,0.00238974,0,0,0,0.0648852,-0.0246,0.588237,-0.0354402,4.20539e-07,0.00238579,-4.16756e-07,-1.23019e-08,1.05233e-06
0.304304,0.000320284,-1.12239,0.000127979,2.21096,-0.000601494,0.63057,0.000655453,0.0021591,-0.0898655,0.000903589,-0.0412012,-0.00394973,0.131068,0.00433,0.0648328,0.0246,0.58824,-0.0355542,0,0.00241343,0,0,0,0.0648498,-0.0246,0.588239,-0.035556,4.23378e-07,0.00240946,-4.19765e-07,-1.2392e-08,1.05945e-06
0.305304,0.000322451,-1.12248,0.000128886,2.21092,-0.000605458,0.630702,0.000659798,0.00216697,-0.090126,0.000907417,-0.0413955,-0.00396276,0.131523,0.00434462,0.0647972,0.0246,0.588243,-0.03567,0,0.00243728,0,0,0,0.0648142,-0.0246,0.588241,-0.0356717,4.26228e-07,0.00243328,-4.22787e-07,-1.24825e-08,1.0666e-06
0.306305,0.000324626,-1.12257,0.000129798,2.21088,-0.000609434,0.630834,0.000664157,0.00217485,-0.0903862,0.000911255,-0.0415904,-0.00397578,0.131978,0.00435924,0.0647614,0.0246,0.588245,-0.0357858,0,0.00246129,0,0,0,0.0647786,-0.0246,0.588244,-0.0357875,4.29087e-07,0.00245726,-4.25823e-07,-1.25735e-08,1.07378e-06
0.307305,0.000326809,-1.12266,0.000130713,2.21084,-0.000613423,0.630966,0.000668532,0.00218274,-0.090646,0.0009151,-0.0417859,-0.00398881,0.132434,0.00437387,0.0647256,0.0246,0.588248,-0.0359015,0,0.00248545,0,0,0,0.0647428,-0.0246,0.588246,-0.0359033,4.31956e-07,0.00248139,-4.28871e-07,-1.26649e-08,1.08097e-06
0.308305,0.000329,-1.12275,0.000131632,2.2108,-0.000617425,0.631099,0.000672921,0.00219063,-0.0909054,0.000918954,-0.0419819,-0.00400183,0.132889,0.00438849,0.0646896,0.0246,0.58825,-0.0360172,0,0.00250977,0,0,0,0.0647069,-0.0246,0.588249,-0.036019,4.34835e-07,0.00250569,-4.31932e-07,-1.27566e-08,1.0882e-06
0.309305,0.000331199,-1.12284,0.000132555,2.21076,-0.00062144,0.631232,0.000677324,0.00219854,-0.0911644,0.000922816,-0.0421786,-0.00401485,0.133345,0.00440312,0.0646536,0.0246,0.588253,-0.0361329,0,0.00253424,0,0,0,0.0646708,-0.0246,0.588251,-0.0361347,4.37724e-07,0.00253014,-4.35007e-07,-1.28488e-08,1.09545e-06
0.310305,0.000333406,-1.12293,0.000133482,2.21071,-0.000625469,0.631366,0.000681742,0.00220644,-0.091423,0.000926687,-0.0423758,-0.00402787,0.133801,0.00441775,0.0646174,0.0246,0.588255,-0.0362486,0,0.00255888,0,0,0,0.0646347,-0.0246,0.588254,-0.0362504,4.40622e-07,0.00255474,-4.38095e-07,-1.29414e-08,1.10272e-06
0.311305,0.00033562,-1.12302,0.000134412,2.21067,-0.00062951,0.631501,0.000686175,0.00221436,-0.0916813,0.000930566,-0.0425735,-0.00404089,0.134257,0.00443238,0.0645811,0.0246,0.588258,-0.0363642,0,0.00258367,0,0,0,0.0645984,-0.0246,0.588256,-0.036366,4.4353e-07,0.00257951,-4.41196e-07,-1.30344e-08,1.11002e-06
0.312305,0.000337843,-1.12311,0.000135347,2.21063,-0.000633565,0.631635,0.000690623,0.00222228,-0.0919392,0.000934453,-0.0427719,-0.00405391,0.134713,0.00444702,0.0645446,0.0246,0.58826,-0.0364799,0,0.00260863,0,0,0,0.0645621,-0.0246,0.588259,-0.0364817,4.46493e-07,0.00260444,-4.44356e-07,-1.31291e-08,1.11745e-06
0.313363,0.000340203,-1.12321,0.00013634,2.21058,-0.000637868,0.631778,0.000695344,0.00223063,-0.0922121,0.000938524,-0.0429817,-0.00406768,0.135196,0.00446248,0.064506,0.0246,0.588263,-0.0366022,0,0.0026352,0,0,0,0.0645256,-0.0246,0.588262,-0.0366041,4.75524e-07,0.00263074,-4.73488e-07,-1.39912e-08,1.19013e-06
0.314363,0.000342442,-1.1233,0.000137283,2.21054,-0.00064195,0.631914,0.000699822,0.00223861,-0.0924686,0.00094248,-0.0431819,-0.00408069,0.135653,0.00447713,0.0644693,0.0246,0.588266,-0.0367178,0,0.00266048,0,0,0,0.0644869,-0.0246,0.588264,-0.0367197,4.52575e-07,0.00265624,-4.50853e-07,-1.33241e-08,1.13271e-06
0.315882,0.000345859,-1.12344,0.000138722,2.21047,-0.000648176,0.632121,0.000706654,0.00225029,-0.0928638,0.000947964,-0.04348,-0.00410051,0.136346,0.00449923,0.0644134,0.0246,0.58827,-0.0368933,0,0.00269917,0,0,0,0.0644501,-0.0246,0.588267,-0.0368961,6.93746e-07,0.00269267,-6.91623e-07,-2.0439e-08,1.73641e-06
0.316995,0.000348374,-1.12355,0.000139783,2.21042,-0.000652757,0.632273,0.000711681,0.00225945,-0.0931444,0.000952696,-0.0437085,-0.00411495,0.136855,0.00451563,0.0643723,0.0246,0.588273,-0.0370219,0,0.00272778,0,0,0,0.0643941,-0.0246,0.588271,-0.037024,5.12353e-07,0.00272298,-5.11055e-07,-1.51068e-08,1.28239e-06
0.317995,0.000350642,-1.12364,0.00014074,2.21038,-0.000656886,0.632411,0.000716212,0.0022675,-0.0933988,0.000956733,-0.0439114,-0.00412794,0.137312,0.0045303,0.0643352,0.0246,0.588276,-0.0371374,0,0.00275365,0,0,0,0.0643529,-0.0246,0.588274,-0.0371393,4.63236e-07,0.00274931,-4.62285e-07,-1.36672e-08,1.15947e-06
0.318995,0.000352918,-1.12374,0.0001417,2.21034,-0.000661027,0.632549,0.000720757,0.00227547,-0.093654,0.000960677,-0.0441137,-0.00414095,0.13777,0.00454494,0.064298,0.0246,0.588278,-0.0372529,0,0.00277968,0,0,0,0.0643158,-0.0246,0.588277,-0.0372549,4.6622e-07,0.00277531,-4.6549e-07,-1.37634e-08,1.16695e-06
0.319995,0.000355201,-1.12383,0.000142665,2.21029,-0.000665181,0.632687,0.000725317,0.00228344,-0.0939089,0.00096463,-0.0443165,-0.00415395,0.138227,0.00455959,0.0642607,0.0246,0.588281,-0.0373684,0,0.00280587,0,0,0,0.0642785,-0.0246,0.58828,-0.0373704,4.69213e-07,0.00280147,-4.68707e-07,-1.38601e-08,1.17446e-06
0.320995,0.000357493,-1.12392,0.000143634,2.21025,-0.000669349,0.632825,0.000729892,0.00229143,-0.0941633,0.000968592,-0.0445199,-0.00416696,0.138685,0.00457423,0.0642232,0.0246,0.588284,-0.0374839,0,0.00283223,0,0,0,0.0642411,-0.0246,0.588282,-0.0374858,4.72215e-07,0.0028278,-4.71938e-07,-1.39571e-08,1.182e-06
0.321996,0.000359793,-1.12402,0.000144606,2.2102,-0.000673529,0.632965,0.000734481,0.00229942,-0.0944173,0.000972562,-0.0447239,-0.00417996,0.139143,0.00458888,0.0641857,0.0246,0.588287,-0.0375993,0,0.00285875,0,0,0,0.0642036,-0.0246,0.588285,-0.0376013,4.75228e-07,0.0028543,-4.75183e-07,-1.40546e-08,1.18956e-06
