Kcygt/SemiCircleKinovaTest_Cpp/x64/Debug/data.csv
t,q1,q2,q3,q4,q5,q6,q7,qp1,qp2,qp3,qp4,qp5,qp6,qp7,xd,yd,zd,vxd,vyd,vzd,wxd,wyd,wzd,x,y,z,vx,vy,vz,wx,wy,wz
5.33e-05,1.89887e-11,-1.10828,7.21015e-12,2.21657,-3.66267e-11,0.610865,3.96668e-11,3.56262e-07,-1.65943e-05,1.35275e-07,-5.62844e-06,-6.87181e-07,2.22227e-05,7.44218e-07,0,0,0,-6.24179e-06,0,1.29785e-14,0,0,0,0.0702507,-0.0246,0.588057,0,0,0,0,0,0
0.0027407,4.92497e-08,-1.10829,1.87004e-08,2.21657,-9.4996e-08,0.610868,1.02881e-07,1.83191e-05,-0.000853279,6.95587e-06,-0.000289422,-3.5335e-05,0.0011427,3.82679e-05,0,0,0,-0.000320954,0,1.76452e-09,0,0,0,0.0702499,-0.0246,0.588057,0,0,0,0,0,0
0.0042954,9.38869e-08,-1.10829,3.56497e-08,2.21657,-1.81094e-07,0.610871,1.96126e-07,2.87111e-05,-0.0013373,1.0902e-05,-0.000453616,-5.53794e-05,0.00179092,5.99761e-05,0,0,0,-0.00050302,0,6.79288e-09,0,0,0,0.0702491,-0.0246,0.588057,0,0,0,0,0,0
0.0057489,1.4974e-07,-1.10829,5.68583e-08,2.21657,-2.88826e-07,0.610875,3.128e-07,3.84269e-05,-0.00178982,1.45914e-05,-0.00060714,-7.41191e-05,0.00239696,8.02715e-05,0,0,0,-0.000673235,0,1.62854e-08,0,0,0,0.0702481,-0.0246,0.588057,0,0,0,0,0,0
0.0070372,2.1034e-07,-1.10829,7.98697e-08,2.21656,-4.05713e-07,0.610878,4.39389e-07,4.70387e-05,-0.00219089,1.78618e-05,-0.000743235,-9.0729e-05,0.00293412,9.82603e-05,0,0,0,-0.000824103,0,2.98705e-08,0,0,0,0.0702471,-0.0246,0.588057,0,0,0,0,0,0
0.0083245,2.81971e-07,-1.1083,1.0707e-07,2.21656,-5.43874e-07,0.610883,5.89019e-07,5.56441e-05,-0.00259163,2.113e-05,-0.000879247,-0.000107326,0.00347088,0.000116235,0,0,0,-0.000974854,0,4.94445e-08,0,0,0,0.0702458,-0.0246,0.588057,0,0,0,0,0,0
0.0096503,3.67495e-07,-1.1083,1.39547e-07,2.21656,-7.08829e-07,0.610888,7.67669e-07,6.45073e-05,-0.00300436,2.44962e-05,-0.00101935,-0.00012442,0.00402371,0.000134748,0,0,0,-0.00113011,0,7.7031e-08,0,0,0,0.0702443,-0.0246,0.588057,0,0,0,0,0,0
0.0109334,4.61271e-07,-1.10831,1.75159e-07,2.21656,-8.89699e-07,0.610894,9.63554e-07,7.30855e-05,-0.00340377,2.77545e-05,-0.00115498,-0.000140963,0.00455875,0.000152666,0,0,0,-0.00128037,0,1.12023e-07,0,0,0,0.0702427,-0.0246,0.588057,0,0,0,0,0,0
0.0122078,5.65269e-07,-1.10831,2.14654e-07,2.21656,-1.09028e-06,0.6109,1.18079e-06,8.1606e-05,-0.00380046,3.09912e-05,-0.00128972,-0.000157394,0.00509018,0.000170462,0,0,0,-0.00142961,0,1.55939e-07,0,0,0,0.0702408,-0.0246,0.588057,0,0,0,0,0,0
0.0133224,6.64534e-07,-1.10832,2.52353e-07,2.21656,-1.28173e-06,0.610907,1.38814e-06,8.90587e-05,-0.00414738,3.38227e-05,-0.0014076,-0.000171765,0.00555499,0.000186027,0,0,0,-0.00156014,0,2.02671e-07,0,0,0,0.0702391,-0.0246,0.588057,0,0,0,0,0,0
0.0147724,8.07727e-07,-1.10832,3.06737e-07,2.21656,-1.5579e-06,0.610916,1.68724e-06,9.87539e-05,-0.00459869,3.75061e-05,-0.00156099,-0.000190461,0.00615968,0.000206276,0,0,0,-0.00172995,0,2.7631e-07,0,0,0,0.0702366,-0.0246,0.588057,0,0,0,0,0,0
0.0161225,9.53245e-07,-1.10833,3.62006e-07,2.21655,-1.83855e-06,0.610925,1.99118e-06,0.000107783,-0.00501888,4.09371e-05,-0.00170388,-0.000207869,0.00672275,0.00022513,0,0,0,-0.00188805,0,3.59203e-07,0,0,0,0.070234,-0.0246,0.588057,0,0,0,0,0,0
0.0174843,1.11243e-06,-1.10834,4.22468e-07,2.21655,-2.14553e-06,0.610935,2.32367e-06,0.00011689,-0.00544267,4.43985e-05,-0.00184805,-0.000225428,0.00729073,0.000244149,0,0,0,-0.00204753,0,4.58129e-07,0,0,0,0.0702313,-0.0246,0.588057,0,0,0,0,0,0
0.0187984,1.27758e-06,-1.10834,4.85203e-07,2.21655,-2.46404e-06,0.610945,2.66862e-06,0.00012568,-0.0058516,4.77396e-05,-0.00198725,-0.000242373,0.00783884,0.000262502,0,0,0,-0.00220142,0,5.69385e-07,0,0,0,0.0702284,-0.0246,0.588057,0,0,0,0,0,0
0.0201249,1.45607e-06,-1.10835,5.53004e-07,2.21655,-2.80823e-06,0.610956,3.0414e-06,0.000134553,-0.00626435,5.1113e-05,-0.00212781,-0.000259477,0.00839216,0.000281029,0,0,0,-0.00235676,0,6.98626e-07,0,0,0,0.0702252,-0.0246,0.588057,0,0,0,0,0,0
0.0213804,1.63554e-06,-1.10836,6.21187e-07,2.21654,-3.15433e-06,0.610967,3.41625e-06,0.000142952,-0.00665497,5.43071e-05,-0.00226092,-0.000275667,0.00891589,0.000298565,0,0,0,-0.00250379,0,8.37704e-07,0,0,0,0.0702221,-0.0246,0.588057,0,0,0,0,0,0
0.0225046,1.80471e-06,-1.10837,6.85455e-07,2.21654,-3.48053e-06,0.610978,3.76955e-06,0.000150475,-0.00700472,5.71682e-05,-0.00238017,-0.000290163,0.00938489,0.000314268,0,0,0,-0.00263544,0,9.76916e-07,0,0,0,0.0702191,-0.0246,0.588057,0,0,0,0,0,0
0.0235048,1.96191e-06,-1.10838,7.45182e-07,2.21654,-3.78366e-06,0.610988,4.09786e-06,0.000157168,-0.00731586,5.97146e-05,-0.00248632,-0.000303061,0.00980217,0.00032824,0,0,0,-0.00275257,0,1.11305e-06,0,0,0,0.0702164,-0.0246,0.588057,0,0,0,0,0,0
0.0245049,2.12578e-06,-1.10838,8.07449e-07,2.21653,-4.09965e-06,0.610998,4.4401e-06,0.00016386,-0.00762695,6.22608e-05,-0.00259249,-0.000315958,0.0102194,0.00034221,0,0,0,-0.00286969,0,1.26125e-06,0,0,0,0.0702135,-0.0246,0.588057,0,0,0,0,0,0
0.025505,2.29635e-06,-1.10839,8.72263e-07,2.21653,-4.42853e-06,0.611008,4.79632e-06,0.000170554,-0.00793802,6.48076e-05,-0.00269871,-0.000328855,0.0106367,0.000356181,0,0,0,-0.00298681,0,1.42206e-06,0,0,0,0.0702105,-0.0246,0.588057,0,0,0,0,0,0
0.0265051,2.47362e-06,-1.1084,9.39625e-07,2.21653,-4.77032e-06,0.61102,5.16651e-06,0.000177248,-0.00824907,6.73552e-05,-0.00280498,-0.000341752,0.0110541,0.000370153,0,0,0,-0.00310392,0,1.596e-06,0,0,0,0.0702074,-0.0246,0.588057,0,0,0,0,0,0
0.0275054,2.65762e-06,-1.10841,1.00955e-06,2.21653,-5.12508e-06,0.611031,5.55075e-06,0.000183944,-0.00856015,6.99041e-05,-0.00291132,-0.000354652,0.0114715,0.000384128,0,0,0,-0.00322107,0,1.7836e-06,0,0,0,0.0702042,-0.0246,0.588057,0,0,0,0,0,0
0.0285872,2.86444e-06,-1.10842,1.08815e-06,2.21652,-5.52383e-06,0.611044,5.98265e-06,0.000191186,-0.00889656,7.26609e-05,-0.00302638,-0.000368604,0.0119229,0.000399242,0,0,0,-0.00334775,0,2.00243e-06,0,0,0,0.0702006,-0.0246,0.588057,0,0,0,0,0,0
0.0295873,3.06235e-06,-1.10843,1.16337e-06,2.21652,-5.90537e-06,0.611056,6.39591e-06,0.000197883,-0.00920752,7.52114e-05,-0.00313283,-0.000381502,0.0123403,0.000413215,0,0,0,-0.00346487,0,2.22003e-06,0,0,0,0.0701971,-0.0246,0.588057,0,0,0,0,0,0
0.0305875,3.26697e-06,-1.10844,1.24115e-06,2.21652,-6.29985e-06,0.611069,6.82319e-06,0.000204581,-0.00951849,7.77624e-05,-0.00323933,-0.000394402,0.0127578,0.000427191,0,0,0,-0.003582,0,2.45287e-06,0,0,0,0.0701935,-0.0246,0.588057,0,0,0,0,0,0
0.0315877,3.47829e-06,-1.10845,1.32148e-06,2.21651,-6.70724e-06,0.611082,7.26444e-06,0.00021128,-0.00982943,8.03143e-05,-0.0033459,-0.000407302,0.0131753,0.000441167,0,0,0,-0.00369913,0,2.70145e-06,0,0,0,0.0701898,-0.0246,0.588057,0,0,0,0,0,0
0.0325878,3.69629e-06,-1.10846,1.40436e-06,2.21651,-7.12748e-06,0.611096,7.71963e-06,0.000217979,-0.0101403,8.28668e-05,-0.00345251,-0.0004202,0.0135928,0.000455142,0,0,0,-0.00381625,0,2.96625e-06,0,0,0,0.070186,-0.0246,0.588057,0,0,0,0,0,0
0.0335879,3.92099e-06,-1.10847,1.48979e-06,2.21651,-7.56062e-06,0.61111,8.18879e-06,0.000224679,-0.0104512,8.54203e-05,-0.00355919,-0.0004331,0.0140103,0.000469118,0,0,0,-0.00393337,0,3.24782e-06,0,0,0,0.0701821,-0.0246,0.588057,0,0,0,0,0,0
0.034588,4.1524e-06,-1.10848,1.57777e-06,2.2165,-8.00667e-06,0.611124,8.67194e-06,0.00023138,-0.010762,8.79746e-05,-0.00366594,-0.000445999,0.0144279,0.000483095,0,0,0,-0.00405048,0,3.54666e-06,0,0,0,0.070178,-0.0246,0.588057,0,0,0,0,0,0
0.0356783,4.41263e-06,-1.10849,1.67672e-06,2.2165,-8.50827e-06,0.61114,9.21527e-06,0.000238685,-0.0111008,9.07595e-05,-0.00378237,-0.000460063,0.0148832,0.000498333,0,0,0,-0.00417816,0,3.89274e-06,0,0,0,0.0701735,-0.0246,0.588057,0,0,0,0,0,0
0.036686,4.65996e-06,-1.1085,1.77078e-06,2.21649,-8.98498e-06,0.611156,9.73163e-06,0.00024544,-0.0114139,9.33362e-05,-0.00389009,-0.000473061,0.015304,0.000512418,0,0,0,-0.00429617,0,4.23199e-06,0,0,0,0.0701691,-0.0246,0.588057,0,0,0,0,0,0
0.0376862,4.91216e-06,-1.10851,1.86669e-06,2.21649,-9.47104e-06,0.611172,1.02581e-05,0.000252145,-0.0117246,9.5894e-05,-0.00399706,-0.000485963,0.0157217,0.000526398,0,0,0,-0.0044133,0,4.58765e-06,0,0,0,0.0701647,-0.0246,0.588057,0,0,0,0,0,0
0.0386863,5.17103e-06,-1.10852,1.96515e-06,2.21649,-9.96995e-06,0.611188,1.07986e-05,0.00025885,-0.0120353,9.84525e-05,-0.0041041,-0.000498864,0.0161394,0.000540378,0,0,0,-0.00453042,0,4.96266e-06,0,0,0,0.0701602,-0.0246,0.588057,0,0,0,0,0,0
0.0396864,5.43662e-06,-1.10854,2.06618e-06,2.21648,-1.04818e-05,0.611204,1.1353e-05,0.000265556,-0.0123459,0.000101012,-0.00421121,-0.000511765,0.0165571,0.000554359,0,0,0,-0.00464754,0,5.35758e-06,0,0,0,0.0701555,-0.0246,0.588057,0,0,0,0,0,0
0.0406865,5.70891e-06,-1.10855,2.16976e-06,2.21648,-1.10065e-05,0.611221,1.19214e-05,0.000272263,-0.0126565,0.000103573,-0.0043184,-0.000524667,0.0169749,0.000568341,0,0,0,-0.00476466,0,5.7729e-06,0,0,0,0.0701508,-0.0246,0.588057,0,0,0,0,0,0
0.0416867,5.98793e-06,-1.10856,2.27592e-06,2.21647,-1.15442e-05,0.611239,1.25038e-05,0.000278972,-0.0129671,0.000106135,-0.00442567,-0.000537571,0.0173928,0.000582325,0,0,0,-0.00488179,0,6.2092e-06,0,0,0,0.0701459,-0.0246,0.588057,0,0,0,0,0,0
0.0426868,6.27364e-06,-1.10858,2.38462e-06,2.21647,-1.20947e-05,0.611256,1.31002e-05,0.000285681,-0.0132776,0.000108698,-0.00453302,-0.000550473,0.0178107,0.000596308,0,0,0,-0.0049989,0,6.6669e-06,0,0,0,0.0701409,-0.0246,0.588057,0,0,0,0,0,0
0.0436869,6.56606e-06,-1.10859,2.4959e-06,2.21646,-1.26581e-05,0.611275,1.37105e-05,0.000292392,-0.0135881,0.000111262,-0.00464046,-0.000563376,0.0182286,0.000610292,0,0,0,-0.00511602,0,7.14656e-06,0,0,0,0.0701358,-0.0246,0.588057,0,0,0,0,0,0
0.0451661,7.01324e-06,-1.10861,2.66608e-06,2.21646,-1.35197e-05,0.611303,1.46439e-05,0.000302312,-0.0140473,0.000115048,-0.0047994,-0.000582461,0.0188468,0.000630974,0,0,0,-0.00528925,0,7.89734e-06,0,0,0,0.070128,-0.0246,0.588057,0,0,0,0,0,0
0.0463161,7.36979e-06,-1.10863,2.80178e-06,2.21645,-1.42066e-05,0.611325,1.5388e-05,0.000310037,-0.0144042,0.000118006,-0.00492327,-0.000597299,0.0193275,0.00064706,0,0,0,-0.00542392,0,8.51607e-06,0,0,0,0.0701217,-0.0246,0.588057,0,0,0,0,0,0
0.0475852,7.77407e-06,-1.10865,2.95568e-06,2.21644,-1.49854e-05,0.61135,1.62317e-05,0.000318557,-0.014798,0.000121264,-0.00505998,-0.000613675,0.019858,0.000664809,0,0,0,-0.00557254,0,9.23546e-06,0,0,0,0.0701147,-0.0246,0.588057,0,0,0,0,0,0
0.0485854,8.09941e-06,-1.10866,3.07954e-06,2.21644,-1.56121e-05,0.61137,1.69106e-05,0.000325279,-0.0151082,0.00012384,-0.00516794,-0.000626581,0.0202762,0.000678802,0,0,0,-0.00568967,0,9.83016e-06,0,0,0,0.070109,-0.0246,0.588057,0,0,0,0,0,0
0.0495855,8.43144e-06,-1.10868,3.20597e-06,2.21643,-1.62517e-05,0.611391,1.76035e-05,0.000331997,-0.0154184,0.000126412,-0.0052759,-0.000639487,0.0206944,0.000692792,0,0,0,-0.00580678,0,1.04498e-05,0,0,0,0.0701032,-0.0246,0.588057,0,0,0,0,0,0
0.0505856,8.77019e-06,-1.10869,3.33497e-06,2.21643,-1.69041e-05,0.611412,1.83104e-05,0.000338717,-0.0157286,0.000128985,-0.00538397,-0.000652393,0.0211126,0.000706784,0,0,0,-0.0059239,0,1.10949e-05,0,0,0,0.0700972,-0.0246,0.588057,0,0,0,0,0,0
0.0515858,9.1157e-06,-1.10871,3.46655e-06,2.21642,-1.75696e-05,0.611434,1.90313e-05,0.000345439,-0.0160388,0.00013156,-0.00549214,-0.0006653,0.0215309,0.000720777,0,0,0,-0.00604103,0,1.17661e-05,0,0,0,0.0700912,-0.0246,0.588057,0,0,0,0,0,0
0.052586,9.46793e-06,-1.10872,3.60072e-06,2.21642,-1.82479e-05,0.611456,1.97662e-05,0.000352162,-0.0163489,0.000134136,-0.00560041,-0.000678208,0.0219493,0.000734772,0,0,0,-0.00615816,0,1.24639e-05,0,0,0,0.070085,-0.0246,0.588057,0,0,0,0,0,0
0.0535861,9.82685e-06,-1.10874,3.73744e-06,2.21641,-1.89391e-05,0.611478,2.0515e-05,0.000358886,-0.0166589,0.000136714,-0.00570878,-0.000691116,0.0223677,0.000748767,0,0,0,-0.00627528,0,1.31886e-05,0,0,0,0.0700788,-0.0246,0.588057,0,0,0,0,0,0
0.0545862,1.01925e-05,-1.10876,3.87675e-06,2.21641,-1.96432e-05,0.611501,2.12779e-05,0.000365611,-0.0169689,0.000139293,-0.00581725,-0.000704024,0.0227861,0.000762762,0,0,0,-0.00639239,0,1.39409e-05,0,0,0,0.0700724,-0.0246,0.588057,0,0,0,0,0,0
0.0555863,1.05649e-05,-1.10878,4.01864e-06,2.2164,-2.03602e-05,0.611524,2.20547e-05,0.000372338,-0.0172788,0.000141873,-0.00592582,-0.000716932,0.0232046,0.000776759,0,0,0,-0.00650951,0,1.47213e-05,0,0,0,0.0700658,-0.0246,0.588057,0,0,0,0,0,0
0.0565865,1.0944e-05,-1.10879,4.16312e-06,2.21639,-2.10902e-05,0.611548,2.28456e-05,0.000379067,-0.0175887,0.000144455,-0.00603452,-0.000729843,0.0236232,0.000790759,0,0,0,-0.00662664,0,1.55304e-05,0,0,0,0.0700592,-0.0246,0.588057,0,0,0,0,0,0
0.0575866,1.13299e-05,-1.10881,4.31018e-06,2.21639,-2.1833e-05,0.611572,2.36505e-05,0.000385797,-0.0178985,0.000147039,-0.00614332,-0.000742752,0.0240418,0.000804758,0,0,0,-0.00674375,0,1.63684e-05,0,0,0,0.0700525,-0.0246,0.588057,0,0,0,0,0,0
0.0585867,1.17224e-05,-1.10883,4.45981e-06,2.21638,-2.25887e-05,0.611596,2.44693e-05,0.000392529,-0.0182082,0.000149624,-0.00625222,-0.000755662,0.0244605,0.000818759,0,0,0,-0.00686087,0,1.72361e-05,0,0,0,0.0700456,-0.0246,0.588057,0,0,0,0,0,0
0.0599252,1.22599e-05,-1.10885,4.66471e-06,2.21637,-2.36233e-05,0.61163,2.55903e-05,0.000401532,-0.0186228,0.000153077,-0.00639802,-0.000772941,0.0250209,0.000837494,0,0,0,-0.00701762,0,1.84447e-05,0,0,0,0.0700362,-0.0246,0.588057,0,0,0,0,0,0
0.0609253,1.26682e-05,-1.10887,4.8204e-06,2.21637,-2.44093e-05,0.611655,2.64419e-05,0.000408277,-0.0189323,0.000155676,-0.00650734,-0.000785852,0.0254397,0.000851502,0,0,0,-0.00713473,0,1.93837e-05,0,0,0,0.0700291,-0.0246,0.588057,0,0,0,0,0,0
0.0619255,1.30833e-05,-1.10889,4.9787e-06,2.21636,-2.52082e-05,0.611681,2.73076e-05,0.000415015,-0.0192419,0.000158268,-0.00661665,-0.000798766,0.0258586,0.000865508,0,0,0,-0.00725186,0,2.03541e-05,0,0,0,0.0700218,-0.0246,0.588057,0,0,0,0,0,0
0.0629257,1.35051e-05,-1.10891,5.13959e-06,2.21635,-2.602e-05,0.611707,2.81873e-05,0.000421754,-0.0195515,0.000160861,-0.00672608,-0.000811679,0.0262776,0.000879515,0,0,0,-0.00736899,0,2.13563e-05,0,0,0,0.0700145,-0.0246,0.588057,0,0,0,0,0,0
0.0639258,1.39337e-05,-1.10893,5.30306e-06,2.21635,-2.68447e-05,0.611734,2.90809e-05,0.000428495,-0.0198609,0.000163455,-0.00683563,-0.000824592,0.0266965,0.000893523,0,0,0,-0.0074861,0,2.23909e-05,0,0,0,0.070007,-0.0246,0.588057,0,0,0,0,0,0
0.064926,1.4369e-05,-1.10895,5.46915e-06,2.21634,-2.76824e-05,0.611761,2.99886e-05,0.000435238,-0.0201703,0.000166051,-0.00694531,-0.000837507,0.0271156,0.000907533,0,0,0,-0.00760323,0,2.34584e-05,0,0,0,0.0699994,-0.0246,0.588057,0,0,0,0,0,0
0.0659261,1.4811e-05,-1.10897,5.63781e-06,2.21633,-2.85329e-05,0.611789,3.09102e-05,0.000441982,-0.0204796,0.000168649,-0.0070551,-0.000850421,0.0275347,0.000921543,0,0,0,-0.00772035,0,2.45592e-05,0,0,0,0.0699916,-0.0246,0.588057,0,0,0,0,0,0
0.0669263,1.52598e-05,-1.10899,5.8091e-06,2.21633,-2.93964e-05,0.611816,3.1846e-05,0.000448729,-0.0207889,0.00017125,-0.00716504,-0.000863337,0.027954,0.000935556,0,0,0,-0.00783747,0,2.56941e-05,0,0,0,0.0699838,-0.0246,0.588057,0,0,0,0,0,0
0.0679264,1.57154e-05,-1.10901,5.98297e-06,2.21632,-3.02727e-05,0.611845,3.27956e-05,0.000455477,-0.0210981,0.000173851,-0.00727509,-0.000876253,0.0283732,0.000949569,0,0,0,-0.00795459,0,2.68632e-05,0,0,0,0.0699759,-0.0246,0.588057,0,0,0,0,0,0
0.0689265,1.61776e-05,-1.10904,6.15944e-06,2.21631,-3.1162e-05,0.611874,3.37593e-05,0.000462227,-0.0214072,0.000176455,-0.00738528,-0.000889169,0.0287925,0.000963583,0,0,0,-0.0080717,0,2.80673e-05,0,0,0,0.0699678,-0.0246,0.588057,0,0,0,0,0,0
0.0699267,1.66467e-05,-1.10906,6.33854e-06,2.2163,-3.20642e-05,0.611903,3.47371e-05,0.000468979,-0.0217163,0.000179061,-0.00749561,-0.000902087,0.0292119,0.0009776,0,0,0,-0.00818883,0,2.9307e-05,0,0,0,0.0699596,-0.0246,0.588057,0,0,0,0,0,0
0.0709268,1.71225e-05,-1.10908,6.52022e-06,2.2163,-3.29793e-05,0.611933,3.57288e-05,0.000475733,-0.0220253,0.000181668,-0.00760607,-0.000915004,0.0296314,0.000991618,0,0,0,-0.00830594,0,3.05825e-05,0,0,0,0.0699513,-0.0246,0.588057,0,0,0,0,0,0
0.0719269,1.7605e-05,-1.1091,6.70452e-06,2.21629,-3.39074e-05,0.611963,3.67346e-05,0.000482489,-0.0223342,0.000184278,-0.00771667,-0.000927922,0.0300509,0.00100564,0,0,0,-0.00842306,0,3.18945e-05,0,0,0,0.0699429,-0.0246,0.588057,0,0,0,0,0,0
0.072927,1.80943e-05,-1.10912,6.89143e-06,2.21628,-3.48483e-05,0.611993,3.77543e-05,0.000489247,-0.0226431,0.000186889,-0.0078274,-0.00094084,0.0304705,0.00101966,0,0,0,-0.00854017,0,3.32435e-05,0,0,0,0.0699343,-0.0246,0.588057,0,0,0,0,0,0
0.0739274,1.85905e-05,-1.10915,7.08101e-06,2.21627,-3.58024e-05,0.612024,3.87884e-05,0.000496008,-0.0229519,0.000189504,-0.00793832,-0.000953764,0.0308903,0.00103368,0,0,0,-0.00865732,0,3.46305e-05,0,0,0,0.0699257,-0.0246,0.588057,0,0,0,0,0,0
0.0753105,1.92895e-05,-1.10918,7.34809e-06,2.21626,-3.71463e-05,0.612067,4.02449e-05,0.000505344,-0.0233791,0.000193103,-0.00809164,-0.000971631,0.0314707,0.00105307,0,0,0,-0.00881929,0,3.66107e-05,0,0,0,0.0699135,-0.0246,0.588057,0,0,0,0,0,0
0.0765696,1.99365e-05,-1.10921,7.59538e-06,2.21625,-3.83902e-05,0.612108,4.15931e-05,0.000513866,-0.0237675,0.000196406,-0.00823178,-0.000987898,0.0319993,0.00107073,0,0,0,-0.00896673,0,3.84779e-05,0,0,0,0.0699022,-0.0246,0.588057,0,0,0,0,0,0
0.0775698,2.04572e-05,-1.10923,7.79446e-06,2.21624,-3.93912e-05,0.61214,4.2678e-05,0.000520645,-0.0240759,0.000199041,-0.00834339,-0.00100082,0.0324193,0.00108476,0,0,0,-0.00908385,0,4.00055e-05,0,0,0,0.0698931,-0.0246,0.588058,0,0,0,0,0,0
0.0785699,2.09847e-05,-1.10926,7.99615e-06,2.21623,-4.0405e-05,0.612173,4.3777e-05,0.000527415,-0.0243843,0.000201664,-0.00845496,-0.00101374,0.0328393,0.00109879,0,0,0,-0.00920097,0,4.15729e-05,0,0,0,0.0698839,-0.0246,0.588058,0,0,0,0,0,0
0.07957,2.15189e-05,-1.10928,8.20046e-06,2.21623,-4.14318e-05,0.612206,4.48899e-05,0.000534187,-0.0246927,0.00020429,-0.00856668,-0.00102667,0.0332594,0.00111282,0,0,0,-0.00931808,0,4.31807e-05,0,0,0,0.0698746,-0.0246,0.588058,0,0,0,0,0,0
0.0805702,2.206e-05,-1.10931,8.40741e-06,2.21622,-4.24716e-05,0.61224,4.6017e-05,0.000540961,-0.025001,0.000206918,-0.00867856,-0.00103959,0.0336796,0.00112686,0,0,0,-0.0094352,0,4.48296e-05,0,0,0,0.0698651,-0.0246,0.588058,0,0,0,0,0,0
0.0815704,2.26078e-05,-1.10933,8.61701e-06,2.21621,-4.35243e-05,0.612274,4.71581e-05,0.000547738,-0.0253093,0.000209548,-0.00879061,-0.00105252,0.0340999,0.00114089,0,0,0,-0.00955232,0,4.652e-05,0,0,0,0.0698556,-0.0246,0.588058,0,0,0,0,0,0
0.0825705,2.31624e-05,-1.10936,8.82921e-06,2.2162,-4.45899e-05,0.612309,4.83131e-05,0.000554516,-0.0256174,0.000212181,-0.0089028,-0.00106544,0.0345202,0.00115493,0,0,0,-0.00966944,0,4.82521e-05,0,0,0,0.0698459,-0.0246,0.588058,0,0,0,0,0,0
0.0835706,2.37238e-05,-1.10938,9.04404e-06,2.21619,-4.56684e-05,0.612344,4.94822e-05,0.000561297,-0.0259254,0.000214816,-0.00901516,-0.00107837,0.0349406,0.00116897,0,0,0,-0.00978655,0,5.00267e-05,0,0,0,0.0698361,-0.0246,0.588058,0,0,0,0,0,0
0.0845707,2.42919e-05,-1.10941,9.26152e-06,2.21618,-4.67598e-05,0.612379,5.06653e-05,0.00056808,-0.0262334,0.000217453,-0.00912767,-0.0010913,0.0353611,0.00118301,0,0,0,-0.00990366,0,5.18443e-05,0,0,0,0.0698262,-0.0246,0.588058,0,0,0,0,0,0
0.0855708,2.48668e-05,-1.10944,9.48163e-06,2.21617,-4.78641e-05,0.612415,5.18625e-05,0.000574865,-0.0265413,0.000220092,-0.00924036,-0.00110422,0.0357817,0.00119705,0,0,0,-0.0100208,0,5.37054e-05,0,0,0,0.0698162,-0.0246,0.588058,0,0,0,0,0,0
0.086571,2.54486e-05,-1.10946,9.70441e-06,2.21616,-4.89815e-05,0.612451,5.30738e-05,0.000581654,-0.0268491,0.000222734,-0.00935322,-0.00111715,0.0362024,0.00121109,0,0,0,-0.0101379,0,5.56107e-05,0,0,0,0.069806,-0.0246,0.588058,0,0,0,0,0,0
0.0875711,2.60371e-05,-1.10949,9.92981e-06,2.21615,-5.01117e-05,0.612488,5.42991e-05,0.000588444,-0.0271568,0.000225379,-0.00946624,-0.00113008,0.0366231,0.00122514,0,0,0,-0.010255,0,5.75603e-05,0,0,0,0.0697958,-0.0246,0.588058,0,0,0,0,0,0
0.0885712,2.66324e-05,-1.10952,1.01579e-05,2.21614,-5.12548e-05,0.612525,5.55384e-05,0.000595236,-0.0274645,0.000228025,-0.00957943,-0.00114301,0.0370439,0.00123918,0,0,0,-0.0103721,0,5.9555e-05,0,0,0,0.0697854,-0.0246,0.588058,0,0,0,0,0,0
0.0896276,2.72688e-05,-1.10955,1.04017e-05,2.21613,-5.24767e-05,0.612564,5.68632e-05,0.000602411,-0.0277893,0.00023082,-0.00969912,-0.00115667,0.0374885,0.00125402,0,0,0,-0.0104958,0,6.17115e-05,0,0,0,0.0697743,-0.0246,0.588058,0,0,0,0,0,0
0.0906277,2.78781e-05,-1.10958,1.06352e-05,2.21612,-5.36464e-05,0.612602,5.81314e-05,0.000609212,-0.0280968,0.000233476,-0.00981272,-0.0011696,0.0379095,0.00126807,0,0,0,-0.0106129,0,6.38004e-05,0,0,0,0.0697637,-0.0246,0.588058,0,0,0,0,0,0
0.0916278,2.84941e-05,-1.1096,1.08714e-05,2.21611,-5.48291e-05,0.61264,5.94136e-05,0.000616012,-0.0284041,0.00023613,-0.00992645,-0.00118253,0.0383306,0.00128212,0,0,0,-0.01073,0,6.5936e-05,0,0,0,0.069753,-0.0246,0.588058,0,0,0,0,0,0
0.0926279,2.9117e-05,-1.10963,1.11102e-05,2.2161,-5.60246e-05,0.612679,6.07099e-05,0.000622814,-0.0287114,0.000238787,-0.0100403,-0.00119546,0.0387518,0.00129618,0,0,0,-0.0108471,0,6.81186e-05,0,0,0,0.0697421,-0.0246,0.588058,0,0,0,0,0,0
0.093628,2.97467e-05,-1.10966,1.13516e-05,2.21609,-5.72332e-05,0.612718,6.20203e-05,0.00062962,-0.0290186,0.000241447,-0.0101544,-0.0012084,0.039173,0.00131023,0,0,0,-0.0109642,0,7.03489e-05,0,0,0,0.0697312,-0.0246,0.588058,0,0,0,0,0,0
0.0946282,3.03833e-05,-1.10969,1.15958e-05,2.21608,-5.84547e-05,0.612758,6.33448e-05,0.000636428,-0.0293257,0.000244109,-0.0102687,-0.00122133,0.0395944,0.00132429,0,0,0,-0.0110814,0,7.26276e-05,0,0,0,0.0697201,-0.0246,0.588058,0,0,0,0,0,0
0.0956283,3.10266e-05,-1.10972,1.18426e-05,2.21607,-5.96891e-05,0.612798,6.46833e-05,0.000643238,-0.0296327,0.000246774,-0.0103832,-0.00123427,0.0400159,0.00133835,0,0,0,-0.0111985,0,7.49548e-05,0,0,0,0.0697089,-0.0246,0.588059,0,0,0,0,0,0
0.0966284,3.16767e-05,-1.10975,1.20921e-05,2.21606,-6.09365e-05,0.612838,6.60359e-05,0.000650052,-0.0299396,0.000249442,-0.0104978,-0.0012472,0.0404374,0.00135241,0,0,0,-0.0113156,0,7.73311e-05,0,0,0,0.0696976,-0.0246,0.588059,0,0,0,0,0,0
0.0976286,3.23337e-05,-1.10978,1.23442e-05,2.21605,-6.21969e-05,0.612879,6.74026e-05,0.000656868,-0.0302464,0.000252113,-0.0106126,-0.00126014,0.0408591,0.00136648,0,0,0,-0.0114327,0,7.97574e-05,0,0,0,0.0696861,-0.0246,0.588059,0,0,0,0,0,0
0.0986288,3.29975e-05,-1.10981,1.25991e-05,2.21604,-6.34702e-05,0.612921,6.87834e-05,0.000663687,-0.0305532,0.000254786,-0.0107277,-0.00127308,0.0412809,0.00138055,0,0,0,-0.0115498,0,8.22339e-05,0,0,0,0.0696746,-0.0246,0.588059,0,0,0,0,0,0
0.099629,3.36681e-05,-1.10984,1.28566e-05,2.21603,-6.47565e-05,0.612962,7.01783e-05,0.000670509,-0.0308598,0.000257462,-0.0108429,-0.00128602,0.0417027,0.00139461,0,0,0,-0.0116669,0,8.47611e-05,0,0,0,0.0696629,-0.0246,0.588059,0,0,0,0,0,0
0.100629,3.43456e-05,-1.10987,1.31168e-05,2.21602,-6.60557e-05,0.613004,7.15873e-05,0.000677333,-0.0311663,0.000260141,-0.0109583,-0.00129896,0.0421247,0.00140869,0,0,0,-0.011784,0,8.73396e-05,0,0,0,0.0696511,-0.0246,0.588059,0,0,0,0,0,0
0.101629,3.50299e-05,-1.10991,1.33796e-05,2.21601,-6.73678e-05,0.613047,7.30104e-05,0.000684161,-0.0314728,0.000262823,-0.0110739,-0.0013119,0.0425468,0.00142276,0,0,0,-0.0119011,0,8.99699e-05,0,0,0,0.0696392,-0.0246,0.588059,0,0,0,0,0,0
0.10263,3.5721e-05,-1.10994,1.36452e-05,2.216,-6.8693e-05,0.61309,7.44475e-05,0.000690991,-0.0317791,0.000265507,-0.0111897,-0.00132484,0.0429689,0.00143683,0,0,0,-0.0120183,0,9.26524e-05,0,0,0,0.0696272,-0.0246,0.588059,0,0,0,0,0,0
0.10363,3.64189e-05,-1.10997,1.39134e-05,2.21599,-7.00309e-05,0.613133,7.58985e-05,0.000697823,-0.0320854,0.000268194,-0.0113057,-0.00133779,0.0433911,0.00145091,0,0,0,-0.0121354,0,9.53875e-05,0,0,0,0.0696151,-0.0246,0.588059,0,0,0,0,0,0
0.10463,3.71236e-05,-1.11,1.41843e-05,2.21597,-7.13817e-05,0.613177,7.73637e-05,0.000704658,-0.0323915,0.000270885,-0.0114219,-0.00135073,0.0438134,0.00146499,0,0,0,-0.0122525,0,9.81759e-05,0,0,0,0.0696028,-0.0246,0.588059,0,0,0,0,0,0
0.10563,3.78352e-05,-1.11003,1.44579e-05,2.21596,-7.27456e-05,0.613221,7.88429e-05,0.000711496,-0.0326975,0.000273578,-0.0115383,-0.00136367,0.0442359,0.00147907,0,0,0,-0.0123696,0,0.000101018,0,0,0,0.0695904,-0.0246,0.588059,0,0,0,0,0,0
0.10663,3.85536e-05,-1.11007,1.47342e-05,2.21595,-7.41223e-05,0.613266,8.03362e-05,0.000718337,-0.0330034,0.000276274,-0.0116549,-0.00137662,0.0446584,0.00149315,0,0,0,-0.0124867,0,0.000103915,0,0,0,0.069578,-0.0246,0.58806,0,0,0,0,0,0
0.10763,3.9279e-05,-1.1101,1.50133e-05,2.21594,-7.55121e-05,0.613311,8.18437e-05,0.000725182,-0.0333092,0.000278973,-0.0117718,-0.00138956,0.045081,0.00150723,0,0,0,-0.0126038,0,0.000106866,0,0,0,0.0695653,-0.0246,0.58806,0,0,0,0,0,0
0.10863,4.00111e-05,-1.11013,1.5295e-05,2.21593,-7.69148e-05,0.613357,8.33652e-05,0.000732029,-0.0336149,0.000281675,-0.0118888,-0.00140251,0.0455038,0.00152132,0,0,0,-0.0127209,0,0.000109873,0,0,0,0.0695526,-0.0246,0.58806,0,0,0,0,0,0
0.109631,4.07501e-05,-1.11017,1.55794e-05,2.21592,-7.83305e-05,0.613403,8.49009e-05,0.000738879,-0.0339205,0.00028438,-0.012006,-0.00141546,0.0459266,0.00153541,0,0,0,-0.012838,0,0.000112936,0,0,0,0.0695398,-0.0246,0.58806,0,0,0,0,0,0
0.110631,4.1496e-05,-1.1102,1.58666e-05,2.2159,-7.97592e-05,0.613449,8.64507e-05,0.000745733,-0.034226,0.000287089,-0.0121235,-0.00142841,0.0463496,0.0015495,0,0,0,-0.0129551,0,0.000116055,0,0,0,0.0695268,-0.0246,0.58806,0,0,0,0,0,0
0.111822,4.23938e-05,-1.11024,1.62123e-05,2.21589,-8.14787e-05,0.613505,8.8316e-05,0.000753879,-0.0345899,0.000290297,-0.0122634,-0.00144382,0.0468533,0.00156628,0,0,0,-0.0130945,0,0.000119843,0,0,0,0.0695112,-0.0246,0.58806,0,0,0,0,0,0
0.112822,4.31547e-05,-1.11028,1.65054e-05,2.21588,-8.29357e-05,0.613552,8.98967e-05,0.000760757,-0.0348949,0.000293033,-0.0123816,-0.00145678,0.0472766,0.00158038,0,0,0,-0.0132116,0,0.000123088,0,0,0,0.069498,-0.0246,0.58806,0,0,0,0,0,0
0.113822,4.39225e-05,-1.11031,1.68012e-05,2.21586,-8.44059e-05,0.6136,9.14917e-05,0.000767621,-0.0352001,0.000295752,-0.0124997,-0.00146973,0.0476999,0.00159448,0,0,0,-0.0133287,0,0.000126391,0,0,0,0.0694847,-0.0246,0.58806,0,0,0,0,0,0
0.114822,4.46972e-05,-1.11035,1.70997e-05,2.21585,-8.58889e-05,0.613648,9.31006e-05,0.000774488,-0.0355051,0.000298473,-0.0126181,-0.00148268,0.0481233,0.00160858,0,0,0,-0.0134458,0,0.000129752,0,0,0,0.0694712,-0.0246,0.58806,0,0,0,0,0,0
0.115822,4.54786e-05,-1.11039,1.7401e-05,2.21584,-8.73847e-05,0.613696,9.47234e-05,0.000781357,-0.03581,0.000301198,-0.0127367,-0.00149563,0.0485468,0.00162269,0,0,0,-0.0135629,0,0.000133172,0,0,0,0.0694577,-0.0246,0.588061,0,0,0,0,0,0
0.116823,4.62669e-05,-1.11042,1.77049e-05,2.21583,-8.88934e-05,0.613745,9.63604e-05,0.000788229,-0.0361148,0.000303926,-0.0128555,-0.00150859,0.0489704,0.00163679,0,0,0,-0.01368,0,0.000136652,0,0,0,0.069444,-0.0246,0.588061,0,0,0,0,0,0
0.117823,4.70621e-05,-1.11046,1.80116e-05,2.21581,-9.04151e-05,0.613795,9.80114e-05,0.000795104,-0.0364195,0.000306657,-0.0129746,-0.00152154,0.0493941,0.0016509,0,0,0,-0.0137971,0,0.000140191,0,0,0,0.0694302,-0.0246,0.588061,0,0,0,0,0,0
0.118823,4.78642e-05,-1.11049,1.83211e-05,2.2158,-9.19499e-05,0.613845,9.96768e-05,0.000801983,-0.036724,0.000309392,-0.0130939,-0.0015345,0.049818,0.00166501,0,0,0,-0.0139142,0,0.000143792,0,0,0,0.0694163,-0.0246,0.588061,0,0,0,0,0,0
0.119823,4.86733e-05,-1.11053,1.86333e-05,2.21579,-9.34977e-05,0.613895,0.000101356,0.000808866,-0.0370285,0.00031213,-0.0132134,-0.00154745,0.050242,0.00167912,0,0,0,-0.0140313,0,0.000147454,0,0,0,0.0694022,-0.0246,0.588061,0,0,0,0,0,0
0.120828,4.94933e-05,-1.11057,1.89498e-05,2.21577,-9.50663e-05,0.613946,0.000103058,0.000815786,-0.0373344,0.000314884,-0.0133337,-0.00156048,0.0506682,0.00169331,0,0,0,-0.014149,0,0.000151196,0,0,0,0.069388,-0.0246,0.588061,0,0,0,0,0,0
0.121828,5.0316e-05,-1.11061,1.92674e-05,2.21576,-9.66399e-05,0.613997,0.000104766,0.000822675,-0.0376386,0.000317629,-0.0134537,-0.00157344,0.0510924,0.00170742,0,0,0,-0.0142661,0,0.000154981,0,0,0,0.0693738,-0.0246,0.588062,0,0,0,0,0,0
0.122829,5.11458e-05,-1.11064,1.95879e-05,2.21575,-9.82266e-05,0.614048,0.000106488,0.000829567,-0.0379426,0.000320377,-0.0135739,-0.00158639,0.0515167,0.00172154,0,0,0,-0.0143832,0,0.00015883,0,0,0,0.0693594,-0.0246,0.588062,0,0,0,0,0,0
0.123829,5.19823e-05,-1.11068,1.9911e-05,2.21573,-9.98261e-05,0.6141,0.000108224,0.000836462,-0.0382466,0.000323129,-0.0136944,-0.00159935,0.0519411,0.00173566,0,0,0,-0.0145002,0,0.000162741,0,0,0,0.0693449,-0.0246,0.588062,0,0,0,0,0,0
0.124829,5.28259e-05,-1.11072,2.0237e-05,2.21572,-0.000101439,0.614153,0.000109974,0.000843361,-0.0385504,0.000325884,-0.0138151,-0.00161232,0.0523656,0.00174979,0,0,0,-0.0146173,0,0.000166716,0,0,0,0.0693302,-0.0246,0.588062,0,0,0,0,0,0
0.125829,5.36762e-05,-1.11076,2.05657e-05,2.2157,-0.000103064,0.614206,0.000111738,0.000850263,-0.0388541,0.000328642,-0.013936,-0.00162528,0.0527903,0.00176391,0,0,0,-0.0147344,0,0.000170756,0,0,0,0.0693155,-0.0246,0.588062,0,0,0,0,0,0
0.126829,5.45335e-05,-1.1108,2.08971e-05,2.21569,-0.000104703,0.614259,0.000113516,0.000857168,-0.0391577,0.000331404,-0.0140572,-0.00163824,0.053215,0.00177804,0,0,0,-0.0148515,0,0.000174859,0,0,0,0.0693007,-0.0246,0.588062,0,0,0,0,0,0
0.127829,5.53977e-05,-1.11084,2.12313e-05,2.21568,-0.000106354,0.614312,0.000115309,0.000864078,-0.0394612,0.00033417,-0.0141786,-0.0016512,0.0536399,0.00179217,0,0,0,-0.0149686,0,0.000179029,0,0,0,0.0692857,-0.0246,0.588063,0,0,0,0,0,0
0.128842,5.62798e-05,-1.11088,2.15726e-05,2.21566,-0.000108039,0.614367,0.000117138,0.000871075,-0.0397683,0.000336972,-0.0143018,-0.00166433,0.0540702,0.00180648,0,0,0,-0.0150871,0,0.000183317,0,0,0,0.0692704,-0.0246,0.588063,0,0,0,0,0,0
0.129845,5.71608e-05,-1.11092,2.19135e-05,2.21565,-0.000109723,0.614422,0.000118965,0.000878016,-0.0400725,0.000339756,-0.0144242,-0.00167734,0.0544968,0.00182067,0,0,0,-0.0152046,0,0.000187634,0,0,0,0.0692551,-0.0246,0.588063,0,0,0,0,0,0
0.130845,5.80459e-05,-1.11096,2.22561e-05,2.21563,-0.000111413,0.614477,0.0001208,0.000884935,-0.0403755,0.000342532,-0.0145464,-0.00169031,0.054922,0.00183481,0,0,0,-0.0153217,0,0.000192003,0,0,0,0.0692398,-0.0246,0.588063,0,0,0,0,0,0
0.131845,5.89378e-05,-1.111,2.26014e-05,2.21562,-0.000113117,0.614532,0.000122649,0.000891858,-0.0406785,0.000345313,-0.0146688,-0.00170327,0.0553474,0.00184895,0,0,0,-0.0154387,0,0.000196439,0,0,0,0.0692244,-0.0246,0.588063,0,0,0,0,0,0
0.132846,5.98367e-05,-1.11104,2.29495e-05,2.2156,-0.000114833,0.614588,0.000124512,0.000898785,-0.0409812,0.000348096,-0.0147915,-0.00171624,0.0557729,0.00186309,0,0,0,-0.0155558,0,0.000200943,0,0,0,0.0692088,-0.0246,0.588063,0,0,0,0,0,0
0.133846,6.07425e-05,-1.11108,2.33005e-05,2.21559,-0.000116562,0.614644,0.00012639,0.000905715,-0.0412839,0.000350884,-0.0149144,-0.00172921,0.0561985,0.00187723,0,0,0,-0.0156729,0,0.000205515,0,0,0,0.0691932,-0.0246,0.588064,0,0,0,0,0,0
0.134846,6.16552e-05,-1.11112,2.36542e-05,2.21557,-0.000118305,0.614701,0.000128281,0.000912649,-0.0415864,0.000353675,-0.0150376,-0.00174218,0.0566242,0.00189138,0,0,0,-0.0157899,0,0.000210156,0,0,0,0.0691774,-0.0246,0.588064,0,0,0,0,0,0
0.135846,6.25749e-05,-1.11117,2.40107e-05,2.21556,-0.00012006,0.614758,0.000130187,0.000919586,-0.0418888,0.00035647,-0.0151611,-0.00175515,0.05705,0.00190553,0,0,0,-0.015907,0,0.000214867,0,0,0,0.0691615,-0.0246,0.588064,0,0,0,0,0,0
0.136849,6.35042e-05,-1.11121,2.4371e-05,2.21554,-0.000121833,0.614815,0.000132113,0.000926547,-0.0421919,0.000359277,-0.0152852,-0.00176816,0.0574773,0.00191973,0,0,0,-0.0160244,0,0.000219661,0,0,0,0.0691454,-0.0246,0.588064,0,0,0,0,0,0
0.137849,6.44379e-05,-1.11125,2.47332e-05,2.21553,-0.000123615,0.614873,0.000134047,0.000933493,-0.042494,0.00036208,-0.0154092,-0.00178113,0.0579034,0.00193388,0,0,0,-0.0161415,0,0.000224513,0,0,0,0.0691292,-0.0246,0.588065,0,0,0,0,0,0
0.138849,6.53785e-05,-1.11129,2.50981e-05,2.21551,-0.000125409,0.614932,0.000135995,0.000940442,-0.042796,0.000364887,-0.0155335,-0.00179411,0.0583296,0.00194804,0,0,0,-0.0162585,0,0.000229435,0,0,0,0.069113,-0.0246,0.588065,0,0,0,0,0,0
0.139849,6.63259e-05,-1.11134,2.54658e-05,2.2155,-0.000127217,0.614991,0.000137957,0.000947394,-0.0430978,0.000367697,-0.015658,-0.00180708,0.058756,0.0019622,0,0,0,-0.0163756,0,0.000234428,0,0,0,0.0690966,-0.0246,0.588065,0,0,0,0,0,0
0.14085,6.72805e-05,-1.11138,2.58364e-05,2.21548,-0.000129037,0.61505,0.000139934,0.000954351,-0.0433995,0.000370512,-0.0157828,-0.00182006,0.0591826,0.00197637,0,0,0,-0.0164927,0,0.000239494,0,0,0,0.0690801,-0.0246,0.588065,0,0,0,0,0,0
0.14185,6.82419e-05,-1.11142,2.62098e-05,2.21546,-0.00013087,0.615109,0.000141925,0.000961311,-0.0437011,0.00037333,-0.0159079,-0.00183304,0.0596092,0.00199054,0,0,0,-0.0166097,0,0.000244631,0,0,0,0.0690635,-0.0246,0.588065,0,0,0,0,0,0
0.14285,6.92103e-05,-1.11147,2.6586e-05,2.21545,-0.000132716,0.615169,0.00014393,0.000968275,-0.0440025,0.000376153,-0.0160333,-0.00184601,0.0600359,0.0020047,0,0,0,-0.0167268,0,0.000249842,0,0,0,0.0690468,-0.0246,0.588066,0,0,0,0,0,0
0.14385,7.01857e-05,-1.11151,2.6965e-05,2.21543,-0.000134576,0.61523,0.000145949,0.000975244,-0.0443037,0.000378979,-0.0161589,-0.00185899,0.0604629,0.00201888,0,0,0,-0.0168439,0,0.000255126,0,0,0,0.0690299,-0.0246,0.588066,0,0,0,0,0,0
0.14485,7.11681e-05,-1.11156,2.73469e-05,2.21542,-0.000136448,0.615291,0.000147983,0.000982216,-0.0446049,0.00038181,-0.0162849,-0.00187198,0.0608899,0.00203305,0,0,0,-0.0169609,0,0.000260485,0,0,0,0.0690129,-0.0246,0.588066,0,0,0,0,0,0
0.14585,7.21574e-05,-1.1116,2.77316e-05,2.2154,-0.000138333,0.615352,0.00015003,0.000989192,-0.0449058,0.000384644,-0.0164111,-0.00188496,0.0613171,0.00204723,0,0,0,-0.017078,0,0.000265917,0,0,0,0.0689959,-0.0246,0.588067,0,0,0,0,0,0
0.14685,7.31538e-05,-1.11165,2.81192e-05,2.21538,-0.000140232,0.615414,0.000152092,0.000996172,-0.0452067,0.000387483,-0.0165375,-0.00189794,0.0617444,0.00206141,0,0,0,-0.017195,0,0.000271425,0,0,0,0.0689787,-0.0246,0.588067,0,0,0,0,0,0
0.147851,7.41571e-05,-1.11169,2.85096e-05,2.21537,-0.000142143,0.615476,0.000154168,0.00100316,-0.0455074,0.000390326,-0.0166643,-0.00191092,0.0621719,0.00207559,0,0,0,-0.0173121,0,0.000277009,0,0,0,0.0689614,-0.0246,0.588067,0,0,0,0,0,0
0.148851,7.51674e-05,-1.11174,2.89028e-05,2.21535,-0.000144067,0.615539,0.000156258,0.00101014,-0.0458079,0.000393173,-0.0167914,-0.00192391,0.0625994,0.00208978,0,0,0,-0.0174291,0,0.000282668,0,0,0,0.0689439,-0.0246,0.588067,0,0,0,0,0,0
0.149851,7.61847e-05,-1.11178,2.92989e-05,2.21533,-0.000146004,0.615602,0.000158362,0.00101714,-0.0461083,0.000396024,-0.0169187,-0.00193689,0.0630272,0.00210397,0,0,0,-0.0175462,0,0.000288404,0,0,0,0.0689264,-0.0246,0.588068,0,0,0,0,0,0
0.150851,7.72091e-05,-1.11183,2.96979e-05,2.21532,-0.000147954,0.615665,0.000160481,0.00102413,-0.0464085,0.00039888,-0.0170464,-0.00194988,0.0634551,0.00211816,0,0,0,-0.0176632,0,0.000294218,0,0,0,0.0689087,-0.0246,0.588068,0,0,0,0,0,0
0.151852,7.82406e-05,-1.11188,3.00998e-05,2.2153,-0.000149918,0.615729,0.000162614,0.00103113,-0.0467086,0.00040174,-0.0171743,-0.00196287,0.0638832,0.00213236,0,0,0,-0.0177803,0,0.00030011,0,0,0,0.0688909,-0.0246,0.588068,0,0,0,0,0,0
0.152852,7.9279e-05,-1.11192,3.05044e-05,2.21528,-0.000151894,0.615793,0.000164761,0.00103814,-0.0470085,0.000404604,-0.0173026,-0.00197586,0.0643113,0.00214655,0,0,0,-0.0178973,0,0.000306079,0,0,0,0.068873,-0.0246,0.588069,0,0,0,0,0,0
0.153852,8.03242e-05,-1.11197,3.0912e-05,2.21526,-0.000153883,0.615858,0.000166922,0.00104515,-0.0473083,0.000407472,-0.0174311,-0.00198884,0.0647396,0.00216075,0,0,0,-0.0180144,0,0.000312126,0,0,0,0.068855,-0.0246,0.588069,0,0,0,0,0,0
0.154856,8.13811e-05,-1.11202,3.13242e-05,2.21525,-0.000155894,0.615924,0.000169107,0.00105219,-0.0476092,0.000410356,-0.0175604,-0.00200189,0.0651698,0.00217502,0,0,0,-0.0181319,0,0.000318279,0,0,0,0.0688368,-0.0246,0.588069,0,0,0,0,0,0
0.155856,8.24404e-05,-1.11207,3.17374e-05,2.21523,-0.000157909,0.615989,0.000171296,0.00105921,-0.0479086,0.000413234,-0.0176895,-0.00201488,0.0655984,0.00218922,0,0,0,-0.0182489,0,0.000324485,0,0,0,0.0688185,-0.0246,0.588069,0,0,0,0,0,0
0.156857,8.35069e-05,-1.11212,3.21536e-05,2.21521,-0.000159938,0.616055,0.0001735,0.00106623,-0.0482079,0.000416115,-0.017819,-0.00202787,0.0660271,0.00220343,0,0,0,-0.018366,0,0.000330772,0,0,0,0.0688002,-0.0246,0.58807,0,0,0,0,0,0
0.157857,8.45802e-05,-1.11216,3.25727e-05,2.21519,-0.000161979,0.616122,0.000175718,0.00107325,-0.048507,0.000419001,-0.0179487,-0.00204086,0.0664559,0.00221764,0,0,0,-0.018483,0,0.000337138,0,0,0,0.0687817,-0.0246,0.58807,0,0,0,0,0,0
0.158857,8.56606e-05,-1.11221,3.29946e-05,2.21517,-0.000164033,0.616189,0.00017795,0.00108028,-0.0488059,0.000421891,-0.0180787,-0.00205386,0.0668848,0.00223185,0,0,0,-0.0186,0,0.000343586,0,0,0,0.0687631,-0.0246,0.588071,0,0,0,0,0,0
0.159857,8.6748e-05,-1.11226,3.34194e-05,2.21516,-0.0001661,0.616256,0.000180196,0.00108731,-0.0491047,0.000424785,-0.018209,-0.00206685,0.0673139,0.00224607,0,0,0,-0.018717,0,0.000350116,0,0,0,0.0687444,-0.0246,0.588071,0,0,0,0,0,0
0.160857,8.78426e-05,-1.11231,3.38472e-05,2.21514,-0.00016818,0.616324,0.000182457,0.00109435,-0.0494033,0.000427684,-0.0183397,-0.00207985,0.0677432,0.00226029,0,0,0,-0.0188341,0,0.000356729,0,0,0,0.0687255,-0.0246,0.588071,0,0,0,0,0,0
0.161857,8.89441e-05,-1.11236,3.42778e-05,2.21512,-0.000170273,0.616392,0.000184732,0.00110139,-0.0497017,0.000430588,-0.0184706,-0.00209284,0.0681726,0.00227451,0,0,0,-0.0189511,0,0.000363423,0,0,0,0.0687066,-0.0246,0.588072,0,0,0,0,0,0
0.162857,9.00528e-05,-1.11241,3.47114e-05,2.2151,-0.000172379,0.61646,0.000187021,0.00110844,-0.05,0.000433496,-0.0186019,-0.00210584,0.0686022,0.00228873,0,0,0,-0.0190681,0,0.000370202,0,0,0,0.0686875,-0.0246,0.588072,0,0,0,0,0,0
0.163857,9.11684e-05,-1.11246,3.51479e-05,2.21508,-0.000174499,0.616529,0.000189324,0.00111549,-0.0502981,0.000436408,-0.0187335,-0.00211884,0.0690319,0.00230296,0,0,0,-0.0191851,0,0.000377063,0,0,0,0.0686683,-0.0246,0.588072,0,0,0,0,0,0
0.164858,9.2291e-05,-1.11251,3.55872e-05,2.21506,-0.000176631,0.616599,0.000191642,0.00112254,-0.0505961,0.000439325,-0.0188654,-0.00213184,0.0694617,0.00231719,0,0,0,-0.0193021,0,0.000384009,0,0,0,0.068649,-0.0246,0.588073,0,0,0,0,0,0
0.165858,9.34208e-05,-1.11256,3.60295e-05,2.21504,-0.000178776,0.616669,0.000193973,0.0011296,-0.0508938,0.000442247,-0.0189976,-0.00214484,0.0698917,0.00233142,0,0,0,-0.0194191,0,0.00039104,0,0,0,0.0686296,-0.0246,0.588073,0,0,0,0,0,0
0.166858,9.45575e-05,-1.11261,3.64747e-05,2.21502,-0.000180934,0.616739,0.000196319,0.00113667,-0.0511914,0.000445173,-0.0191301,-0.00215784,0.0703218,0.00234566,0,0,0,-0.0195361,0,0.000398156,0,0,0,0.06861,-0.0246,0.588073,0,0,0,0,0,0
0.16786,9.57036e-05,-1.11267,3.69237e-05,2.21501,-0.000183109,0.61681,0.000198684,0.00114375,-0.0514894,0.000448109,-0.0192632,-0.00217086,0.0707529,0.00235992,0,0,0,-0.0196533,0,0.000405371,0,0,0,0.0685904,-0.0246,0.588074,0,0,0,0,0,0
0.16886,9.68546e-05,-1.11272,3.73749e-05,2.21499,-0.000185293,0.616881,0.000201058,0.00115082,-0.0517866,0.000451046,-0.0193964,-0.00218387,0.0711834,0.00237416,0,0,0,-0.0197703,0,0.00041266,0,0,0,0.0685706,-0.0246,0.588074,0,0,0,0,0,0
0.16986,9.80126e-05,-1.11277,3.78289e-05,2.21497,-0.00018749,0.616953,0.000203447,0.0011579,-0.0520837,0.000453986,-0.0195299,-0.00219687,0.0716139,0.00238841,0,0,0,-0.0198873,0,0.000420035,0,0,0,0.0685507,-0.0246,0.588075,0,0,0,0,0,0
0.17086,9.91777e-05,-1.11282,3.82859e-05,2.21495,-0.0001897,0.617025,0.00020585,0.00116498,-0.0523806,0.000456932,-0.0196638,-0.00220988,0.0720447,0.00240266,0,0,0,-0.0200043,0,0.000427497,0,0,0,0.0685307,-0.0246,0.588075,0,0,0,0,0,0
0.17186,0.00010035,-1.11288,3.87458e-05,2.21493,-0.000191923,0.617097,0.000208267,0.00117207,-0.0526773,0.000459882,-0.0197979,-0.00222288,0.0724755,0.00241691,0,0,0,-0.0201213,0,0.000435047,0,0,0,0.0685106,-0.0246,0.588076,0,0,0,0,0,0
0.17286,0.000101529,-1.11293,3.92087e-05,2.21491,-0.00019416,0.61717,0.000210698,0.00117916,-0.0529738,0.000462836,-0.0199324,-0.00223589,0.0729066,0.00243116,0,0,0,-0.0202383,0,0.000442685,0,0,0,0.0684903,-0.0246,0.588076,0,0,0,0,0,0
0.173861,0.000102716,-1.11298,3.96746e-05,2.21489,-0.000196409,0.617244,0.000213144,0.00118625,-0.0532702,0.000465796,-0.0200673,-0.0022489,0.0733378,0.00244542,0,0,0,-0.0203553,0,0.000450413,0,0,0,0.06847,-0.0246,0.588076,0,0,0,0,0,0
0.174861,0.000103909,-1.11303,4.01434e-05,2.21487,-0.000198671,0.617317,0.000215604,0.00119335,-0.0535664,0.000468761,-0.0202024,-0.0022619,0.0737691,0.00245967,0,0,0,-0.0204722,0,0.00045823,0,0,0,0.0684495,-0.0246,0.588077,0,0,0,0,0,0
0.175861,0.00010511,-1.11309,4.06152e-05,2.21485,-0.000200946,0.617392,0.000218078,0.00120046,-0.0538623,0.00047173,-0.0203379,-0.00227491,0.0742006,0.00247394,0,0,0,-0.0205892,0,0.000466137,0,0,0,0.0684289,-0.0246,0.588077,0,0,0,0,0,0
0.176861,0.000106317,-1.11314,4.10899e-05,2.21483,-0.000203234,0.617466,0.000220567,0.00120757,-0.0541581,0.000474705,-0.0204738,-0.00228792,0.0746323,0.0024882,0,0,0,-0.0207062,0,0.000474134,0,0,0,0.0684082,-0.0246,0.588078,0,0,0,0,0,0
0.177861,0.000107532,-1.1132,4.15677e-05,2.21481,-0.000205536,0.617541,0.00022307,0.00121468,-0.0544538,0.000477684,-0.02061,-0.00230093,0.0750641,0.00250247,0,0,0,-0.0208231,0,0.000482222,0,0,0,0.0683874,-0.0246,0.588078,0,0,0,0,0,0
0.178861,0.000108754,-1.11325,4.20484e-05,2.21478,-0.00020785,0.617617,0.000225587,0.0012218,-0.0547492,0.000480669,-0.0207465,-0.00231395,0.075496,0.00251674,0,0,0,-0.0209401,0,0.000490402,0,0,0,0.0683664,-0.0246,0.588079,0,0,0,0,0,0
0.179861,0.000109983,-1.11331,4.25321e-05,2.21476,-0.000210177,0.617693,0.000228118,0.00122893,-0.0550444,0.000483658,-0.0208834,-0.00232696,0.0759282,0.00253101,0,0,0,-0.0210571,0,0.000498673,0,0,0,0.0683454,-0.0246,0.588079,0,0,0,0,0,0
0.180861,0.00011122,-1.11336,4.30188e-05,2.21474,-0.000212517,0.617769,0.000230664,0.00123605,-0.0553395,0.000486652,-0.0210206,-0.00233997,0.0763604,0.00254529,0,0,0,-0.021174,0,0.000507037,0,0,0,0.0683242,-0.0246,0.58808,0,0,0,0,0,0
0.181862,0.000112463,-1.11342,4.35085e-05,2.21472,-0.000214871,0.617846,0.000233224,0.00124319,-0.0556343,0.000489652,-0.0211581,-0.00235299,0.0767929,0.00255957,0,0,0,-0.021291,0,0.000515493,0,0,0,0.0683029,-0.0246,0.58808,0,0,0,0,0,0
0.182862,0.000113713,-1.11347,4.40012e-05,2.2147,-0.000217237,0.617923,0.000235798,0.00125032,-0.055929,0.000492656,-0.0212961,-0.002366,0.0772254,0.00257385,0,0,0,-0.0214079,0,0.000524044,0,0,0,0.0682815,-0.0246,0.588081,0,0,0,0,0,0
0.183866,0.000114977,-1.11353,4.44993e-05,2.21468,-0.000219627,0.618001,0.000238398,0.0012575,-0.0562249,0.000495679,-0.021435,-0.00237908,0.0776602,0.0025882,0,0,0,-0.0215254,0,0.000532729,0,0,0,0.0682598,-0.0246,0.588081,0,0,0,0,0,0
0.184867,0.000116242,-1.11359,4.4998e-05,2.21466,-0.00022202,0.618079,0.000241001,0.00126465,-0.0565191,0.000498695,-0.0215736,-0.00239209,0.0780931,0.00260249,0,0,0,-0.0216423,0,0.000541468,0,0,0,0.0682382,-0.0246,0.588082,0,0,0,0,0,0
0.185867,0.000117514,-1.11364,4.54999e-05,2.21464,-0.000224425,0.618158,0.000243618,0.0012718,-0.0568132,0.000501715,-0.0217126,-0.00240511,0.0785262,0.00261678,0,0,0,-0.0217593,0,0.000550303,0,0,0,0.0682164,-0.0246,0.588083,0,0,0,0,0,0
0.186867,0.000118793,-1.1137,4.60047e-05,2.21461,-0.000226844,0.618237,0.00024625,0.00127896,-0.0571071,0.000504741,-0.0218519,-0.00241813,0.0789595,0.00263108,0,0,0,-0.0218762,0,0.000559233,0,0,0,0.0681946,-0.0246,0.588083,0,0,0,0,0,0
0.187867,0.000120079,-1.11376,4.65125e-05,2.21459,-0.000229275,0.618316,0.000248895,0.00128612,-0.0574008,0.000507771,-0.0219916,-0.00243115,0.0793928,0.00264538,0,0,0,-0.0219931,0,0.000568258,0,0,0,0.0681726,-0.0246,0.588084,0,0,0,0,0,0
0.188867,0.000121372,-1.11382,4.70233e-05,2.21457,-0.000231719,0.618396,0.000251555,0.00129329,-0.0576943,0.000510807,-0.0221317,-0.00244417,0.0798264,0.00265968,0,0,0,-0.02211,0,0.000577381,0,0,0,0.0681505,-0.0246,0.588084,0,0,0,0,0,0
0.189867,0.000122673,-1.11387,4.75373e-05,2.21455,-0.000234177,0.618476,0.00025423,0.00130046,-0.0579876,0.000513848,-0.0222721,-0.00245719,0.0802602,0.00267398,0,0,0,-0.022227,0,0.000586601,0,0,0,0.0681282,-0.0246,0.588085,0,0,0,0,0,0
0.190874,0.00012399,-1.11393,4.80577e-05,2.21452,-0.000236664,0.618558,0.000256936,0.00130768,-0.0582827,0.000516913,-0.0224138,-0.0024703,0.0806969,0.00268838,0,0,0,-0.0223447,0,0.000595981,0,0,0,0.0681057,-0.0246,0.588085,0,0,0,0,0,0
0.191874,0.000125305,-1.11399,4.85777e-05,2.2145,-0.000239148,0.618639,0.000259639,0.00131487,-0.0585755,0.000519966,-0.022555,-0.00248333,0.081131,0.00270269,0,0,0,-0.0224616,0,0.000605396,0,0,0,0.0680833,-0.0246,0.588086,0,0,0,0,0,0
0.192874,0.000126627,-1.11405,4.91008e-05,2.21448,-0.000241644,0.61872,0.000262357,0.00132206,-0.0588682,0.000523023,-0.0226965,-0.00249635,0.0815652,0.00271701,0,0,0,-0.0225785,0,0.000614911,0,0,0,0.0680607,-0.0246,0.588087,0,0,0,0,0,0
0.193874,0.000127956,-1.11411,4.96269e-05,2.21446,-0.000244154,0.618802,0.000265088,0.00132925,-0.0591607,0.000526086,-0.0228384,-0.00250937,0.0819995,0.00273132,0,0,0,-0.0226954,0,0.000624524,0,0,0,0.068038,-0.0246,0.588087,0,0,0,0,0,0
0.194875,0.000129293,-1.11417,5.01562e-05,2.21443,-0.000246677,0.618885,0.000267834,0.00133645,-0.059453,0.000529154,-0.0229807,-0.0025224,0.0824341,0.00274564,0,0,0,-0.0228123,0,0.000634238,0,0,0,0.0680152,-0.0246,0.588088,0,0,0,0,0,0
0.195875,0.000130637,-1.11423,5.06885e-05,2.21441,-0.000249213,0.618968,0.000270595,0.00134365,-0.059745,0.000532228,-0.0231234,-0.00253543,0.0828689,0.00275996,0,0,0,-0.0229292,0,0.000644052,0,0,0,0.0679922,-0.0246,0.588089,0,0,0,0,0,0
0.196875,0.000131988,-1.11429,5.12239e-05,2.21439,-0.000251762,0.619051,0.00027337,0.00135086,-0.0600369,0.000535307,-0.0232664,-0.00254846,0.0833037,0.00277429,0,0,0,-0.0230461,0,0.000653966,0,0,0,0.0679692,-0.0246,0.588089,0,0,0,0,0,0
0.197875,0.000133346,-1.11435,5.17623e-05,2.21436,-0.000254323,0.619135,0.000276158,0.00135807,-0.0603285,0.000538391,-0.0234098,-0.00256148,0.0837388,0.00278862,0,0,0,-0.023163,0,0.000663981,0,0,0,0.067946,-0.0246,0.58809,0,0,0,0,0,0
0.198886,0.000134726,-1.11441,5.23096e-05,2.21434,-0.000256925,0.61922,0.000278991,0.00136536,-0.060623,0.00054151,-0.023555,-0.00257465,0.0841785,0.0028031,0,0,0,-0.0232811,0,0.000674205,0,0,0,0.0679225,-0.0246,0.588091,0,0,0,0,0,0
0.199886,0.000136099,-1.11447,5.28544e-05,2.21432,-0.000259514,0.619304,0.00028181,0.00137259,-0.0609142,0.000544609,-0.0236993,-0.00258768,0.084614,0.00281743,0,0,0,-0.023398,0,0.000684427,0,0,0,0.0678991,-0.0246,0.588091,0,0,0,0,0,0
0.200981,0.000137611,-1.11454,5.34545e-05,2.21429,-0.000262363,0.619398,0.000284912,0.00138048,-0.0612333,0.000547972,-0.0238571,-0.00260195,0.0850909,0.00283312,0,0,0,-0.0235259,0,0.000695737,0,0,0,0.0678733,-0.0246,0.588092,0,0,0,0,0,0
0.201981,0.000138999,-1.1146,5.40057e-05,2.21427,-0.000264979,0.619483,0.00028776,0.00138774,-0.0615236,0.000551113,-0.0240026,-0.00261498,0.0855267,0.00284748,0,0,0,-0.0236428,0,0.000706173,0,0,0,0.0678497,-0.0246,0.588093,0,0,0,0,0,0
0.202981,0.000140394,-1.11466,5.456e-05,2.21424,-0.000267607,0.619569,0.000290622,0.00139498,-0.0618142,0.000554226,-0.0241479,-0.00262801,0.0859626,0.00286182,0,0,0,-0.0237596,0,0.000716712,0,0,0,0.0678259,-0.0246,0.588093,0,0,0,0,0,0
0.203981,0.000141796,-1.11472,5.51174e-05,2.21422,-0.000270248,0.619656,0.000293499,0.00140222,-0.0621045,0.000557344,-0.0242937,-0.00264104,0.0863986,0.00287617,0,0,0,-0.0238765,0,0.000727356,0,0,0,0.067802,-0.0246,0.588094,0,0,0,0,0,0
0.204981,0.000143206,-1.11479,5.56779e-05,2.21419,-0.000272902,0.619742,0.000296389,0.00140947,-0.0623946,0.000560468,-0.0244398,-0.00265408,0.0868349,0.00289051,0,0,0,-0.0239933,0,0.000738105,0,0,0,0.067778,-0.0246,0.588095,0,0,0,0,0,0
0.205982,0.000144623,-1.11485,5.62416e-05,2.21417,-0.00027557,0.61983,0.000299295,0.00141673,-0.0626845,0.000563599,-0.0245863,-0.00266711,0.0872713,0.00290487,0,0,0,-0.0241102,0,0.00074896,0,0,0,0.0677539,-0.0246,0.588096,0,0,0,0,0,0
0.206982,0.000146047,-1.11491,5.68084e-05,2.21414,-0.000278251,0.619917,0.000302214,0.00142399,-0.0629741,0.000566734,-0.0247333,-0.00268015,0.0877079,0.00291922,0,0,0,-0.024227,0,0.00075992,0,0,0,0.0677297,-0.0246,0.588096,0,0,0,0,0,0
0.207982,0.000147478,-1.11498,5.73784e-05,2.21412,-0.000280944,0.620006,0.000305149,0.00143126,-0.0632636,0.000569876,-0.0248806,-0.00269318,0.0881447,0.00293358,0,0,0,-0.0243439,0,0.000770987,0,0,0,0.0677053,-0.0246,0.588097,0,0,0,0,0,0
0.208982,0.000148917,-1.11504,5.79514e-05,2.21409,-0.000283651,0.620094,0.000308097,0.00143853,-0.0635528,0.000573023,-0.0250283,-0.00270622,0.0885816,0.00294795,0,0,0,-0.0244607,0,0.000782161,0,0,0,0.0676809,-0.0246,0.588098,0,0,0,0,0,0
0.209982,0.000150363,-1.1151,5.85277e-05,2.21407,-0.00028637,0.620183,0.000311059,0.0014458,-0.0638417,0.000576177,-0.0251764,-0.00271925,0.0890187,0.00296231,0,0,0,-0.0245775,0,0.000793441,0,0,0,0.0676563,-0.0246,0.588099,0,0,0,0,0,0
0.210982,0.000151816,-1.11517,5.91071e-05,2.21404,-0.000289103,0.620273,0.000314036,0.00145309,-0.0641305,0.000579336,-0.025325,-0.00273229,0.089456,0.00297668,0,0,0,-0.0246943,0,0.000804829,0,0,0,0.0676316,-0.0246,0.5881,0,0,0,0,0,0
0.211982,0.000153277,-1.11523,5.96896e-05,2.21402,-0.000291848,0.620363,0.000317028,0.00146037,-0.064419,0.0005825,-0.0254739,-0.00274533,0.0898934,0.00299105,0,0,0,-0.0248111,0,0.000816326,0,0,0,0.0676068,-0.0246,0.5881,0,0,0,0,0,0
0.212982,0.000154745,-1.1153,6.02754e-05,2.21399,-0.000294607,0.620453,0.000320034,0.00146767,-0.0647072,0.000585671,-0.0256232,-0.00275837,0.0903311,0.00300542,0,0,0,-0.0249279,0,0.000827932,0,0,0,0.0675819,-0.0246,0.588101,0,0,0,0,0,0
0.214002,0.000156249,-1.11536,6.08759e-05,2.21397,-0.000297434,0.620545,0.000323113,0.0014751,-0.0650011,0.000588903,-0.0257758,-0.00277166,0.0907775,0.00302008,0,0,0,-0.025047,0,0.000839879,0,0,0,0.0675563,-0.0246,0.588102,0,0,0,0,0,0
0.215002,0.000157732,-1.11543,6.14681e-05,2.21394,-0.000300219,0.620637,0.000326148,0.00148241,-0.0652888,0.000592094,-0.0259261,-0.0027847,0.0912154,0.00303446,0,0,0,-0.0251638,0,0.000851706,0,0,0,0.0675311,-0.0246,0.588103,0,0,0,0,0,0
0.216003,0.000159222,-1.11549,6.20635e-05,2.21391,-0.000303017,0.620728,0.000329198,0.00148973,-0.0655764,0.000595283,-0.0260767,-0.00279775,0.0916537,0.00304885,0,0,0,-0.0252806,0,0.000863646,0,0,0,0.0675059,-0.0246,0.588104,0,0,0,0,0,0
0.217322,0.000161199,-1.11558,6.28542e-05,2.21388,-0.00030673,0.62085,0.000333245,0.00149926,-0.0659568,0.000599365,-0.0262741,-0.00281495,0.0922316,0.00306778,0,0,0,-0.0254346,0,0.000879561,0,0,0,0.0674723,-0.0246,0.588105,0,0,0,0,0,0
0.218558,0.000163065,-1.11566,6.36003e-05,2.21385,-0.000310231,0.620965,0.00033706,0.00150834,-0.0663113,0.00060336,-0.026462,-0.00283108,0.0927739,0.00308558,0,0,0,-0.025579,0,0.000894657,0,0,0,0.0674407,-0.0246,0.588106,0,0,0,0,0,0
0.219558,0.000164581,-1.11573,6.4207e-05,2.21382,-0.000313076,0.621058,0.000340161,0.00151576,-0.0665969,0.00060667,-0.0266154,-0.00284412,0.0932129,0.00310001,0,0,0,-0.0256958,0,0.000906992,0,0,0,0.067415,-0.0246,0.588107,0,0,0,0,0,0
0.220559,0.000166104,-1.1158,6.4817e-05,2.21379,-0.000315933,0.621152,0.000343275,0.0015231,-0.0668834,0.000609887,-0.0267678,-0.00285716,0.0936519,0.00311441,0,0,0,-0.0258125,0,0.000919439,0,0,0,0.0673892,-0.0246,0.588108,0,0,0,0,0,0
0.221559,0.000167634,-1.11586,6.54301e-05,2.21377,-0.000318804,0.621246,0.000346404,0.00153044,-0.0671696,0.00061311,-0.0269207,-0.0028702,0.094091,0.00312881,0,0,0,-0.0259292,0,0.000931999,0,0,0,0.0673632,-0.0246,0.588109,0,0,0,0,0,0
0.222559,0.000169172,-1.11593,6.60465e-05,2.21374,-0.000321687,0.62134,0.000349548,0.00153778,-0.0674556,0.000616338,-0.027074,-0.00288325,0.0945303,0.00314321,0,0,0,-0.026046,0,0.000944674,0,0,0,0.0673372,-0.0246,0.58811,0,0,0,0,0,0
0.223559,0.000170718,-1.116,6.66662e-05,2.21371,-0.000324584,0.621435,0.000352706,0.00154514,-0.0677414,0.000619573,-0.0272278,-0.00289629,0.0949698,0.00315762,0,0,0,-0.0261627,0,0.000957462,0,0,0,0.067311,-0.0246,0.588111,0,0,0,0,0,0
0.224559,0.00017227,-1.11607,6.72891e-05,2.21368,-0.000327494,0.621531,0.000355879,0.00155249,-0.0680269,0.000622815,-0.0273819,-0.00290934,0.0954095,0.00317203,0,0,0,-0.0262794,0,0.000970367,0,0,0,0.0672847,-0.0246,0.588112,0,0,0,0,0,0
0.225559,0.00017383,-1.11613,6.79152e-05,2.21366,-0.000330416,0.621627,0.000359065,0.00155986,-0.0683121,0.000626062,-0.0275365,-0.00292238,0.0958494,0.00318644,0,0,0,-0.0263962,0,0.000983386,0,0,0,0.0672583,-0.0246,0.588113,0,0,0,0,0,0
0.226559,0.000175398,-1.1162,6.85446e-05,2.21363,-0.000333352,0.621723,0.000362266,0.00156723,-0.0685971,0.000629316,-0.0276915,-0.00293543,0.0962894,0.00320086,0,0,0,-0.0265129,0,0.00099652,0,0,0,0.0672318,-0.0246,0.588114,0,0,0,0,0,0
0.227559,0.000176973,-1.11627,6.91773e-05,2.2136,-0.000336301,0.62182,0.000365482,0.0015746,-0.0688819,0.000632577,-0.027847,-0.00294848,0.0967296,0.00321528,0,0,0,-0.0266296,0,0.00100977,0,0,0,0.0672052,-0.0246,0.588115,0,0,0,0,0,0
0.22856,0.000178555,-1.11634,6.98132e-05,2.21357,-0.000339263,0.621917,0.000368712,0.00158198,-0.0691664,0.000635843,-0.0280029,-0.00296152,0.09717,0.0032297,0,0,0,-0.0267463,0,0.00102314,0,0,0,0.0671784,-0.0246,0.588116,0,0,0,0,0,0
0.22956,0.000180144,-1.11641,7.04524e-05,2.21355,-0.000342238,0.622014,0.000371957,0.00158937,-0.0694507,0.000639116,-0.0281592,-0.00297457,0.0976106,0.00324412,0,0,0,-0.026863,0,0.00103663,0,0,0,0.0671516,-0.0246,0.588117,0,0,0,0,0,0
0.23056,0.000181741,-1.11648,7.10949e-05,2.21352,-0.000345226,0.622112,0.000375216,0.00159676,-0.0697346,0.000642395,-0.028316,-0.00298762,0.0980514,0.00325855,0,0,0,-0.0269796,0,0.00105023,0,0,0,0.0671246,-0.0246,0.588118,0,0,0,0,0,0
0.23156,0.000183346,-1.11655,7.17406e-05,2.21349,-0.000348227,0.622211,0.000378489,0.00160416,-0.0700184,0.000645681,-0.0284731,-0.00300067,0.0984923,0.00327298,0,0,0,-0.0270963,0,0.00106395,0,0,0,0.0670975,-0.0246,0.588119,0,0,0,0,0,0
0.232698,0.000185181,-1.11663,7.24798e-05,2.21346,-0.000351659,0.622324,0.000382233,0.00161253,-0.0703417,0.000649362,-0.0286517,-0.00301553,0.0989942,0.00328938,0,0,0,-0.0272291,0,0.00107971,0,0,0,0.0670665,-0.0246,0.58812,0,0,0,0,0,0
0.233698,0.000186801,-1.1167,7.31326e-05,2.21343,-0.000354688,0.622423,0.000385538,0.00162,-0.0706242,0.000652728,-0.0288107,-0.00302857,0.0994357,0.00330384,0,0,0,-0.0273458,0,0.00109369,0,0,0,0.0670391,-0.0246,0.588121,0,0,0,0,0,0
0.234698,0.000188429,-1.11677,7.37887e-05,2.2134,-0.00035773,0.622523,0.000388856,0.00162742,-0.0709071,0.000656034,-0.0289693,-0.00304162,0.0998772,0.00331828,0,0,0,-0.0274624,0,0.00110778,0,0,0,0.0670117,-0.0246,0.588122,0,0,0,0,0,0
0.235698,0.000190064,-1.11684,7.44481e-05,2.21337,-0.000360785,0.622623,0.000392189,0.00163484,-0.0711897,0.000659346,-0.0291284,-0.00305467,0.100319,0.00333273,0,0,0,-0.027579,0,0.001122,0,0,0,0.0669841,-0.0246,0.588123,0,0,0,0,0,0
0.236699,0.000191706,-1.11691,7.51108e-05,2.21334,-0.000363853,0.622724,0.000395537,0.00164227,-0.0714721,0.000662665,-0.0292878,-0.00306772,0.100761,0.00334717,0,0,0,-0.0276957,0,0.00113634,0,0,0,0.0669564,-0.0246,0.588124,0,0,0,0,0,0
0.237699,0.000193356,-1.11699,7.57769e-05,2.21331,-0.000366934,0.622825,0.000398899,0.0016497,-0.0717542,0.000665991,-0.0294478,-0.00308077,0.101203,0.00336162,0,0,0,-0.0278123,0,0.0011508,0,0,0,0.0669286,-0.0246,0.588126,0,0,0,0,0,0
0.238699,0.000195014,-1.11706,7.64463e-05,2.21328,-0.000370028,0.622927,0.000402275,0.00165714,-0.0720361,0.000669323,-0.0296081,-0.00309382,0.101645,0.00337607,0,0,0,-0.0279289,0,0.00116538,0,0,0,0.0669006,-0.0246,0.588127,0,0,0,0,0,0
0.239699,0.000196678,-1.11713,7.7119e-05,2.21325,-0.000373136,0.623029,0.000405666,0.00166459,-0.0723177,0.000672662,-0.029769,-0.00310688,0.102088,0.00339053,0,0,0,-0.0280455,0,0.00118009,0,0,0,0.0668726,-0.0246,0.588128,0,0,0,0,0,0
0.240699,0.000198351,-1.1172,7.77951e-05,2.21322,-0.000376256,0.623132,0.000409072,0.00167204,-0.072599,0.000676007,-0.0299303,-0.00311993,0.10253,0.00340499,0,0,0,-0.0281621,0,0.00119491,0,0,0,0.0668444,-0.0246,0.588129,0,0,0,0,0,0
0.241699,0.00020003,-1.11728,7.84745e-05,2.21319,-0.000379389,0.623235,0.000412491,0.0016795,-0.07288,0.000679359,-0.030092,-0.00313298,0.102973,0.00341945,0,0,0,-0.0282787,0,0.00120986,0,0,0,0.0668161,-0.0246,0.58813,0,0,0,0,0,0
0.242699,0.000201717,-1.11735,7.91573e-05,2.21316,-0.000382536,0.623338,0.000415926,0.00168697,-0.0731608,0.000682718,-0.0302542,-0.00314603,0.103416,0.00343391,0,0,0,-0.0283953,0,0.00122494,0,0,0,0.0667877,-0.0246,0.588132,0,0,0,0,0,0
0.243699,0.000203412,-1.11742,7.98435e-05,2.21313,-0.000385695,0.623442,0.000419374,0.00169444,-0.0734413,0.000686084,-0.0304169,-0.00315908,0.103859,0.00344838,0,0,0,-0.0285119,0,0.00124014,0,0,0,0.0667592,-0.0246,0.588133,0,0,0,0,0,0
0.2447,0.000205114,-1.1175,8.05331e-05,2.2131,-0.000388868,0.623546,0.000422838,0.00170192,-0.0737215,0.000689456,-0.03058,-0.00317214,0.104302,0.00346285,0,0,0,-0.0286284,0,0.00125546,0,0,0,0.0667306,-0.0246,0.588134,0,0,0,0,0,0
0.2457,0.000206824,-1.11757,8.1226e-05,2.21307,-0.000392053,0.623651,0.000426316,0.0017094,-0.0740015,0.000692835,-0.0307436,-0.00318519,0.104746,0.00347732,0,0,0,-0.028745,0,0.00127091,0,0,0,0.0667018,-0.0246,0.588135,0,0,0,0,0,0
0.2467,0.000208541,-1.11764,8.19223e-05,2.21304,-0.000395252,0.623756,0.000429808,0.00171689,-0.0742811,0.000696221,-0.0309077,-0.00319824,0.10519,0.00349179,0,0,0,-0.0288615,0,0.00128649,0,0,0,0.066673,-0.0246,0.588137,0,0,0,0,0,0
0.247974,0.00021074,-1.11774,8.28147e-05,2.213,-0.000399348,0.623891,0.00043428,0.00172631,-0.0746387,0.000700395,-0.0311154,-0.00321488,0.105755,0.00351019,0,0,0,-0.02901,0,0.00130651,0,0,0,0.066636,-0.0246,0.588138,0,0,0,0,0,0
0.248974,0.000212475,-1.11781,8.35187e-05,2.21297,-0.000402577,0.623997,0.000437805,0.00173394,-0.074916,0.000703947,-0.0312825,-0.00322793,0.1062,0.00352472,0,0,0,-0.0291265,0,0.00132238,0,0,0,0.0666069,-0.0246,0.58814,0,0,0,0,0,0
0.249974,0.000214216,-1.11789,8.42262e-05,2.21294,-0.000405818,0.624104,0.000441345,0.00174145,-0.0751948,0.000707355,-0.0314481,-0.00324098,0.106644,0.00353921,0,0,0,-0.029243,0,0.00133837,0,0,0,0.0665776,-0.0246,0.588141,0,0,0,0,0,0
0.250974,0.000215965,-1.11797,8.4937e-05,2.2129,-0.000409072,0.624211,0.000444899,0.00174897,-0.0754732,0.000710771,-0.0316142,-0.00325404,0.107088,0.00355369,0,0,0,-0.0293595,0,0.00135449,0,0,0,0.0665483,-0.0246,0.588142,0,0,0,0,0,0
0.251974,0.000217722,-1.11804,8.56513e-05,2.21287,-0.00041234,0.624318,0.000448468,0.00175649,-0.0757514,0.000714193,-0.0317807,-0.00326709,0.107533,0.00356818,0,0,0,-0.029476,0,0.00137074,0,0,0,0.0665188,-0.0246,0.588144,0,0,0,0,0,0
0.252974,0.000219486,-1.11812,8.6369e-05,2.21284,-0.00041562,0.624426,0.000452051,0.00176402,-0.0760292,0.000717622,-0.0319478,-0.00328014,0.107978,0.00358268,0,0,0,-0.0295925,0,0.00138712,0,0,0,0.0664892,-0.0246,0.588145,0,0,0,0,0,0
0.253974,0.000221258,-1.11819,8.70901e-05,2.21281,-0.000418914,0.624535,0.000455648,0.00177155,-0.0763068,0.000721059,-0.0321153,-0.0032932,0.108423,0.00359717,0,0,0,-0.029709,0,0.00140363,0,0,0,0.0664595,-0.0246,0.588146,0,0,0,0,0,0
0.254975,0.000223037,-1.11827,8.78147e-05,2.21278,-0.00042222,0.624644,0.00045926,0.00177909,-0.0765841,0.000724502,-0.0322832,-0.00330625,0.108868,0.00361167,0,0,0,-0.0298254,0,0.00142027,0,0,0,0.0664297,-0.0246,0.588148,0,0,0,0,0,0
0.255975,0.000224824,-1.11835,8.85427e-05,2.21274,-0.00042554,0.624753,0.000462887,0.00178664,-0.0768611,0.000727952,-0.0324517,-0.00331931,0.109314,0.00362617,0,0,0,-0.0299419,0,0.00143704,0,0,0,0.0663997,-0.0246,0.588149,0,0,0,0,0,0
0.256975,0.000226619,-1.11842,8.92743e-05,2.21271,-0.000428873,0.624863,0.000466528,0.00179419,-0.0771378,0.00073141,-0.0326207,-0.00333236,0.10976,0.00364068,0,0,0,-0.0300583,0,0.00145394,0,0,0,0.0663696,-0.0246,0.588151,0,0,0,0,0,0
0.257975,0.000228421,-1.1185,9.00092e-05,2.21268,-0.000432219,0.624973,0.000470184,0.00180175,-0.0774142,0.000734874,-0.0327901,-0.00334541,0.110205,0.00365519,0,0,0,-0.0301748,0,0.00147097,0,0,0,0.0663395,-0.0246,0.588152,0,0,0,0,0,0
0.258975,0.00023023,-1.11858,9.07476e-05,2.21265,-0.000435577,0.625084,0.000473854,0.00180931,-0.0776903,0.000738346,-0.03296,-0.00335847,0.110651,0.0036697,0,0,0,-0.0302912,0,0.00148814,0,0,0,0.0663092,-0.0246,0.588154,0,0,0,0,0,0
0.259975,0.000232047,-1.11866,9.14895e-05,2.21261,-0.000438949,0.625195,0.000477538,0.00181689,-0.0779661,0.000741825,-0.0331304,-0.00337152,0.111098,0.00368421,0,0,0,-0.0304076,0,0.00150543,0,0,0,0.0662788,-0.0246,0.588155,0,0,0,0,0,0
0.260975,0.000233872,-1.11874,9.2235e-05,2.21258,-0.000442335,0.625306,0.000481238,0.00182446,-0.0782417,0.000745311,-0.0333013,-0.00338458,0.111544,0.00369873,0,0,0,-0.030524,0,0.00152287,0,0,0,0.0662482,-0.0246,0.588157,0,0,0,0,0,0
0.261997,0.000235744,-1.11882,9.30001e-05,2.21254,-0.000445806,0.625421,0.000485032,0.0018322,-0.078523,0.000748867,-0.0334763,-0.00339791,0.112,0.00371355,0,0,0,-0.0306429,0,0.00154081,0,0,0,0.0662169,-0.0246,0.588158,0,0,0,0,0,0
0.262997,0.000237584,-1.11889,9.37526e-05,2.21251,-0.000449218,0.625533,0.00048876,0.0018398,-0.0787977,0.00075238,-0.0336483,-0.00341097,0.112447,0.00372808,0,0,0,-0.0307593,0,0.00155852,0,0,0,0.0661862,-0.0246,0.58816,0,0,0,0,0,0
0.263997,0.000239432,-1.11897,9.45085e-05,2.21248,-0.000452642,0.625646,0.000492503,0.0018474,-0.0790723,0.000755888,-0.0338207,-0.00342402,0.112894,0.0037426,0,0,0,-0.0308756,0,0.00157635,0,0,0,0.0661553,-0.0246,0.588161,0,0,0,0,0,0
0.264997,0.000241287,-1.11905,9.5268e-05,2.21244,-0.000456079,0.62576,0.000496261,0.00185501,-0.0793466,0.000759403,-0.0339936,-0.00343707,0.113341,0.00375713,0,0,0,-0.030992,0,0.00159433,0,0,0,0.0661243,-0.0246,0.588163,0,0,0,0,0,0
0.265997,0.00024315,-1.11913,9.6031e-05,2.21241,-0.00045953,0.625873,0.000500033,0.00186262,-0.0796205,0.000762926,-0.034167,-0.00345013,0.113789,0.00377166,0,0,0,-0.0311083,0,0.00161243,0,0,0,0.0660932,-0.0246,0.588165,0,0,0,0,0,0
0.266998,0.00024502,-1.11921,9.67976e-05,2.21237,-0.000462994,0.625988,0.00050382,0.00187023,-0.0798942,0.000766456,-0.0343409,-0.00346318,0.114236,0.00378619,0,0,0,-0.0312247,0,0.00163068,0,0,0,0.0660619,-0.0246,0.588166,0,0,0,0,0,0
0.267998,0.000246898,-1.11929,9.75678e-05,2.21234,-0.000466471,0.626102,0.000507621,0.00187786,-0.0801676,0.000769993,-0.0345153,-0.00347624,0.114684,0.00380072,0,0,0,-0.031341,0,0.00164906,0,0,0,0.0660306,-0.0246,0.588168,0,0,0,0,0,0
0.268998,0.000248784,-1.11937,9.83414e-05,2.21231,-0.000469961,0.626217,0.000511437,0.00188549,-0.0804407,0.000773538,-0.0346902,-0.00348929,0.115132,0.00381526,0,0,0,-0.0314573,0,0.00166758,0,0,0,0.0659991,-0.0246,0.58817,0,0,0,0,0,0
0.269998,0.000250678,-1.11945,9.91186e-05,2.21227,-0.000473463,0.626333,0.000515268,0.00189312,-0.0807134,0.00077709,-0.0348656,-0.00350234,0.11558,0.0038298,0,0,0,-0.0315736,0,0.00168624,0,0,0,0.0659676,-0.0246,0.588171,0,0,0,0,0,0
0.270998,0.000252579,-1.11953,9.98993e-05,2.21224,-0.000476979,0.626449,0.000519112,0.00190077,-0.0809858,0.000780649,-0.0350415,-0.00351539,0.116029,0.00384434,0,0,0,-0.0316899,0,0.00170504,0,0,0,0.0659359,-0.0246,0.588173,0,0,0,0,0,0
0.271998,0.000254487,-1.11962,0.000100684,2.2122,-0.000480508,0.626566,0.000522972,0.00190842,-0.0812579,0.000784216,-0.035218,-0.00352845,0.116477,0.00385889,0,0,0,-0.0318061,0,0.00172397,0,0,0,0.065904,-0.0246,0.588175,0,0,0,0,0,0
0.272998,0.000256403,-1.1197,0.000101472,2.21216,-0.00048405,0.626682,0.000526845,0.00191607,-0.0815296,0.00078779,-0.0353949,-0.0035415,0.116926,0.00387344,0,0,0,-0.0319224,0,0.00174305,0,0,0,0.0658721,-0.0246,0.588176,0,0,0,0,0,0
0.273999,0.000258327,-1.11978,0.000102263,2.21213,-0.000487605,0.6268,0.000530734,0.00192373,-0.0818011,0.000791372,-0.0355723,-0.00355455,0.117375,0.00388799,0,0,0,-0.0320386,0,0.00176226,0,0,0,0.0658401,-0.0246,0.588178,0,0,0,0,0,0
0.274999,0.000260259,-1.11986,0.000103058,2.21209,-0.000491173,0.626918,0.000534637,0.0019314,-0.0820722,0.000794961,-0.0357503,-0.0035676,0.117824,0.00390254,0,0,0,-0.0321549,0,0.00178161,0,0,0,0.0658079,-0.0246,0.58818,0,0,0,0,0,0
0.275999,0.000262198,-1.11994,0.000103857,2.21206,-0.000494754,0.627036,0.000538554,0.00193908,-0.082343,0.000798558,-0.0359288,-0.00358065,0.118273,0.00391709,0,0,0,-0.0322711,0,0.00180111,0,0,0,0.0657756,-0.0246,0.588182,0,0,0,0,0,0
0.276999,0.000264145,-1.12003,0.000104659,2.21202,-0.000498348,0.627155,0.000542486,0.00194676,-0.0826134,0.000802162,-0.0361078,-0.0035937,0.118723,0.00393165,0,0,0,-0.0323873,0,0.00182074,0,0,0,0.0657433,-0.0246,0.588184,0,0,0,0,0,0
0.278093,0.000266285,-1.12012,0.000105541,2.21198,-0.000502296,0.627285,0.000546806,0.00195512,-0.0829098,0.00080605,-0.0363034,-0.00360798,0.119215,0.00394756,0,0,0,-0.0325144,0,0.0018424,0,0,0,0.0657077,-0.0246,0.588186,0,0,0,0,0,0
0.279889,0.000269819,-1.12027,0.000106999,2.21192,-0.000508816,0.627501,0.000553941,0.00196853,-0.0833997,0.000812066,-0.0366207,-0.00363146,0.120022,0.00397356,0,0,0,-0.032723,0,0.00187828,0,0,0,0.0656489,-0.0246,0.588189,0,0,0,0,0,0
0.281086,0.000272187,-1.12037,0.000107977,2.21187,-0.000513181,0.627645,0.000558717,0.00197811,-0.0837168,0.000816834,-0.0368428,-0.00364703,0.120561,0.00399112,0,0,0,-0.032862,0,0.00190246,0,0,0,0.0656096,-0.0246,0.588191,0,0,0,0,0,0
0.282284,0.000274569,-1.12047,0.000108961,2.21183,-0.000517572,0.62779,0.000563523,0.00198735,-0.084039,0.0008212,-0.0370606,-0.00366267,0.121101,0.00400859,0,0,0,-0.0330012,0,0.0019269,0,0,0,0.06557,-0.0246,0.588194,0,0,0,0,0,0
0.283285,0.000276565,-1.12055,0.000109786,2.21179,-0.000521248,0.627912,0.000567547,0.0019952,-0.0843057,0.000824994,-0.0372447,-0.00367571,0.121552,0.0040232,0,0,0,-0.0331173,0,0.00194743,0,0,0,0.0655369,-0.0246,0.588196,0,0,0,0,0,0
0.284285,0.000278568,-1.12064,0.000110615,2.21175,-0.000524938,0.628034,0.000571586,0.00200293,-0.0845738,0.000828655,-0.0374276,-0.00368875,0.122003,0.00403778,0,0,0,-0.0332334,0,0.00196812,0,0,0,0.0655037,-0.0246,0.588197,0,0,0,0,0,0
0.285285,0.000280579,-1.12072,0.000111448,2.21171,-0.00052864,0.628156,0.000575638,0.00201067,-0.0848415,0.000832323,-0.0376109,-0.0037018,0.122454,0.00405236,0,0,0,-0.0333495,0,0.00198894,0,0,0,0.0654703,-0.0246,0.588199,0,0,0,0,0,0
0.286285,0.000282598,-1.12081,0.000112284,2.21168,-0.000532355,0.628279,0.000579706,0.00201841,-0.0851088,0.000835999,-0.0377948,-0.00371484,0.122905,0.00406694,0,0,0,-0.0334656,0,0.00200992,0,0,0,0.0654368,-0.0246,0.588201,0,0,0,0,0,0
0.287285,0.000284624,-1.12089,0.000113123,2.21164,-0.000536084,0.628403,0.000583788,0.00202616,-0.0853758,0.000839683,-0.0379792,-0.00372789,0.123357,0.00408152,0,0,0,-0.0335816,0,0.00203104,0,0,0,0.0654032,-0.0246,0.588204,0,0,0,0,0,0
0.288285,0.000286658,-1.12098,0.000113967,2.2116,-0.000539825,0.628526,0.000587884,0.00203392,-0.0856425,0.000843374,-0.0381642,-0.00374093,0.123808,0.0040961,0,0,0,-0.0336977,0,0.00205231,0,0,0,0.0653695,-0.0246,0.588206,0,0,0,0,0,0
0.289285,0.0002887,-1.12106,0.000114814,2.21156,-0.000543579,0.628651,0.000591995,0.00204168,-0.0859088,0.000847074,-0.0383497,-0.00375397,0.12426,0.00411069,0,0,0,-0.0338137,0,0.00207372,0,0,0,0.0653357,-0.0246,0.588208,0,0,0,0,0,0
0.290286,0.00029075,-1.12115,0.000115665,2.21152,-0.000547347,0.628775,0.000596121,0.00204945,-0.0861748,0.000850782,-0.0385357,-0.00376702,0.124712,0.00412528,0,0,0,-0.0339297,0,0.00209529,0,0,0,0.0653018,-0.0246,0.58821,0,0,0,0,0,0
0.291286,0.000292807,-1.12124,0.00011652,2.21149,-0.000551128,0.628901,0.000600262,0.00205723,-0.0864405,0.000854497,-0.0387223,-0.00378006,0.125164,0.00413987,0,0,0,-0.0340457,0,0.002117,0,0,0,0.0652677,-0.0246,0.588212,0,0,0,0,0,0
0.292286,0.000294873,-1.12132,0.000117378,2.21145,-0.000554921,0.629026,0.000604417,0.00206502,-0.0867057,0.000858221,-0.0389094,-0.0037931,0.125617,0.00415447,0,0,0,-0.0341617,0,0.00213886,0,0,0,0.0652336,-0.0246,0.588214,0,0,0,0,0,0
0.293286,0.000296946,-1.12141,0.00011824,2.21141,-0.000558728,0.629152,0.000608586,0.00207281,-0.0869707,0.000861952,-0.0390971,-0.00380614,0.126069,0.00416906,0,0,0,-0.0342777,0,0.00216088,0,0,0,0.0651993,-0.0246,0.588216,0,0,0,0,0,0
0.294304,0.000299064,-1.1215,0.000119121,2.21137,-0.000562616,0.629281,0.000612845,0.00208073,-0.0872401,0.000865744,-0.0392885,-0.00381941,0.12653,0.00418392,0,0,0,-0.0343957,0,0.00218343,0,0,0,0.0651643,-0.0246,0.588218,0,0,0,0,0,0
0.295304,0.000301153,-1.12159,0.000119991,2.21133,-0.000566449,0.629408,0.000617045,0.00208855,-0.0875041,0.000869506,-0.0394775,-0.00383245,0.126983,0.00419852,0,0,0,-0.0345117,0,0.00220575,0,0,0,0.0651298,-0.0246,0.588221,0,0,0,0,0,0
0.296304,0.000303249,-1.12167,0.000120864,2.21129,-0.000570295,0.629536,0.000621258,0.00209636,-0.087768,0.000873261,-0.0396668,-0.00384548,0.127436,0.00421312,0,0,0,-0.0346276,0,0.00222822,0,0,0,0.0650951,-0.0246,0.588223,0,0,0,0,0,0
0.297304,0.000305354,-1.12176,0.000121741,2.21125,-0.000574154,0.629663,0.000625486,0.00210418,-0.0880315,0.000877025,-0.0398567,-0.00385852,0.12789,0.00422773,0,0,0,-0.0347435,0,0.00225083,0,0,0,0.0650604,-0.0246,0.588225,0,0,0,0,0,0
0.298304,0.000307466,-1.12185,0.000122622,2.21121,-0.000578026,0.629792,0.000629729,0.00211201,-0.0882946,0.000880797,-0.0400471,-0.00387155,0.128343,0.00424233,0,0,0,-0.0348594,0,0.0022736,0,0,0,0.0650255,-0.0246,0.588227,0,0,0,0,0,0
0.299304,0.000309586,-1.12194,0.000123507,2.21117,-0.000581911,0.629921,0.000633986,0.00211984,-0.0885573,0.000884576,-0.0402381,-0.00388459,0.128797,0.00425694,0,0,0,-0.0349752,0,0.00229653,0,0,0,0.0649905,-0.0246,0.58823,0,0,0,0,0,0
0.300305,0.000311714,-1.12203,0.000124395,2.21113,-0.000585809,0.63005,0.000638258,0.00212768,-0.0888197,0.000888364,-0.0404296,-0.00389762,0.129251,0.00427155,0,0,0,-0.0350911,0,0.0023196,0,0,0,0.0649554,-0.0246,0.588232,0,0,0,0,0,0
0.301305,0.00031385,-1.12212,0.000125288,2.21109,-0.00058972,0.63018,0.000642545,0.00213553,-0.0890817,0.000892161,-0.0406217,-0.00391065,0.129705,0.00428616,0,0,0,-0.0352069,0,0.00234283,0,0,0,0.0649202,-0.0246,0.588234,0,0,0,0,0,0
0.302305,0.000315993,-1.12221,0.000126184,2.21105,-0.000593644,0.63031,0.000646846,0.00214338,-0.0893434,0.000895965,-0.0408144,-0.00392368,0.13016,0.00430078,0,0,0,-0.0353227,0,0.00236621,0,0,0,0.0648849,-0.0246,0.588237,0,0,0,0,0,0
0.303305,0.000318145,-1.1223,0.000127083,2.21101,-0.000597581,0.63044,0.000651162,0.00215124,-0.0896047,0.000899777,-0.0410076,-0.00393671,0.130614,0.0043154,0,0,0,-0.0354385,0,0.00238975,0,0,0,0.0648495,-0.0246,0.588239,0,0,0,0,0,0
0.304305,0.000320304,-1.12239,0.000127987,2.21096,-0.000601531,0.630571,0.000655493,0.00215911,-0.0898656,0.000903598,-0.0412014,-0.00394974,0.131069,0.00433001,0,0,0,-0.0355543,0,0.00241345,0,0,0,0.0648139,-0.0246,0.588241,0,0,0,0,0,0
0.305305,0.000322471,-1.12248,0.000128895,2.21092,-0.000605494,0.630703,0.000659838,0.00216698,-0.0901261,0.000907427,-0.0413957,-0.00396276,0.131524,0.00434463,0,0,0,-0.0356701,0,0.00243729,0,0,0,0.0647782,-0.0246,0.588244,0,0,0,0,0,0
0.306305,0.000324646,-1.12257,0.000129806,2.21088,-0.00060947,0.630835,0.000664197,0.00217486,-0.0903863,0.000911264,-0.0415906,-0.00397579,0.131979,0.00435926,0,0,0,-0.0357858,0,0.0024613,0,0,0,0.0647424,-0.0246,0.588246,0,0,0,0,0,0
0.307305,0.000326829,-1.12266,0.000130721,2.21084,-0.000613459,0.630967,0.000668572,0.00218275,-0.090646,0.00091511,-0.0417861,-0.00398881,0.132434,0.00437388,0,0,0,-0.0359016,0,0.00248546,0,0,0,0.0647065,-0.0246,0.588249,0,0,0,0,0,0
0.308305,0.00032902,-1.12275,0.00013164,2.2108,-0.000617462,0.6311,0.000672961,0.00219064,-0.0909054,0.000918964,-0.0419822,-0.00400184,0.132889,0.00438851,0,0,0,-0.0360173,0,0.00250978,0,0,0,0.0646705,-0.0246,0.588251,0,0,0,0,0,0
0.309305,0.000331219,-1.12284,0.000132563,2.21076,-0.000621477,0.631234,0.000677364,0.00219855,-0.0911645,0.000922826,-0.0421788,-0.00401486,0.133345,0.00440313,0,0,0,-0.036133,0,0.00253426,0,0,0,0.0646344,-0.0246,0.588254,0,0,0,0,0,0
0.310306,0.000333425,-1.12293,0.00013349,2.21071,-0.000625505,0.631367,0.000681782,0.00220646,-0.0914231,0.000926697,-0.042376,-0.00402788,0.133801,0.00441776,0,0,0,-0.0362486,0,0.00255889,0,0,0,0.0645981,-0.0246,0.588256,0,0,0,0,0,0
0.311316,0.000335663,-1.12302,0.00013443,2.21067,-0.000629589,0.631503,0.000686261,0.00221445,-0.0916841,0.000930607,-0.0425757,-0.00404103,0.134262,0.00443254,0,0,0,-0.0363655,0,0.00258395,0,0,0,0.0645614,-0.0246,0.588259,0,0,0,0,0,0
0.312316,0.000337886,-1.12312,0.000135365,2.21063,-0.000633643,0.631638,0.000690709,0.00222238,-0.0919419,0.000934503,-0.0427742,-0.00405405,0.134718,0.00444718,0,0,0,-0.0364811,0,0.0026089,0,0,0,0.0645249,-0.0246,0.588262,0,0,0,0,0,0
0.313316,0.000340116,-1.12321,0.000136303,2.21058,-0.000637711,0.631773,0.000695171,0.00223031,-0.0921994,0.000938399,-0.0429731,-0.00406707,0.135174,0.00446181,0,0,0,-0.0365967,0,0.00263401,0,0,0,0.0644883,-0.0246,0.588264,0,0,0,0,0,0
0.314316,0.000342355,-1.1233,0.000137246,2.21054,-0.000641791,0.631909,0.000699648,0.00223824,-0.0924564,0.000942304,-0.0431726,-0.00408008,0.135631,0.00447645,0,0,0,-0.0367123,0,0.00265929,0,0,0,0.0644516,-0.0246,0.588267,0,0,0,0,0,0
0.315316,0.000344601,-1.12339,0.000138192,2.2105,-0.000645885,0.632045,0.00070414,0.00224619,-0.0927131,0.000946217,-0.0433727,-0.00409309,0.136088,0.00449109,0,0,0,-0.0368279,0,0.00268472,0,0,0,0.0644147,-0.0246,0.58827,0,0,0,0,0,0
0.316317,0.000346856,-1.12349,0.000139142,2.21045,-0.000649991,0.632181,0.000708646,0.00225414,-0.0929694,0.000950138,-0.0435734,-0.0041061,0.136545,0.00450573,0,0,0,-0.0369435,0,0.00271032,0,0,0,0.0643778,-0.0246,0.588272,0,0,0,0,0,0
0.317317,0.000349118,-1.12358,0.000140097,2.21041,-0.000654111,0.632318,0.000713167,0.0022621,-0.0932253,0.000954068,-0.0437746,-0.00411911,0.137002,0.00452037,0,0,0,-0.037059,0,0.00273608,0,0,0,0.0643407,-0.0246,0.588275,0,0,0,0,0,0
0.318317,0.000351388,-1.12367,0.000141055,2.21037,-0.000658243,0.632456,0.000717702,0.00227006,-0.0934808,0.000958006,-0.0439765,-0.00413212,0.137459,0.00453501,0,0,0,-0.0371745,0,0.002762,0,0,0,0.0643035,-0.0246,0.588278,0,0,0,0,0,0
0.319317,0.000353666,-1.12377,0.000142017,2.21032,-0.000662389,0.632594,0.000722252,0.00227803,-0.0937359,0.000961953,-0.0441789,-0.00414513,0.137917,0.00454965,0,0,0,-0.03729,0,0.00278808,0,0,0,0.0642662,-0.0246,0.588281,0,0,0,0,0,0
0.320317,0.000355953,-1.12386,0.000142983,2.21028,-0.000666547,0.632732,0.000726817,0.00228601,-0.0939906,0.000965909,-0.0443819,-0.00415813,0.138375,0.0045643,0,0,0,-0.0374055,0,0.00281433,0,0,0,0.0642288,-0.0246,0.588283,0,0,0,0,0,0
0.321317,0.000358247,-1.12395,0.000143953,2.21023,-0.000670719,0.632871,0.000731396,0.002294,-0.0942449,0.000969873,-0.0445855,-0.00417114,0.138833,0.00457894,0,0,0,-0.037521,0,0.00284074,0,0,0,0.0641913,-0.0246,0.588286,0,0,0,0,0,0
0.322317,0.000360549,-1.12405,0.000144927,2.21019,-0.000674903,0.63301,0.00073599,0.00230199,-0.0944988,0.000973846,-0.0447897,-0.00418414,0.139291,0.00459359,0,0,0,-0.0376364,0,0.00286731,0,0,0,0.0641537,-0.0246,0.588289,0,0,0,0,0,0
0.323317,0.000362859,-1.12414,0.000145905,2.21014,-0.000679101,0.63315,0.000740599,0.00230999,-0.0947523,0.000977827,-0.0449945,-0.00419714,0.139749,0.00460824,0,0,0,-0.0377518,0,0.00289405,0,0,0,0.0641159,-0.0246,0.588292,0,0,0,0,0,0
0.324472,0.000365538,-1.12425,0.000147039,2.21009,-0.000683966,0.633312,0.000745941,0.00231912,-0.0950463,0.000982291,-0.0452299,-0.00421217,0.140278,0.00462512,0,0,0,-0.0378851,0,0.00292513,0,0,0,0.0640722,-0.0246,0.588295,0,0,0,0,0,0
0.326067,0.000369255,-1.12441,0.000148615,2.21002,-0.000690715,0.633537,0.000753353,0.00233156,-0.0954541,0.000988255,-0.0455534,-0.00423295,0.14101,0.00464837,0,0,0,-0.038069,0,0.00296841,0,0,0,0.0640115,-0.0246,0.5883,0,0,0,0,0,0
0.32731,0.000372167,-1.12452,0.00014985,2.20996,-0.000695998,0.633713,0.000759155,0.00234182,-0.0957631,0.000993579,-0.0458151,-0.00424905,0.14158,0.00466668,0,0,0,-0.0382124,0,0.00300245,0,0,0,0.0639639,-0.0246,0.588304,0,0,0,0,0,0
0.328966,0.000376067,-1.12468,0.000151506,2.20988,-0.00070307,0.633949,0.000766923,0.0023548,-0.0961842,0.000999849,-0.0461544,-0.00427062,0.142341,0.00469085,0,0,0,-0.0384033,0,0.00304819,0,0,0,0.0639003,-0.0246,0.588309,0,0,0,0,0,0
0.330208,0.000379005,-1.1248,0.000152755,2.20983,-0.000708395,0.634126,0.000772773,0.00236512,-0.0964906,0.00100527,-0.0464189,-0.00428669,0.142912,0.00470916,0,0,0,-0.0385465,0,0.0030828,0,0,0,0.0638525,-0.0246,0.588313,0,0,0,0,0,0
0.331398,0.000381829,-1.12492,0.000153956,2.20977,-0.000713513,0.634297,0.000778395,0.00237475,-0.0967875,0.00101014,-0.0466688,-0.00430213,0.143459,0.00472661,0,0,0,-0.0386836,0,0.00311619,0,0,0,0.0638064,-0.0246,0.588316,0,0,0,0,0,0
0.332502,0.000384461,-1.12503,0.000155077,2.20972,-0.000718278,0.634456,0.000783631,0.00238372,-0.0970621,0.0010147,-0.046902,-0.00431644,0.143967,0.00474281,0,0,0,-0.0388108,0,0.00314739,0,0,0,0.0637636,-0.0246,0.58832,0,0,0,0,0,0
0.333555,0.000386981,-1.12513,0.00015615,2.20967,-0.00072284,0.634608,0.000788644,0.00239226,-0.097324,0.00101904,-0.0471249,-0.00433011,0.144451,0.00475827,0,0,0,-0.0389321,0,0.00317736,0,0,0,0.0637226,-0.0246,0.588323,0,0,0,0,0,0
0.334788,0.000389942,-1.12525,0.000157412,2.20961,-0.000728197,0.634787,0.000794532,0.00240208,-0.0976329,0.00102389,-0.0473834,-0.00434613,0.145019,0.0047763,0,0,0,-0.039074,0,0.00321266,0,0,0,0.0636744,-0.0246,0.588327,0,0,0,0,0,0
0.336074,0.000393045,-1.12538,0.000158736,2.20955,-0.000733809,0.634974,0.0008007,0.00241244,-0.0979528,0.0010291,-0.0476559,-0.00436282,0.145611,0.00479514,0,0,0,-0.0392221,0,0.00324978,0,0,0,0.063624,-0.0246,0.588331,0,0,0,0,0,0
0.3373,0.000396014,-1.1255,0.000160003,2.20949,-0.000739175,0.635153,0.000806598,0.00242241,-0.0982555,0.00103419,-0.0479179,-0.00437871,0.146176,0.00481313,0,0,0,-0.0393632,0,0.0032854,0,0,0,0.0635757,-0.0246,0.588335,0,0,0,0,0,0
0.3383,0.000398445,-1.12559,0.000161042,2.20944,-0.000743567,0.6353,0.000811426,0.00243071,-0.0984998,0.00103853,-0.0481347,-0.00439164,0.146637,0.00482785,0,0,0,-0.0394782,0,0.00331467,0,0,0,0.0635362,-0.0246,0.588339,0,0,0,0,0,0
0.3393,0.000400884,-1.12569,0.000162085,2.2094,-0.000747972,0.635447,0.000816269,0.00243882,-0.0987465,0.00104265,-0.0483492,-0.00440461,0.147098,0.00484252,0,0,0,-0.0395933,0,0.00334411,0,0,0,0.0634966,-0.0246,0.588342,0,0,0,0,0,0
0.3403,0.000403331,-1.12579,0.000163132,2.20935,-0.00075239,0.635595,0.000821127,0.00244694,-0.0989928,0.00104679,-0.0485643,-0.00441757,0.14756,0.00485719,0,0,0,-0.0397083,0,0.00337372,0,0,0,0.0634569,-0.0246,0.588345,0,0,0,0,0,0
0.3413,0.000405786,-1.12589,0.000164183,2.2093,-0.000756821,0.635743,0.000825999,0.00245507,-0.0992387,0.00105093,-0.04878,-0.00443053,0.148021,0.00487185,0,0,0,-0.0398233,0,0.0034035,0,0,0,0.0634171,-0.0246,0.588349,0,0,0,0,0,0
0.3423,0.00040825,-1.12599,0.000165238,2.20925,-0.000761265,0.635891,0.000830886,0.00246321,-0.0994841,0.00105508,-0.0489964,-0.00444349,0.148483,0.00488652,0,0,0,-0.0399383,0,0.00343346,0,0,0,0.0633771,-0.0246,0.588352,0,0,0,0,0,0
0.3433,0.000410721,-1.12609,0.000166297,2.2092,-0.000765722,0.63604,0.000835788,0.00247135,-0.0997291,0.00105923,-0.0492134,-0.00445644,0.148945,0.00490119,0,0,0,-0.0400533,0,0.00346359,0,0,0,0.0633371,-0.0246,0.588356,0,0,0,0,0,0
0.344303,0.000413207,-1.12619,0.000167363,2.20915,-0.000770203,0.63619,0.000840717,0.00247952,-0.0999742,0.00106341,-0.0494315,-0.00446943,0.149408,0.0049159,0,0,0,-0.0401685,0,0.00349398,0,0,0,0.0632968,-0.0246,0.588359,0,0,0,0,0,0
0.345303,0.000415695,-1.12629,0.000168431,2.2091,-0.000774686,0.63634,0.000845648,0.00248768,-0.100218,0.00106759,-0.0496497,-0.00448238,0.149871,0.00493057,0,0,0,-0.0402834,0,0.00352446,0,0,0,0.0632565,-0.0246,0.588363,0,0,0,0,0,0
0.346303,0.000418191,-1.12639,0.000169503,2.20905,-0.000779181,0.63649,0.000850593,0.00249585,-0.100462,0.00107178,-0.0498686,-0.00449533,0.150333,0.00494524,0,0,0,-0.0403983,0,0.00355512,0,0,0,0.0632161,-0.0246,0.588366,0,0,0,0,0,0
0.347303,0.000420696,-1.12649,0.000170579,2.209,-0.000783691,0.636641,0.000855554,0.00250402,-0.100705,0.00107597,-0.0500881,-0.00450827,0.150796,0.00495992,0,0,0,-0.0405131,0,0.00358596,0,0,0,0.0631756,-0.0246,0.58837,0,0,0,0,0,0
0.348303,0.000423208,-1.12659,0.000171659,2.20895,-0.000788212,0.636792,0.000860529,0.0025122,-0.100948,0.00108018,-0.0503082,-0.00452121,0.151259,0.00497459,0,0,0,-0.040628,0,0.00361697,0,0,0,0.063135,-0.0246,0.588373,0,0,0,0,0,0
0.349303,0.000425729,-1.12669,0.000172744,2.2089,-0.000792747,0.636944,0.00086552,0.00252039,-0.10119,0.00108439,-0.050529,-0.00453415,0.151722,0.00498926,0,0,0,-0.0407428,0,0.00364817,0,0,0,0.0630942,-0.0246,0.588377,0,0,0,0,0,0
0.350304,0.000428258,-1.1268,0.000173833,2.20885,-0.000797295,0.637096,0.000870525,0.00252858,-0.101432,0.00108861,-0.0507504,-0.00454709,0.152185,0.00500394,0,0,0,-0.0408575,0,0.00367954,0,0,0,0.0630533,-0.0246,0.588381,0,0,0,0,0,0
0.351304,0.000430795,-1.1269,0.000174926,2.2088,-0.000801856,0.637249,0.000875544,0.00253678,-0.101673,0.00109285,-0.0509725,-0.00456003,0.152649,0.00501861,0,0,0,-0.0409723,0,0.00371109,0,0,0,0.0630124,-0.0246,0.588384,0,0,0,0,0,0
0.352304,0.000433341,-1.127,0.000176023,2.20875,-0.00080643,0.637402,0.000880578,0.00254499,-0.101914,0.00109709,-0.0511951,-0.00457296,0.153112,0.00503329,0,0,0,-0.041087,0,0.00374282,0,0,0,0.0629713,-0.0246,0.588388,0,0,0,0,0,0
0.353304,0.000435894,-1.1271,0.000177124,2.2087,-0.000811016,0.637556,0.000885626,0.00255321,-0.102155,0.00110134,-0.0514184,-0.00458588,0.153576,0.00504796,0,0,0,-0.0412017,0,0.00377472,0,0,0,0.0629301,-0.0246,0.588392,0,0,0,0,0,0
0.354304,0.000438456,-1.1272,0.00017823,2.20864,-0.000815615,0.63771,0.00089069,0.00256143,-0.102395,0.0011056,-0.0516424,-0.00459881,0.15404,0.00506264,0,0,0,-0.0413164,0,0.00380681,0,0,0,0.0628887,-0.0246,0.588396,0,0,0,0,0,0
0.355304,0.000441026,-1.12731,0.00017934,2.20859,-0.000820228,0.637864,0.000895767,0.00256966,-0.102634,0.00110987,-0.051867,-0.00461173,0.154504,0.00507731,0,0,0,-0.041431,0,0.00383907,0,0,0,0.0628473,-0.0246,0.5884,0,0,0,0,0,0
0.356304,0.000443604,-1.12741,0.000180454,2.20854,-0.000824853,0.638019,0.00090086,0.0025779,-0.102873,0.00111415,-0.0520922,-0.00462465,0.154968,0.00509199,0,0,0,-0.0415456,0,0.00387152,0,0,0,0.0628058,-0.0246,0.588404,0,0,0,0,0,0
0.357305,0.000446191,-1.12751,0.000181573,2.20849,-0.000829491,0.638175,0.000905967,0.00258614,-0.103112,0.00111843,-0.0523181,-0.00463756,0.155433,0.00510666,0,0,0,-0.0416602,0,0.00390415,0,0,0,0.0627641,-0.0246,0.588407,0,0,0,0,0,0
0.358305,0.000448785,-1.12762,0.000182696,2.20843,-0.000834142,0.63833,0.000911089,0.0025944,-0.10335,0.00112273,-0.0525446,-0.00465047,0.155897,0.00512134,0,0,0,-0.0417748,0,0.00393696,0,0,0,0.0627223,-0.0246,0.588411,0,0,0,0,0,0
0.359305,0.000451388,-1.12772,0.000183823,2.20838,-0.000838805,0.638487,0.000916225,0.00260266,-0.103587,0.00112704,-0.0527718,-0.00466338,0.156362,0.00513601,0,0,0,-0.0418893,0,0.00396995,0,0,0,0.0626804,-0.0246,0.588415,0,0,0,0,0,0
0.360305,0.000453999,-1.12782,0.000184954,2.20833,-0.000843482,0.638644,0.000921377,0.00261092,-0.103824,0.00113135,-0.0529996,-0.00467629,0.156827,0.00515069,0,0,0,-0.0420038,0,0.00400313,0,0,0,0.0626384,-0.0246,0.588419,0,0,0,0,0,0
0.361305,0.000456619,-1.12793,0.00018609,2.20828,-0.000848172,0.638801,0.000926543,0.00261919,-0.104061,0.00113568,-0.0532281,-0.00468919,0.157292,0.00516536,0,0,0,-0.0421182,0,0.00403649,0,0,0,0.0625963,-0.0246,0.588423,0,0,0,0,0,0
0.362305,0.000459247,-1.12803,0.00018723,2.20822,-0.000852874,0.638959,0.000931723,0.00262748,-0.104297,0.00114001,-0.0534572,-0.00470209,0.157758,0.00518004,0,0,0,-0.0422327,0,0.00407003,0,0,0,0.062554,-0.0246,0.588427,0,0,0,0,0,0
0.363305,0.000461883,-1.12814,0.000188375,2.20817,-0.00085759,0.639117,0.000936918,0.00263576,-0.104533,0.00114436,-0.0536869,-0.00471498,0.158223,0.00519471,0,0,0,-0.0423471,0,0.00410376,0,0,0,0.0625117,-0.0246,0.588432,0,0,0,0,0,0
0.364305,0.000464527,-1.12824,0.000189524,2.20811,-0.000862318,0.639276,0.000942128,0.00264406,-0.104768,0.00114871,-0.0539174,-0.00472787,0.158689,0.00520939,0,0,0,-0.0424614,0,0.00413767,0,0,0,0.0624692,-0.0246,0.588436,0,0,0,0,0,0
0.365305,0.00046718,-1.12835,0.000190677,2.20806,-0.000867059,0.639435,0.000947353,0.00265236,-0.105003,0.00115308,-0.0541485,-0.00474076,0.159154,0.00522406,0,0,0,-0.0425758,0,0.00417177,0,0,0,0.0624266,-0.0246,0.58844,0,0,0,0,0,0
0.366305,0.00046984,-1.12845,0.000191834,2.20801,-0.000871814,0.639594,0.000952592,0.00266067,-0.105237,0.00115745,-0.0543802,-0.00475365,0.15962,0.00523874,0,0,0,-0.0426901,0,0.00420605,0,0,0,0.0623839,-0.0246,0.588444,0,0,0,0,0,0
0.367306,0.00047251,-1.12856,0.000192996,2.20795,-0.000876581,0.639755,0.000957846,0.00266899,-0.105471,0.00116183,-0.0546126,-0.00476653,0.160087,0.00525341,0,0,0,-0.0428044,0,0.00424052,0,0,0,0.0623411,-0.0246,0.588448,0,0,0,0,0,0
0.368306,0.000475187,-1.12866,0.000194163,2.2079,-0.00088136,0.639915,0.000963115,0.00267731,-0.105704,0.00116622,-0.0548457,-0.0047794,0.160553,0.00526808,0,0,0,-0.0429186,0,0.00427518,0,0,0,0.0622982,-0.0246,0.588453,0,0,0,0,0,0
0.369306,0.000477873,-1.12877,0.000195333,2.20784,-0.000886153,0.640076,0.000968398,0.00268564,-0.105937,0.00117062,-0.0550794,-0.00479228,0.161019,0.00528276,0,0,0,-0.0430329,0,0.00431002,0,0,0,0.0622552,-0.0246,0.588457,0,0,0,0,0,0
0.370306,0.000480567,-1.12887,0.000196509,2.20779,-0.000890959,0.640238,0.000973696,0.00269398,-0.106169,0.00117503,-0.0553138,-0.00480515,0.161486,0.00529743,0,0,0,-0.043147,0,0.00434506,0,0,0,0.062212,-0.0246,0.588461,0,0,0,0,0,0
0.371306,0.00048327,-1.12898,0.000197688,2.20773,-0.000895777,0.6404,0.000979008,0.00270233,-0.106401,0.00117945,-0.0555488,-0.00481801,0.161953,0.0053121,0,0,0,-0.0432612,0,0.00438028,0,0,0,0.0621688,-0.0246,0.588466,0,0,0,0,0,0
0.372501,0.000486512,-1.12911,0.000199104,2.20766,-0.000901556,0.640594,0.00098538,0.00271212,-0.10668,0.00118451,-0.0558277,-0.00483343,0.162511,0.00532959,0,0,0,-0.0433976,0,0.00442263,0,0,0,0.0621169,-0.0246,0.588471,0,0,0,0,0,0
0.373707,0.000489795,-1.12924,0.000200539,2.2076,-0.000907404,0.640791,0.000991829,0.00272219,-0.106958,0.00118985,-0.0561128,-0.00484894,0.163075,0.00534727,0,0,0,-0.0435352,0,0.00446562,0,0,0,0.0620644,-0.0246,0.588476,0,0,0,0,0,0
0.37501,0.000493356,-1.12938,0.000202097,2.20752,-0.000913744,0.641004,0.000998821,0.002733,-0.10726,0.00119553,-0.0564206,-0.00486571,0.163684,0.00536636,0,0,0,-0.0436838,0,0.00451238,0,0,0,0.0620074,-0.0246,0.588482,0,0,0,0,0,0
0.376278,0.000496833,-1.12951,0.000203619,2.20745,-0.00091993,0.641212,0.00100565,0.00274365,-0.107549,0.00120124,-0.056723,-0.00488198,0.164276,0.00538496,0,0,0,-0.0438282,0,0.00455817,0,0,0,0.0619519,-0.0246,0.588488,0,0,0,0,0,0
0.377586,0.000500437,-1.12965,0.000205198,2.20738,-0.000926339,0.641428,0.00101272,0.00275459,-0.107849,0.00120704,-0.0570352,-0.00489879,0.164888,0.00540413,0,0,0,-0.0439773,0,0.00460577,0,0,0,0.0618944,-0.0246,0.588494,0,0,0,0,0,0
0.378985,0.000504308,-1.12981,0.000206896,2.2073,-0.00093322,0.641659,0.00102031,0.00276625,-0.10817,0.00121321,-0.0573697,-0.00491677,0.165543,0.00542463,0,0,0,-0.0441367,0,0.00465705,0,0,0,0.0618326,-0.0246,0.5885,0,0,0,0,0,0
0.379986,0.000507084,-1.12991,0.000208115,2.20724,-0.00093815,0.641825,0.00102575,0.00277506,-0.10839,0.00121823,-0.057617,-0.0049295,0.166011,0.0054394,0,0,0,-0.0442506,0,0.00469392,0,0,0,0.0617883,-0.0246,0.588505,0,0,0,0,0,0
0.380986,0.000509867,-1.13002,0.000209337,2.20718,-0.000943093,0.641992,0.0010312,0.00278348,-0.108617,0.00122274,-0.0578585,-0.00494233,0.166479,0.00545406,0,0,0,-0.0443644,0,0.00473099,0,0,0,0.061744,-0.0246,0.58851,0,0,0,0,0,0
0.381986,0.00051266,-1.13013,0.000210565,2.20712,-0.000948049,0.642159,0.00103667,0.0027919,-0.108843,0.00122726,-0.0581008,-0.00495515,0.166948,0.00546872,0,0,0,-0.0444782,0,0.00476825,0,0,0,0.0616995,-0.0246,0.588515,0,0,0,0,0,0
0.382986,0.000515461,-1.13024,0.000211797,2.20706,-0.000953018,0.642326,0.00104216,0.00280033,-0.109069,0.0012318,-0.0583437,-0.00496796,0.167417,0.00548339,0,0,0,-0.044592,0,0.0048057,0,0,0,0.0616549,-0.0246,0.588519,0,0,0,0,0,0
0.383986,0.00051827,-1.13035,0.000213033,2.20701,-0.000957999,0.642494,0.00104765,0.00280877,-0.109294,0.00123634,-0.0585874,-0.00498078,0.167885,0.00549805,0,0,0,-0.0447057,0,0.00484336,0,0,0,0.0616102,-0.0246,0.588524,0,0,0,0,0,0
0.384986,0.000521087,-1.13046,0.000214274,2.20695,-0.000962993,0.642663,0.00105317,0.00281722,-0.109519,0.00124089,-0.0588316,-0.00499359,0.168354,0.00551271,0,0,0,-0.0448194,0,0.0048812,0,0,0,0.0615653,-0.0246,0.588529,0,0,0,0,0,0
0.385986,0.000523913,-1.13057,0.00021552,2.20689,-0.000968,0.642832,0.0010587,0.00282567,-0.109743,0.00124546,-0.0590766,-0.00500639,0.168824,0.00552736,0,0,0,-0.0449331,0,0.00491924,0,0,0,0.0615204,-0.0246,0.588534,0,0,0,0,0,0
0.386986,0.000526748,-1.13068,0.00021677,2.20683,-0.00097302,0.643001,0.00106424,0.00283413,-0.109967,0.00125003,-0.0593223,-0.00501919,0.169293,0.00554202,0,0,0,-0.0450467,0,0.00495747,0,0,0,0.0614753,-0.0246,0.588539,0,0,0,0,0,0
0.387987,0.000529591,-1.13079,0.000218025,2.20677,-0.000978053,0.643171,0.0010698,0.00284259,-0.11019,0.00125461,-0.0595687,-0.00503199,0.169762,0.00555668,0,0,0,-0.0451603,0,0.00499591,0,0,0,0.0614302,-0.0246,0.588544,0,0,0,0,0,0
0.388987,0.000532443,-1.1309,0.000219285,2.20671,-0.000983099,0.643341,0.00107537,0.00285107,-0.110412,0.0012592,-0.0598157,-0.00504478,0.170232,0.00557133,0,0,0,-0.0452739,0,0.00503454,0,0,0,0.0613849,-0.0246,0.588549,0,0,0,0,0,0
0.389987,0.000535303,-1.13101,0.000220549,2.20665,-0.000988157,0.643512,0.00108096,0.00285955,-0.110634,0.00126381,-0.0600635,-0.00505756,0.170702,0.00558598,0,0,0,-0.0453874,0,0.00507337,0,0,0,0.0613395,-0.0246,0.588554,0,0,0,0,0,0
0.390987,0.000538171,-1.13112,0.000221817,2.20659,-0.000993228,0.643683,0.00108656,0.00286803,-0.110856,0.00126842,-0.0603119,-0.00507034,0.171172,0.00560063,0,0,0,-0.0455009,0,0.00511239,0,0,0,0.061294,-0.0246,0.588559,0,0,0,0,0,0
0.391987,0.000541048,-1.13123,0.00022309,2.20653,-0.000998312,0.643855,0.00109217,0.00287653,-0.111077,0.00127304,-0.060561,-0.00508312,0.171642,0.00561528,0,0,0,-0.0456143,0,0.00515161,0,0,0,0.0612484,-0.0246,0.588564,0,0,0,0,0,0
0.392987,0.000543933,-1.13134,0.000224368,2.20647,-0.00100341,0.644027,0.0010978,0.00288503,-0.111297,0.00127767,-0.0608108,-0.00509589,0.172112,0.00562993,0,0,0,-0.0457277,0,0.00519103,0,0,0,0.0612026,-0.0246,0.58857,0,0,0,0,0,0
0.393988,0.000546828,-1.13146,0.000225651,2.20641,-0.00100852,0.644199,0.00110345,0.00289354,-0.111517,0.00128231,-0.0610613,-0.00510865,0.172582,0.00564458,0,0,0,-0.0458411,0,0.00523066,0,0,0,0.0611568,-0.0246,0.588575,0,0,0,0,0,0
0.394988,0.00054973,-1.13157,0.000226938,2.20634,-0.00101364,0.644372,0.00110911,0.00290206,-0.111736,0.00128697,-0.0613125,-0.00512141,0.173053,0.00565922,0,0,0,-0.0459544,0,0.00527047,0,0,0,0.0611108,-0.0246,0.58858,0,0,0,0,0,0
0.395988,0.000552641,-1.13168,0.00022823,2.20628,-0.00101877,0.644546,0.00111478,0.00291058,-0.111955,0.00129163,-0.0615644,-0.00513417,0.173524,0.00567386,0,0,0,-0.0460677,0,0.00531049,0,0,0,0.0610647,-0.0246,0.588585,0,0,0,0,0,0
0.396988,0.00055556,-1.13179,0.000229526,2.20622,-0.00102392,0.64472,0.00112047,0.00291911,-0.112173,0.0012963,-0.0618171,-0.00514692,0.173994,0.0056885,0,0,0,-0.046181,0,0.00535072,0,0,0,0.0610185,-0.0246,0.588591,0,0,0,0,0,0
0.397988,0.000558488,-1.1319,0.000230827,2.20616,-0.00102908,0.644894,0.00112618,0.00292765,-0.112391,0.00130098,-0.0620704,-0.00515966,0.174465,0.00570314,0,0,0,-0.0462942,0,0.00539114,0,0,0,0.0609722,-0.0246,0.588596,0,0,0,0,0,0
0.398988,0.000561425,-1.13202,0.000232133,2.2061,-0.00103426,0.645069,0.0011319,0.00293619,-0.112608,0.00130567,-0.0623244,-0.0051724,0.174936,0.00571777,0,0,0,-0.0464074,0,0.00543176,0,0,0,0.0609258,-0.0246,0.588602,0,0,0,0,0,0
0.399988,0.00056437,-1.13213,0.000233444,2.20603,-0.00103944,0.645245,0.00113763,0.00294474,-0.112824,0.00131037,-0.0625791,-0.00518513,0.175408,0.00573241,0,0,0,-0.0465205,0,0.00547259,0,0,0,0.0608793,-0.0246,0.588607,0,0,0,0,0,0
0.400989,0.000567324,-1.13224,0.000234759,2.20597,-0.00104464,0.645421,0.00114338,0.0029533,-0.11304,0.00131509,-0.0628345,-0.00519786,0.175879,0.00574704,0,0,0,-0.0466336,0,0.00551362,0,0,0,0.0608326,-0.0246,0.588612,0,0,0,0,0,0
0.401989,0.000570287,-1.13236,0.000236079,2.20591,-0.00104985,0.645597,0.00114914,0.00296187,-0.113256,0.00131981,-0.0630907,-0.00521059,0.176351,0.00576167,0,0,0,-0.0467467,0,0.00555485,0,0,0,0.0607859,-0.0246,0.588618,0,0,0,0,0,0
0.402989,0.000573258,-1.13247,0.000237404,2.20584,-0.00105508,0.645774,0.00115492,0.00297044,-0.11347,0.00132454,-0.0633475,-0.0052233,0.176822,0.0057763,0,0,0,-0.0468597,0,0.00559629,0,0,0,0.060739,-0.0246,0.588624,0,0,0,0,0,0
0.403989,0.000576237,-1.13258,0.000238734,2.20578,-0.00106031,0.645951,0.00116071,0.00297902,-0.113685,0.00132928,-0.0636051,-0.00523602,0.177294,0.00579092,0,0,0,-0.0469727,0,0.00563792,0,0,0,0.060692,-0.0246,0.588629,0,0,0,0,0,0
0.404989,0.000579225,-1.1327,0.000240068,2.20572,-0.00106556,0.646129,0.00116652,0.00298761,-0.113898,0.00133403,-0.0638633,-0.00524872,0.177766,0.00580554,0,0,0,-0.0470856,0,0.00567976,0,0,0,0.0606449,-0.0246,0.588635,0,0,0,0,0,0
0.40599,0.000582222,-1.13281,0.000241407,2.20565,-0.00107083,0.646307,0.00117234,0.0029962,-0.114111,0.0013388,-0.0641223,-0.00526142,0.178238,0.00582016,0,0,0,-0.0471985,0,0.00572181,0,0,0,0.0605977,-0.0246,0.588641,0,0,0,0,0,0
0.40699,0.000585227,-1.13293,0.000242751,2.20559,-0.0010761,0.646486,0.00117817,0.0030048,-0.114324,0.00134357,-0.064382,-0.00527412,0.17871,0.00583478,0,0,0,-0.0473114,0,0.00576407,0,0,0,0.0605504,-0.0246,0.588646,0,0,0,0,0,0
0.407998,0.000588264,-1.13304,0.000244109,2.20552,-0.00108143,0.646667,0.00118407,0.00301346,-0.114538,0.00134837,-0.0646442,-0.00528691,0.179186,0.0058495,0,0,0,-0.047425,0,0.00580685,0,0,0,0.0605026,-0.0246,0.588652,0,0,0,0,0,0
0.408998,0.000591287,-1.13316,0.000245463,2.20546,-0.00108673,0.646846,0.00118993,0.00302209,-0.114749,0.00135318,-0.0649054,-0.00529959,0.179659,0.00586411,0,0,0,-0.0475378,0,0.00584952,0,0,0,0.0604551,-0.0246,0.588658,0,0,0,0,0,0
0.409998,0.000594318,-1.13327,0.000246821,2.20539,-0.00109204,0.647026,0.00119581,0.00303071,-0.114959,0.00135798,-0.0651673,-0.00531226,0.180131,0.00587872,0,0,0,-0.0476505,0,0.00589239,0,0,0,0.0604074,-0.0246,0.588664,0,0,0,0,0,0
0.410998,0.000597358,-1.13339,0.000248184,2.20533,-0.00109737,0.647207,0.00120171,0.00303934,-0.11517,0.00136279,-0.0654298,-0.00532493,0.180604,0.00589333,0,0,0,-0.0477632,0,0.00593547,0,0,0,0.0603596,-0.0246,0.58867,0,0,0,0,0,0
0.411998,0.000600406,-1.1335,0.000249552,2.20526,-0.00110271,0.647388,0.00120762,0.00304797,-0.115379,0.00136762,-0.0656931,-0.0053376,0.181077,0.00590793,0,0,0,-0.0478759,0,0.00597876,0,0,0,0.0603118,-0.0246,0.588676,0,0,0,0,0,0
0.412998,0.000603463,-1.13362,0.000250924,2.2052,-0.00110806,0.64757,0.00121354,0.00305662,-0.115588,0.00137245,-0.0659571,-0.00535026,0.18155,0.00592253,0,0,0,-0.0479884,0,0.00602225,0,0,0,0.0602638,-0.0246,0.588682,0,0,0,0,0,0
0.413998,0.000606529,-1.13373,0.000252302,2.20513,-0.00111342,0.647752,0.00121948,0.00306527,-0.115797,0.00137729,-0.0662217,-0.00536291,0.182023,0.00593712,0,0,0,-0.048101,0,0.00606596,0,0,0,0.0602157,-0.0246,0.588688,0,0,0,0,0,0
0.414998,0.000609603,-1.13385,0.000253684,2.20506,-0.0011188,0.647934,0.00122543,0.00307392,-0.116004,0.00138214,-0.0664872,-0.00537555,0.182496,0.00595172,0,0,0,-0.0482135,0,0.00610987,0,0,0,0.0601674,-0.0246,0.588694,0,0,0,0,0,0
0.415998,0.000612686,-1.13396,0.000255071,2.205,-0.00112419,0.648117,0.0012314,0.00308258,-0.116212,0.00138701,-0.0667533,-0.00538819,0.18297,0.00596631,0,0,0,-0.0483259,0,0.00615399,0,0,0,0.0601191,-0.0246,0.5887,0,0,0,0,0,0
0.416999,0.000615777,-1.13408,0.000256463,2.20493,-0.00112959,0.648301,0.00123738,0.00309125,-0.116418,0.00139188,-0.0670201,-0.00540083,0.183443,0.00598089,0,0,0,-0.0484383,0,0.00619832,0,0,0,0.0600707,-0.0246,0.588706,0,0,0,0,0,0
0.417999,0.000618878,-1.1342,0.00025786,2.20486,-0.001135,0.648485,0.00124337,0.00309993,-0.116624,0.00139676,-0.0672877,-0.00541345,0.183917,0.00599548,0,0,0,-0.0485507,0,0.00624286,0,0,0,0.0600221,-0.0246,0.588713,0,0,0,0,0,0
0.418999,0.000621987,-1.13431,0.000259262,2.2048,-0.00114043,0.648669,0.00124938,0.00310861,-0.116829,0.00140166,-0.0675561,-0.00542607,0.184391,0.00601006,0,0,0,-0.048663,0,0.00628762,0,0,0,0.0599734,-0.0246,0.588719,0,0,0,0,0,0
0.42002,0.00062517,-1.13443,0.000260698,2.20473,-0.00114598,0.648858,0.00125554,0.00311746,-0.117039,0.00140663,-0.0678303,-0.00543896,0.184874,0.00602493,0,0,0,-0.0487777,0,0.00633352,0,0,0,0.0599236,-0.0246,0.588725,0,0,0,0,0,0
0.42102,0.000628296,-1.13455,0.00026211,2.20466,-0.00115143,0.649043,0.00126158,0.00312618,-0.117243,0.00141158,-0.0681005,-0.00545156,0.185348,0.00603951,0,0,0,-0.0488899,0,0.0063787,0,0,0,0.0598747,-0.0246,0.588732,0,0,0,0,0,0
0.42202,0.000631431,-1.13467,0.000263527,2.20459,-0.0011569,0.649229,0.00126763,0.00313489,-0.117446,0.0014165,-0.068371,-0.00546416,0.185822,0.00605408,0,0,0,-0.0490021,0,0.0064241,0,0,0,0.0598257,-0.0246,0.588738,0,0,0,0,0,0
0.42302,0.000634575,-1.13479,0.000264948,2.20452,-0.00116238,0.649415,0.0012737,0.0031436,-0.117649,0.00142144,-0.0686423,-0.00547675,0.186297,0.00606864,0,0,0,-0.0491142,0,0.0064697,0,0,0,0.0597766,-0.0246,0.588745,0,0,0,0,0,0
0.42402,0.000637728,-1.1349,0.000266375,2.20445,-0.00116787,0.649602,0.00127978,0.00315231,-0.117851,0.00142638,-0.0689143,-0.00548934,0.186771,0.00608321,0,0,0,-0.0492263,0,0.00651552,0,0,0,0.0597274,-0.0246,0.588751,0,0,0,0,0,0
0.42502,0.000640889,-1.13502,0.000267806,2.20438,-0.00117337,0.64979,0.00128588,0.00316104,-0.118053,0.00143134,-0.069187,-0.00550192,0.187245,0.00609776,0,0,0,-0.0493383,0,0.00656155,0,0,0,0.059678,-0.0246,0.588758,0,0,0,0,0,0
0.426021,0.000644059,-1.13514,0.000269243,2.20431,-0.00117888,0.649977,0.00129199,0.00316977,-0.118254,0.0014363,-0.0694604,-0.00551449,0.18772,0.00611232,0,0,0,-0.0494503,0,0.0066078,0,0,0,0.0596286,-0.0246,0.588764,0,0,0,0,0,0
0.427021,0.000647238,-1.13526,0.000270684,2.20424,-0.00118441,0.650165,0.00129812,0.00317851,-0.118455,0.00144128,-0.0697346,-0.00552705,0.188194,0.00612687,0,0,0,-0.0495623,0,0.00665426,0,0,0,0.059579,-0.0246,0.588771,0,0,0,0,0,0
0.428021,0.000650426,-1.13538,0.000272131,2.20417,-0.00118995,0.650354,0.00130427,0.00318725,-0.118654,0.00144626,-0.0700096,-0.00553961,0.188669,0.00614141,0,0,0,-0.0496742,0,0.00670094,0,0,0,0.0595293,-0.0246,0.588778,0,0,0,0,0,0
0.429179,0.000654129,-1.13552,0.000273812,2.20409,-0.00119638,0.650573,0.0013114,0.00319719,-0.118889,0.00145179,-0.0703257,-0.00555421,0.18922,0.00615822,0,0,0,-0.0498037,0,0.00675526,0,0,0,0.0594716,-0.0246,0.588786,0,0,0,0,0,0
0.430179,0.000657336,-1.13563,0.000275269,2.20402,-0.00120195,0.650763,0.00131757,0.00320615,-0.119084,0.00145706,-0.0706054,-0.00556669,0.189694,0.00617279,0,0,0,-0.0499155,0,0.00680241,0,0,0,0.0594217,-0.0246,0.588792,0,0,0,0,0,0
0.431179,0.000660551,-1.13575,0.000276732,2.20395,-0.00120753,0.650953,0.00132376,0.00321491,-0.119281,0.00146208,-0.0708827,-0.00557923,0.190169,0.00618732,0,0,0,-0.0500272,0,0.00684976,0,0,0,0.0593717,-0.0246,0.588799,0,0,0,0,0,0
0.432179,0.000663775,-1.13587,0.000278199,2.20388,-0.00121312,0.651144,0.00132996,0.00322368,-0.119479,0.0014671,-0.0711607,-0.00559175,0.190645,0.00620185,0,0,0,-0.0501389,0,0.00689734,0,0,0,0.0593215,-0.0246,0.588806,0,0,0,0,0,0
0.433179,0.000667008,-1.13599,0.000279671,2.20381,-0.00121873,0.651335,0.00133618,0.00323246,-0.119675,0.00147214,-0.0714394,-0.00560427,0.19112,0.00621638,0,0,0,-0.0502505,0,0.00694513,0,0,0,0.0592712,-0.0246,0.588813,0,0,0,0,0,0
0.43418,0.000670249,-1.13611,0.000281148,2.20374,-0.00122435,0.651527,0.00134241,0.00324125,-0.119871,0.00147719,-0.0717189,-0.00561679,0.191595,0.00623089,0,0,0,-0.0503621,0,0.00699314,0,0,0,0.0592209,-0.0246,0.58882,0,0,0,0,0,0
0.43518,0.0006735,-1.13623,0.000282631,2.20366,-0.00122998,0.651719,0.00134866,0.00325004,-0.120066,0.00148225,-0.0719991,-0.00562929,0.192071,0.00624541,0,0,0,-0.0504736,0,0.00704137,0,0,0,0.0591704,-0.0246,0.588827,0,0,0,0,0,0
0.43618,0.000676759,-1.13635,0.000284118,2.20359,-0.00123562,0.651911,0.00135492,0.00325884,-0.120261,0.00148732,-0.0722801,-0.00564179,0.192547,0.00625992,0,0,0,-0.0505851,0,0.00708982,0,0,0,0.0591198,-0.0246,0.588834,0,0,0,0,0,0
0.43718,0.000680027,-1.13647,0.000285611,2.20352,-0.00124127,0.652104,0.00136119,0.00326765,-0.120455,0.0014924,-0.0725619,-0.00565428,0.193022,0.00627443,0,0,0,-0.0506966,0,0.00713849,0,0,0,0.0590691,-0.0246,0.588841,0,0,0,0,0,0
0.43818,0.000683304,-1.13659,0.000287109,2.20345,-0.00124694,0.652298,0.00136748,0.00327646,-0.120648,0.00149749,-0.0728444,-0.00566676,0.193498,0.00628893,0,0,0,-0.0508079,0,0.00718738,0,0,0,0.0590183,-0.0246,0.588848,0,0,0,0,0,0
