Kcygt/SemiCircleKinovaTest_Cpp/x64/Debug/data.csv
t,q1,q2,q3,q4,q5,q6,q7,qp1,qp2,qp3,qp4,qp5,qp6,qp7,xd,yd,zd,vxd,vyd,vzd,wxd,wyd,wzd,x,y,z,vx,vy,vz,wx,wy,wz
0.0077537,4.01849e-07,-1.1083,1.52585e-07,2.21656,-7.75113e-07,0.61089,8.39449e-07,5.18267e-05,-0.00241396,1.96789e-05,-0.000818909,-9.99668e-05,0.00323287,0.000108264,0,0,0,-0.00090801,0,3.99549e-08,0,0,0,0.0702437,-0.0246,0.588057,0,0,0,0,0,0
0.0097443,5.31511e-07,-1.10831,2.01825e-07,2.21656,-1.0252e-06,0.610898,1.11029e-06,6.5137e-05,-0.0030336,2.47363e-05,-0.00102931,-0.000125632,0.00406291,0.000136062,0,0,0,-0.00114112,0,7.9304e-08,0,0,0,0.0702414,-0.0246,0.588057,0,0,0,0,0,0
0.0109815,6.22333e-07,-1.10831,2.36317e-07,2.21656,-1.20036e-06,0.610904,1.3e-06,7.34091e-05,-0.00341872,2.7879e-05,-0.0011601,-0.000141583,0.00457881,0.000153338,0,0,0,-0.00128601,0,1.13508e-07,0,0,0,0.0702398,-0.0246,0.588057,0,0,0,0,0,0
0.0122032,7.21996e-07,-1.10832,2.74168e-07,2.21656,-1.39258e-06,0.61091,1.50818e-06,8.15775e-05,-0.003799,3.09821e-05,-0.00128927,-0.000157335,0.00508827,0.000170399,0,0,0,-0.00142908,0,1.55763e-07,0,0,0,0.0702381,-0.0246,0.588057,0,0,0,0,0,0
0.0134166,8.30827e-07,-1.10832,3.15502e-07,2.21656,-1.60247e-06,0.610917,1.7355e-06,8.96909e-05,-0.00417668,3.40646e-05,-0.0014176,-0.00017298,0.00559428,0.000187343,0,0,0,-0.00157117,0,2.07e-07,0,0,0,0.0702362,-0.0246,0.588057,0,0,0,0,0,0
0.0145798,9.44203e-07,-1.10833,3.58563e-07,2.21655,-1.82113e-06,0.610924,1.97231e-06,9.74692e-05,-0.00453871,3.70202e-05,-0.00154066,-0.000187978,0.00607937,0.000203587,0,0,0,-0.00170739,0,2.65643e-07,0,0,0,0.0702342,-0.0246,0.588057,0,0,0,0,0,0
0.0157595,1.06849e-06,-1.10833,4.05773e-07,2.21655,-2.06083e-06,0.610932,2.23192e-06,0.000105358,-0.00490587,4.00182e-05,-0.0016655,-0.000203189,0.00657137,0.000220062,0,0,0,-0.00184554,0,3.35483e-07,0,0,0,0.070232,-0.0246,0.588057,0,0,0,0,0,0
0.017064,1.21731e-06,-1.10834,4.62302e-07,2.21655,-2.34783e-06,0.610941,2.54276e-06,0.000114082,-0.00531184,4.33337e-05,-0.0018036,-0.000220009,0.00711544,0.000238281,0,0,0,-0.00199831,0,4.25879e-07,0,0,0,0.0702294,-0.0246,0.588057,0,0,0,0,0,0
0.0181253,1.34592e-06,-1.10835,5.11156e-07,2.21655,-2.59585e-06,0.610949,2.81138e-06,0.000121181,-0.0056421,4.60326e-05,-0.001916,-0.000233694,0.0075581,0.000253103,0,0,0,-0.00212259,0,5.10386e-07,0,0,0,0.0702272,-0.0246,0.588057,0,0,0,0,0,0
0.0191255,1.47382e-06,-1.10835,5.59742e-07,2.21654,-2.84249e-06,0.610957,3.0785e-06,0.000127872,-0.00595333,4.85762e-05,-0.00202197,-0.000246591,0.0079753,0.000267073,0,0,0,-0.00223972,0,5.99628e-07,0,0,0,0.0702249,-0.0246,0.588057,0,0,0,0,0,0
0.0202776,1.63002e-06,-1.10836,6.19082e-07,2.21654,-3.1437e-06,0.610967,3.40474e-06,0.000135579,-0.00631181,5.15061e-05,-0.00214406,-0.000261446,0.00845587,0.000283164,0,0,0,-0.00237464,0,7.14649e-07,0,0,0,0.0702222,-0.0246,0.588057,0,0,0,0,0,0
0.0214364,1.79611e-06,-1.10837,6.82184e-07,2.21654,-3.46398e-06,0.610977,3.75162e-06,0.000143331,-0.00667235,5.44542e-05,-0.00226692,-0.000276389,0.00893927,0.00029935,0,0,0,-0.00251035,0,8.44304e-07,0,0,0,0.0702193,-0.0246,0.588057,0,0,0,0,0,0
0.0225996,1.97189e-06,-1.10838,7.48968e-07,2.21654,-3.80293e-06,0.610988,4.11873e-06,0.000151114,-0.00703423,5.74143e-05,-0.00239031,-0.000291388,0.00942454,0.000315597,0,0,0,-0.00264656,0,9.8934e-07,0,0,0,0.0702162,-0.0246,0.588057,0,0,0,0,0,0
0.0237356,2.15219e-06,-1.10838,8.17476e-07,2.21653,-4.15058e-06,0.610999,4.49527e-06,0.000158716,-0.00738761,6.03062e-05,-0.00251087,-0.000306038,0.00989848,0.000331466,0,0,0,-0.0027796,0,1.14616e-06,0,0,0,0.070213,-0.0246,0.588057,0,0,0,0,0,0
0.0248923,2.34473e-06,-1.10839,8.90639e-07,2.21653,-4.52183e-06,0.611011,4.89737e-06,0.000166457,-0.00774741,6.32514e-05,-0.00263369,-0.000320954,0.0103811,0.000347624,0,0,0,-0.00291505,0,1.32202e-06,0,0,0,0.0702097,-0.0246,0.588057,0,0,0,0,0,0
0.0260396,2.54452e-06,-1.1084,9.6656e-07,2.21653,-4.90704e-06,0.611024,5.31459e-06,0.000174136,-0.00810425,6.61738e-05,-0.00275557,-0.000335749,0.0108598,0.000363652,0,0,0,-0.00304941,0,1.51337e-06,0,0,0,0.0702062,-0.0246,0.588057,0,0,0,0,0,0
0.027178,2.75143e-06,-1.10841,1.04519e-06,2.21652,-5.30597e-06,0.611037,5.74667e-06,0.000181756,-0.00845829,6.90744e-05,-0.00287657,-0.00035043,0.0113349,0.000379556,0,0,0,-0.00318272,0,1.72066e-06,0,0,0,0.0702026,-0.0246,0.588057,0,0,0,0,0,0
0.0283312,2.96993e-06,-1.10842,1.12824e-06,2.21652,-5.72723e-06,0.61105,6.20296e-06,0.000189477,-0.0088169,7.20135e-05,-0.00299922,-0.000365302,0.0118161,0.000395667,0,0,0,-0.00331777,0,1.94912e-06,0,0,0,0.0701987,-0.0246,0.588057,0,0,0,0,0,0
0.0294825,3.19695e-06,-1.10843,1.21453e-06,2.21652,-6.1649e-06,0.611065,6.67701e-06,0.000197186,-0.00917489,7.4949e-05,-0.00312174,-0.00038015,0.0122966,0.000411753,0,0,0,-0.0034526,0,2.19652e-06,0,0,0,0.0701948,-0.0246,0.588057,0,0,0,0,0,0
0.0306665,3.43981e-06,-1.10844,1.30684e-06,2.21651,-6.63308e-06,0.61108,7.18411e-06,0.000205114,-0.009543,7.79687e-05,-0.00324781,-0.000395421,0.0127908,0.000428297,0,0,0,-0.00359125,0,2.47193e-06,0,0,0,0.0701905,-0.0246,0.588057,0,0,0,0,0,0
0.03179,3.67871e-06,-1.10846,1.39766e-06,2.21651,-7.09361e-06,0.611095,7.68294e-06,0.00021264,-0.00989226,8.0836e-05,-0.00336753,-0.000409911,0.0132598,0.000443996,0,0,0,-0.00372282,0,2.75369e-06,0,0,0,0.0701863,-0.0246,0.588057,0,0,0,0,0,0
0.03296,3.93667e-06,-1.10847,1.49574e-06,2.21651,-7.59086e-06,0.611111,8.22154e-06,0.000220477,-0.0102559,8.38222e-05,-0.00349228,-0.000425001,0.0137482,0.000460346,0,0,0,-0.00385983,0,3.06906e-06,0,0,0,0.0701818,-0.0246,0.588057,0,0,0,0,0,0
0.0340869,4.19363e-06,-1.10848,1.59344e-06,2.2165,-8.08618e-06,0.611127,8.75806e-06,0.000228027,-0.0106062,8.67004e-05,-0.00361252,-0.000439536,0.0142187,0.000476094,0,0,0,-0.0039918,0,3.39473e-06,0,0,0,0.0701773,-0.0246,0.588057,0,0,0,0,0,0
0.0352775,4.47462e-06,-1.10849,1.70028e-06,2.2165,-8.62777e-06,0.611144,9.3447e-06,0.000236005,-0.0109762,8.97415e-05,-0.00373964,-0.000454893,0.0147158,0.000492734,0,0,0,-0.00413123,0,3.76302e-06,0,0,0,0.0701724,-0.0246,0.588057,0,0,0,0,0,0
0.0364297,4.75544e-06,-1.10851,1.80708e-06,2.21649,-9.16903e-06,0.611162,9.93099e-06,0.000243727,-0.0113342,9.26869e-05,-0.00386277,-0.000469755,0.015197,0.000508838,0,0,0,-0.00426616,0,4.14391e-06,0,0,0,0.0701675,-0.0246,0.588057,0,0,0,0,0,0
0.037561,5.03975e-06,-1.10852,1.91521e-06,2.21649,-9.71697e-06,0.61118,1.05245e-05,0.000251311,-0.0116857,9.558e-05,-0.00398375,-0.000484348,0.0156694,0.000524651,0,0,0,-0.00439864,0,4.54208e-06,0,0,0,0.0701625,-0.0246,0.588057,0,0,0,0,0,0
0.0386662,5.32569e-06,-1.10853,2.02397e-06,2.21648,-1.0268e-05,0.611197,1.11214e-05,0.000258721,-0.012029,9.84078e-05,-0.00410204,-0.000498605,0.016131,0.0005401,0,0,0,-0.00452807,0,4.95493e-06,0,0,0,0.0701575,-0.0246,0.588057,0,0,0,0,0,0
0.0398728,5.64762e-06,-1.10855,2.14643e-06,2.21648,-1.08884e-05,0.611217,1.17935e-05,0.00026681,-0.0124038,0.000101495,-0.00423125,-0.00051417,0.016635,0.000556967,0,0,0,-0.00466937,0,5.43342e-06,0,0,0,0.0701519,-0.0246,0.588057,0,0,0,0,0,0
0.0410695,5.97652e-06,-1.10856,2.27156e-06,2.21647,-1.15222e-05,0.611238,1.248e-05,0.000274837,-0.0127754,0.00010456,-0.00435954,-0.000529608,0.017135,0.000573698,0,0,0,-0.00480951,0,5.93747e-06,0,0,0,0.0701461,-0.0246,0.588057,0,0,0,0,0,0
0.0422287,6.30412e-06,-1.10858,2.39621e-06,2.21647,-1.21535e-05,0.611258,1.31638e-05,0.000282613,-0.0131353,0.00010753,-0.00448393,-0.000544563,0.0176193,0.000589906,0,0,0,-0.00494526,0,6.45455e-06,0,0,0,0.0701404,-0.0246,0.588057,0,0,0,0,0,0
0.0433687,6.63502e-06,-1.10859,2.52212e-06,2.21646,-1.2791e-05,0.611279,1.38545e-05,0.000290263,-0.0134893,0.000110453,-0.00460636,-0.000559271,0.0180956,0.000605846,0,0,0,-0.00507876,0,6.99153e-06,0,0,0,0.0701346,-0.0246,0.588057,0,0,0,0,0,0
0.0445614,6.99077e-06,-1.10861,2.65751e-06,2.21646,-1.34764e-05,0.611301,1.4597e-05,0.000298266,-0.0138595,0.000113511,-0.00473455,-0.000574659,0.0185941,0.000622524,0,0,0,-0.00521843,0,7.58437e-06,0,0,0,0.0701284,-0.0246,0.588057,0,0,0,0,0,0
0.0458143,7.375e-06,-1.10863,2.80375e-06,2.21645,-1.42167e-05,0.611325,1.53989e-05,0.000306675,-0.0142484,0.000116726,-0.00486935,-0.000590825,0.0191177,0.000640045,0,0,0,-0.00536515,0,8.24226e-06,0,0,0,0.0701216,-0.0246,0.588057,0,0,0,0,0,0
0.0470409,7.76127e-06,-1.10865,2.95079e-06,2.21645,-1.49608e-05,0.611349,1.6205e-05,0.000314911,-0.014629,0.000119876,-0.00500147,-0.000606651,0.0196305,0.000657201,0,0,0,-0.0055088,0,8.92216e-06,0,0,0,0.0701149,-0.0246,0.588057,0,0,0,0,0,0
0.0482573,8.15426e-06,-1.10866,3.10041e-06,2.21644,-1.57178e-05,0.611374,1.70251e-05,0.00032308,-0.0150064,0.000123002,-0.00513262,-0.000622347,0.020139,0.000674215,0,0,0,-0.00565124,0,9.63235e-06,0,0,0,0.070108,-0.0246,0.588057,0,0,0,0,0,0
0.0497174,8.64031e-06,-1.10869,3.28548e-06,2.21643,-1.6654e-05,0.611404,1.80394e-05,0.000332884,-0.0154593,0.000126752,-0.00529016,-0.000641189,0.0207495,0.000694638,0,0,0,-0.00582223,0,1.05334e-05,0,0,0,0.0700995,-0.0246,0.588057,0,0,0,0,0,0
0.0511439,9.12884e-06,-1.10871,3.47153e-06,2.21642,-1.75949e-05,0.611434,1.90588e-05,0.00034247,-0.0159017,0.000130423,-0.00544435,-0.000659597,0.0213461,0.000714595,0,0,0,-0.00598928,0,1.14663e-05,0,0,0,0.070091,-0.0246,0.588057,0,0,0,0,0,0
0.0526673,9.66616e-06,-1.10873,3.67619e-06,2.21641,-1.86297e-05,0.611468,2.01798e-05,0.000352707,-0.0163741,0.000134344,-0.0056092,-0.000679258,0.0219833,0.000735909,0,0,0,-0.00616768,0,1.25218e-05,0,0,0,0.0700816,-0.0246,0.588057,0,0,0,0,0,0
0.0538434,1.00903e-05,-1.10875,3.83777e-06,2.21641,-1.94464e-05,0.611494,2.10647e-05,0.000360622,-0.0167386,0.000137384,-0.00573678,-0.000694437,0.0224754,0.000752371,0,0,0,-0.00630541,0,1.33795e-05,0,0,0,0.0700741,-0.0246,0.588057,0,0,0,0,0,0
0.0549651,1.05033e-05,-1.10877,3.99512e-06,2.2164,-2.02416e-05,0.61152,2.19262e-05,0.000368168,-0.0170862,0.000140279,-0.00585849,-0.000708914,0.0229447,0.000768069,0,0,0,-0.00643676,0,1.42332e-05,0,0,0,0.0700669,-0.0246,0.588057,0,0,0,0,0,0
0.056089,1.09255e-05,-1.10879,4.15604e-06,2.21639,-2.10547e-05,0.611546,2.28072e-05,0.000375728,-0.0174344,0.00014318,-0.00598057,-0.000723421,0.023415,0.000783799,0,0,0,-0.00656838,0,1.51243e-05,0,0,0,0.0700595,-0.0246,0.588057,0,0,0,0,0,0
0.0572032,1.13525e-05,-1.10881,4.31878e-06,2.21639,-2.18767e-05,0.611573,2.36978e-05,0.000383226,-0.0177796,0.000146058,-0.00610173,-0.000737803,0.0238814,0.000799395,0,0,0,-0.00669886,0,1.60437e-05,0,0,0,0.0700521,-0.0246,0.588057,0,0,0,0,0,0
0.0583148,1.17868e-05,-1.10883,4.48433e-06,2.21638,-2.27128e-05,0.6116,2.46037e-05,0.000390707,-0.0181239,0.000148931,-0.00622274,-0.000752152,0.0243467,0.000814956,0,0,0,-0.00682903,0,1.69973e-05,0,0,0,0.0700445,-0.0246,0.588057,0,0,0,0,0,0
0.0594844,1.2253e-05,-1.10885,4.66206e-06,2.21637,-2.36102e-05,0.611629,2.55761e-05,0.00039858,-0.0184861,0.000151955,-0.00635019,-0.000767251,0.0248364,0.00083133,0,0,0,-0.006966,0,1.80406e-05,0,0,0,0.0700363,-0.0246,0.588057,0,0,0,0,0,0
0.0606405,1.27228e-05,-1.10888,4.84119e-06,2.21637,-2.45145e-05,0.611658,2.65559e-05,0.000406366,-0.0188441,0.000154948,-0.00647636,-0.000782176,0.0253205,0.000847518,0,0,0,-0.00710138,0,1.91131e-05,0,0,0,0.0700281,-0.0246,0.588057,0,0,0,0,0,0
0.0617682,1.31896e-05,-1.1089,5.01922e-06,2.21636,-2.5413e-05,0.611688,2.75294e-05,0.000413963,-0.0191931,0.00015787,-0.00659959,-0.000796735,0.0257927,0.000863309,0,0,0,-0.00723344,0,2.01994e-05,0,0,0,0.07002,-0.0246,0.588057,0,0,0,0,0,0
0.0628575,1.36486e-05,-1.10892,5.19427e-06,2.21635,-2.62962e-05,0.611716,2.84865e-05,0.000421304,-0.0195302,0.000160695,-0.00671877,-0.000810799,0.026249,0.000878565,0,0,0,-0.007361,0,2.1287e-05,0,0,0,0.070012,-0.0246,0.588057,0,0,0,0,0,0
0.0639516,1.41176e-05,-1.10894,5.37319e-06,2.21634,-2.71987e-05,0.611745,2.94645e-05,0.000428679,-0.0198688,0.000163533,-0.00683861,-0.000824926,0.0267074,0.000893889,0,0,0,-0.00748913,0,2.2418e-05,0,0,0,0.0700038,-0.0246,0.588057,0,0,0,0,0,0
0.0650456,1.45946e-05,-1.10896,5.5552e-06,2.21634,-2.81166e-05,0.611775,3.04591e-05,0.000436054,-0.0202072,0.000166373,-0.00695859,-0.000839052,0.0271658,0.000909213,0,0,0,-0.00761724,0,2.35883e-05,0,0,0,0.0699954,-0.0246,0.588057,0,0,0,0,0,0
0.0661824,1.50991e-05,-1.10899,5.74769e-06,2.21633,-2.90872e-05,0.611806,3.15108e-05,0.00044372,-0.0205588,0.000169325,-0.00708339,-0.000853731,0.0276422,0.000925138,0,0,0,-0.00775036,0,2.48468e-05,0,0,0,0.0699866,-0.0246,0.588057,0,0,0,0,0,0
0.0673722,1.56365e-05,-1.10901,5.95283e-06,2.21632,-3.01212e-05,0.61184,3.26314e-05,0.000451744,-0.0209267,0.000172417,-0.0072142,-0.000869096,0.0281409,0.000941807,0,0,0,-0.00788969,0,2.62111e-05,0,0,0,0.0699772,-0.0246,0.588057,0,0,0,0,0,0
0.0688435,1.63158e-05,-1.10904,6.21213e-06,2.21631,-3.14279e-05,0.611882,3.40474e-05,0.000461664,-0.0213816,0.000176235,-0.00737608,-0.000888097,0.0287577,0.000962419,0,0,0,-0.00806198,0,2.79661e-05,0,0,0,0.0699654,-0.0246,0.588057,0,0,0,0,0,0
0.0702773,1.69916e-05,-1.10907,6.47017e-06,2.2163,-3.27278e-05,0.611924,3.54561e-05,0.000471345,-0.0218247,0.000179972,-0.00753429,-0.000906615,0.029359,0.000982513,0,0,0,-0.00822989,0,2.975e-05,0,0,0,0.0699536,-0.0246,0.588057,0,0,0,0,0,0
0.071563,1.76088e-05,-1.1091,6.70588e-06,2.21629,-3.39148e-05,0.611963,3.67425e-05,0.000480034,-0.0222218,0.000183332,-0.00767646,-0.000923222,0.0298983,0.00100054,0,0,0,-0.00838045,0,3.14129e-05,0,0,0,0.0699428,-0.0246,0.588057,0,0,0,0,0,0
0.072739,1.81826e-05,-1.10913,6.9251e-06,2.21628,-3.50183e-05,0.611999,3.79386e-05,0.000487984,-0.0225849,0.000186407,-0.0078067,-0.000938412,0.0303916,0.00101703,0,0,0,-0.00851816,0,3.29871e-05,0,0,0,0.0699328,-0.0246,0.588057,0,0,0,0,0,0
0.0738481,1.87322e-05,-1.10915,7.13506e-06,2.21627,-3.6075e-05,0.612033,3.90838e-05,0.000495483,-0.0229273,0.000189309,-0.00792969,-0.000952739,0.030857,0.00103258,0,0,0,-0.00864804,0,3.45191e-05,0,0,0,0.0699232,-0.0246,0.588057,0,0,0,0,0,0
0.0750435,1.93341e-05,-1.10918,7.36509e-06,2.21626,-3.72324e-05,0.61207,4.03382e-05,0.000503562,-0.0232964,0.000192431,-0.00806234,-0.000968182,0.0313587,0.00104934,0,0,0,-0.00878802,0,3.62227e-05,0,0,0,0.0699127,-0.0246,0.588057,0,0,0,0,0,0
0.0761817,1.99161e-05,-1.10921,7.58751e-06,2.21625,-3.83511e-05,0.612106,4.15507e-05,0.000511263,-0.0236476,0.000195414,-0.00818894,-0.000982887,0.0318365,0.0010653,0,0,0,-0.0089213,0,3.7896e-05,0,0,0,0.0699025,-0.0246,0.588057,0,0,0,0,0,0
0.0773341,2.05142e-05,-1.10924,7.81619e-06,2.21624,-3.95009e-05,0.612144,4.2797e-05,0.000519059,-0.0240031,0.000198433,-0.00831726,-0.000997776,0.0323204,0.00108146,0,0,0,-0.00905625,0,3.96419e-05,0,0,0,0.0698921,-0.0246,0.588058,0,0,0,0,0,0
0.078512,2.1135e-05,-1.10926,8.05356e-06,2.21623,-4.06941e-05,0.612182,4.40903e-05,0.000527031,-0.0243664,0.000201521,-0.00844862,-0.001013,0.032815,0.00109799,0,0,0,-0.00919419,0,4.14811e-05,0,0,0,0.0698813,-0.0246,0.588058,0,0,0,0,0,0
0.0797243,2.17839e-05,-1.10929,8.30172e-06,2.21622,-4.19412e-05,0.612223,4.5442e-05,0.000535238,-0.0247402,0.000204702,-0.00858403,-0.00102866,0.0333243,0.00111499,0,0,0,-0.00933615,0,4.34324e-05,0,0,0,0.0698699,-0.0246,0.588058,0,0,0,0,0,0
0.0808242,2.23808e-05,-1.10932,8.53006e-06,2.21621,-4.30882e-05,0.61226,4.66853e-05,0.000542694,-0.0250792,0.000207599,-0.00870719,-0.00104287,0.0337864,0.00113043,0,0,0,-0.00946494,0,4.52549e-05,0,0,0,0.0698595,-0.0246,0.588058,0,0,0,0,0,0
0.0818779,2.29602e-05,-1.10935,8.75173e-06,2.2162,-4.42015e-05,0.612296,4.78921e-05,0.000549836,-0.0254038,0.000210374,-0.00882531,-0.00105649,0.0342292,0.00114522,0,0,0,-0.00958833,0,4.7048e-05,0,0,0,0.0698494,-0.0246,0.588058,0,0,0,0,0,0
0.0830734,2.36272e-05,-1.10938,9.00698e-06,2.21619,-4.5483e-05,0.612338,4.92812e-05,0.000557933,-0.0257722,0.000213513,-0.00895939,-0.00107194,0.0347316,0.00116199,0,0,0,-0.00972832,0,4.91391e-05,0,0,0,0.0698378,-0.0246,0.588058,0,0,0,0,0,0
0.0843425,2.43462e-05,-1.10941,9.28219e-06,2.21618,-4.68642e-05,0.612382,5.07785e-05,0.000566535,-0.0261631,0.000216854,-0.00910203,-0.00108835,0.0352652,0.0011798,0,0,0,-0.00987694,0,5.14258e-05,0,0,0,0.0698253,-0.0246,0.588058,0,0,0,0,0,0
0.0857697,2.51685e-05,-1.10945,9.59705e-06,2.21617,-4.84438e-05,0.612433,5.24909e-05,0.000576209,-0.0266026,0.000220611,-0.0092627,-0.00110679,0.0358653,0.00119984,0,0,0,-0.0100441,0,5.40808e-05,0,0,0,0.0698109,-0.0246,0.588058,0,0,0,0,0,0
0.0870116,2.58946e-05,-1.10948,9.87512e-06,2.21616,-4.98383e-05,0.612479,5.40027e-05,0.00058465,-0.0269846,0.000223904,-0.00940306,-0.00112285,0.0363877,0.00121728,0,0,0,-0.0101895,0,5.64641e-05,0,0,0,0.0697983,-0.0246,0.588058,0,0,0,0,0,0
0.0881673,2.65794e-05,-1.10952,1.01374e-05,2.21614,-5.11532e-05,0.612521,5.54282e-05,0.000592503,-0.0273401,0.000226967,-0.00953385,-0.00113779,0.036874,0.00123351,0,0,0,-0.0103248,0,5.8744e-05,0,0,0,0.0697863,-0.0246,0.588058,0,0,0,0,0,0
0.0893265,2.72753e-05,-1.10955,1.04041e-05,2.21613,-5.24895e-05,0.612565,5.6877e-05,0.000600378,-0.0276966,0.000230037,-0.00966517,-0.00115278,0.0373618,0.0012498,0,0,0,-0.0104606,0,6.10916e-05,0,0,0,0.0697742,-0.0246,0.588058,0,0,0,0,0,0
0.090543,2.80157e-05,-1.10958,1.06878e-05,2.21612,-5.3911e-05,0.612611,5.84182e-05,0.000608642,-0.0280706,0.000233258,-0.00980319,-0.0011685,0.0378739,0.00126688,0,0,0,-0.010603,0,6.36217e-05,0,0,0,0.0697613,-0.0246,0.588058,0,0,0,0,0,0
0.0917078,2.87339e-05,-1.10962,1.09631e-05,2.21611,-5.52896e-05,0.612655,5.99129e-05,0.000616565,-0.0284286,0.000236353,-0.0099357,-0.00118357,0.0383643,0.00128325,0,0,0,-0.0107394,0,6.61088e-05,0,0,0,0.0697488,-0.0246,0.588058,0,0,0,0,0,0
0.0928614,2.94542e-05,-1.10965,1.12393e-05,2.2161,-5.66722e-05,0.6127,6.1412e-05,0.000624413,-0.028783,0.00023942,-0.0100671,-0.00119848,0.0388502,0.00129946,0,0,0,-0.0108745,0,6.86351e-05,0,0,0,0.0697363,-0.0246,0.588058,0,0,0,0,0,0
0.0940548,3.02091e-05,-1.10968,1.15288e-05,2.21609,-5.81209e-05,0.612747,6.29827e-05,0.000632532,-0.0291495,0.000242591,-0.0102033,-0.00121392,0.0393529,0.00131624,0,0,0,-0.0110142,0,7.13154e-05,0,0,0,0.0697231,-0.0246,0.588058,0,0,0,0,0,0
0.0952064,3.09465e-05,-1.10972,1.18118e-05,2.21607,-5.9536e-05,0.612793,6.45172e-05,0.000640376,-0.0295031,0.000245662,-0.010335,-0.00122881,0.0398381,0.00133243,0,0,0,-0.0111491,0,7.39671e-05,0,0,0,0.0697103,-0.0246,0.588059,0,0,0,0,0,0
0.0963988,3.17198e-05,-1.10975,1.21085e-05,2.21606,-6.10196e-05,0.612841,6.61259e-05,0.000648495,-0.029869,0.000248838,-0.0104716,-0.00124423,0.0403407,0.00134919,0,0,0,-0.0112887,0,7.67812e-05,0,0,0,0.0696968,-0.0246,0.588059,0,0,0,0,0,0
0.0975848,3.24985e-05,-1.10979,1.24073e-05,2.21605,-6.25135e-05,0.61289,6.77459e-05,0.000656577,-0.0302329,0.000252005,-0.0106077,-0.00125958,0.0408407,0.00136587,0,0,0,-0.0114276,0,7.96501e-05,0,0,0,0.0696833,-0.0246,0.588059,0,0,0,0,0,0
0.0987545,3.32758e-05,-1.10982,1.27058e-05,2.21604,-6.40045e-05,0.612938,6.93628e-05,0.000664554,-0.0305916,0.000255133,-0.0107423,-0.00127471,0.0413339,0.00138232,0,0,0,-0.0115645,0,8.25487e-05,0,0,0,0.0696697,-0.0246,0.588059,0,0,0,0,0,0
0.100192,3.42453e-05,-1.10987,1.30781e-05,2.21602,-6.58639e-05,0.612998,7.13792e-05,0.00067434,-0.0310326,0.000258957,-0.0109077,-0.00129331,0.0419403,0.00140253,0,0,0,-0.0117329,0,8.62067e-05,0,0,0,0.0696529,-0.0246,0.588059,0,0,0,0,0,0
0.101891,3.54106e-05,-1.10992,1.35257e-05,2.216,-6.80983e-05,0.613071,7.38024e-05,0.000685914,-0.0315533,0.000263487,-0.0111037,-0.00131529,0.0426571,0.00142642,0,0,0,-0.0119318,0,9.06664e-05,0,0,0,0.0696326,-0.0246,0.588059,0,0,0,0,0,0
0.103269,3.63688e-05,-1.10997,1.38939e-05,2.21599,-6.99355e-05,0.61313,7.57949e-05,0.000695352,-0.031975,0.000267217,-0.0112638,-0.00133312,0.0432389,0.00144583,0,0,0,-0.0120931,0,9.43952e-05,0,0,0,0.0696159,-0.0246,0.588059,0,0,0,0,0,0
0.104431,3.71859e-05,-1.11,1.4208e-05,2.21597,-7.15016e-05,0.613181,7.74935e-05,0.000703309,-0.0323304,0.000270361,-0.0113989,-0.00134815,0.0437295,0.00146219,0,0,0,-0.0122292,0,9.76168e-05,0,0,0,0.0696017,-0.0246,0.588059,0,0,0,0,0,0
0.105587,3.80081e-05,-1.11004,1.45242e-05,2.21596,-7.30775e-05,0.613232,7.92028e-05,0.000711214,-0.0326842,0.000273475,-0.0115335,-0.00136312,0.0442177,0.00147847,0,0,0,-0.0123645,0,0.000100895,0,0,0,0.0695874,-0.0246,0.588059,0,0,0,0,0,0
0.10674,3.88372e-05,-1.11008,1.48431e-05,2.21595,-7.46662e-05,0.613284,8.0926e-05,0.0007191,-0.0330368,0.000276583,-0.0116679,-0.00137804,0.0447048,0.0014947,0,0,0,-0.0124995,0,0.000104236,0,0,0,0.069573,-0.0246,0.58806,0,0,0,0,0,0
0.107896,3.9678e-05,-1.11012,1.51666e-05,2.21593,-7.62774e-05,0.613336,8.26736e-05,0.000727015,-0.0333905,0.000279705,-0.0118031,-0.00139301,0.0451936,0.00151099,0,0,0,-0.0126349,0,0.000107661,0,0,0,0.0695584,-0.0246,0.58806,0,0,0,0,0,0
0.109054,4.05288e-05,-1.11016,1.5494e-05,2.21592,-7.79073e-05,0.613389,8.44416e-05,0.000734942,-0.0337442,0.000282833,-0.0119386,-0.00140799,0.0456829,0.0015273,0,0,0,-0.0127705,0,0.000111164,0,0,0,0.0695436,-0.0246,0.58806,0,0,0,0,0,0
0.110212,4.13888e-05,-1.1102,1.5825e-05,2.2159,-7.95547e-05,0.613442,8.62287e-05,0.000742873,-0.0340979,0.000285967,-0.0120744,-0.00142298,0.0461724,0.00154361,0,0,0,-0.012906,0,0.000114742,0,0,0,0.0695287,-0.0246,0.58806,0,0,0,0,0,0
0.111341,4.22368e-05,-1.11024,1.61516e-05,2.21589,-8.11787e-05,0.613495,8.79905e-05,0.000750619,-0.0344429,0.000289031,-0.0122073,-0.00143761,0.0466503,0.00155952,0,0,0,-0.0130383,0,0.000118306,0,0,0,0.0695139,-0.0246,0.58806,0,0,0,0,0,0
0.112438,4.30682e-05,-1.11027,1.64718e-05,2.21588,-8.27709e-05,0.613547,8.97177e-05,0.000758143,-0.0347776,0.000292011,-0.0123366,-0.00145181,0.0471143,0.00157498,0,0,0,-0.0131667,0,0.000121837,0,0,0,0.0694995,-0.0246,0.58806,0,0,0,0,0,0
0.113508,4.38873e-05,-1.11031,1.67874e-05,2.21586,-8.43392e-05,0.613598,9.14191e-05,0.000765486,-0.0351041,0.000294921,-0.0124629,-0.00146566,0.0475671,0.00159007,0,0,0,-0.013292,0,0.000125348,0,0,0,0.0694853,-0.0246,0.58806,0,0,0,0,0,0
0.114691,4.48026e-05,-1.11035,1.71401e-05,2.21585,-8.60914e-05,0.613654,9.332e-05,0.000773596,-0.035465,0.000298126,-0.0126027,-0.00148098,0.0480679,0.00160674,0,0,0,-0.0134305,0,0.000129308,0,0,0,0.0694694,-0.0246,0.58806,0,0,0,0,0,0
0.115881,4.57326e-05,-1.1104,1.74986e-05,2.21583,-8.78716e-05,0.613712,9.52515e-05,0.000781767,-0.0358278,0.000301366,-0.0127438,-0.00149639,0.0485716,0.00162352,0,0,0,-0.0135698,0,0.000133374,0,0,0,0.0694533,-0.0246,0.588061,0,0,0,0,0,0
0.117092,4.66894e-05,-1.11044,1.78676e-05,2.21582,-8.97027e-05,0.613772,9.72383e-05,0.000790086,-0.0361968,0.000304668,-0.0128877,-0.00151208,0.0490846,0.00164059,0,0,0,-0.0137116,0,0.000137599,0,0,0,0.0694366,-0.0246,0.588061,0,0,0,0,0,0
0.118356,4.76991e-05,-1.11049,1.8257e-05,2.2158,-9.16347e-05,0.613834,9.93345e-05,0.000798772,-0.0365819,0.000308115,-0.0130382,-0.00152845,0.0496201,0.00165842,0,0,0,-0.0138595,0,0.000142104,0,0,0,0.0694191,-0.0246,0.588061,0,0,0,0,0,0
0.119687,4.87746e-05,-1.11054,1.8672e-05,2.21578,-9.36923e-05,0.613901,0.000101567,0.000807923,-0.0369872,0.000311749,-0.013197,-0.00154569,0.0501844,0.0016772,0,0,0,-0.0140154,0,0.000146953,0,0,0,0.0694005,-0.0246,0.588061,0,0,0,0,0,0
0.120939,4.97971e-05,-1.11058,1.90667e-05,2.21577,-9.56482e-05,0.613965,0.00010369,0.000816552,-0.0373682,0.000315191,-0.0133471,-0.00156192,0.0507153,0.00169488,0,0,0,-0.014162,0,0.000151613,0,0,0,0.0693827,-0.0246,0.588061,0,0,0,0,0,0
0.122197,5.0835e-05,-1.11063,1.94675e-05,2.21575,-9.76332e-05,0.614029,0.000105844,0.000825216,-0.0377507,0.000318642,-0.013498,-0.00157821,0.0512488,0.00171263,0,0,0,-0.0143092,0,0.000156393,0,0,0,0.0693647,-0.0246,0.588062,0,0,0,0,0,0
0.12322,5.16862e-05,-1.11067,1.97963e-05,2.21574,-9.92608e-05,0.614082,0.00010761,0.000832292,-0.0380613,0.000321485,-0.0136215,-0.00159147,0.0516828,0.00172708,0,0,0,-0.014429,0,0.000160353,0,0,0,0.06935,-0.0246,0.588062,0,0,0,0,0,0
0.12422,5.25256e-05,-1.11071,2.01206e-05,2.21572,-0.000100866,0.614134,0.000109352,0.000839192,-0.0383651,0.000324241,-0.0137421,-0.00160443,0.0521073,0.00174121,0,0,0,-0.0145461,0,0.000164289,0,0,0,0.0693354,-0.0246,0.588062,0,0,0,0,0,0
0.12522,5.33717e-05,-1.11075,2.04476e-05,2.21571,-0.000102483,0.614187,0.000111107,0.000846092,-0.0386689,0.000326998,-0.0138629,-0.00161739,0.0525319,0.00175533,0,0,0,-0.0146631,0,0.000168289,0,0,0,0.0693208,-0.0246,0.588062,0,0,0,0,0,0
0.126375,5.43578e-05,-1.11079,2.08288e-05,2.21569,-0.000104368,0.614248,0.000113153,0.000854043,-0.0390197,0.000330163,-0.0140023,-0.00163235,0.0530221,0.00177163,0,0,0,-0.0147983,0,0.000172987,0,0,0,0.0693037,-0.0246,0.588062,0,0,0,0,0,0
0.127533,5.53561e-05,-1.11084,2.12149e-05,2.21568,-0.000106276,0.61431,0.000115223,0.000862042,-0.0393711,0.000333363,-0.0141428,-0.00164736,0.053514,0.00178799,0,0,0,-0.0149339,0,0.000177786,0,0,0,0.0692864,-0.0246,0.588062,0,0,0,0,0,0
0.128762,5.64259e-05,-1.11089,2.16287e-05,2.21566,-0.00010832,0.614376,0.000117442,0.000870526,-0.039744,0.000336755,-0.0142921,-0.00166329,0.0540362,0.00180535,0,0,0,-0.0150777,0,0.000182975,0,0,0,0.0692679,-0.0246,0.588063,0,0,0,0,0,0
0.13001,5.75237e-05,-1.11094,2.20535e-05,2.21564,-0.000110417,0.614444,0.000119718,0.000879158,-0.0401225,0.000340214,-0.0144443,-0.00167948,0.054567,0.001823,0,0,0,-0.0152239,0,0.00018835,0,0,0,0.0692488,-0.0246,0.588063,0,0,0,0,0,0
0.131382,5.87427e-05,-1.11099,2.25254e-05,2.21562,-0.000112745,0.61452,0.000122245,0.000888634,-0.0405383,0.000344005,-0.0146118,-0.00169727,0.0551502,0.00184239,0,0,0,-0.0153845,0,0.000194375,0,0,0,0.0692277,-0.0246,0.588063,0,0,0,0,0,0
0.132651,5.98815e-05,-1.11104,2.29665e-05,2.2156,-0.00011492,0.614591,0.000124606,0.000897435,-0.0409224,0.000347551,-0.0147676,-0.00171372,0.0556901,0.00186034,0,0,0,-0.015533,0,0.000200062,0,0,0,0.069208,-0.0246,0.588063,0,0,0,0,0,0
0.133851,6.0968e-05,-1.11109,2.33874e-05,2.21558,-0.000116994,0.614658,0.000126858,0.000905755,-0.0412853,0.000350905,-0.0149151,-0.00172927,0.0562006,0.00187731,0,0,0,-0.0156734,0,0.000205538,0,0,0,0.0691892,-0.0246,0.588064,0,0,0,0,0,0
0.134851,6.18808e-05,-1.11113,2.37411e-05,2.21557,-0.000118736,0.614715,0.00012875,0.000912717,-0.0415875,0.000353728,-0.0150388,-0.00174224,0.0566264,0.00189147,0,0,0,-0.0157905,0,0.000210179,0,0,0,0.0691734,-0.0246,0.588064,0,0,0,0,0,0
0.135851,6.28005e-05,-1.11118,2.40977e-05,2.21555,-0.000120492,0.614772,0.000130655,0.000919655,-0.0418899,0.000356523,-0.0151623,-0.00175521,0.0570523,0.00190562,0,0,0,-0.0159076,0,0.00021489,0,0,0,0.0691575,-0.0246,0.588064,0,0,0,0,0,0
0.136851,6.37272e-05,-1.11122,2.44571e-05,2.21554,-0.00012226,0.614829,0.000132575,0.000926596,-0.0421921,0.000359322,-0.015286,-0.00176819,0.0574782,0.00191977,0,0,0,-0.0160246,0,0.000219671,0,0,0,0.0691415,-0.0246,0.588064,0,0,0,0,0,0
0.137851,6.46609e-05,-1.11126,2.48192e-05,2.21552,-0.000124041,0.614887,0.00013451,0.000933541,-0.0424942,0.000362125,-0.01541,-0.00178116,0.0579043,0.00193393,0,0,0,-0.0161417,0,0.000224522,0,0,0,0.0691254,-0.0246,0.588065,0,0,0,0,0,0
0.138851,6.56014e-05,-1.1113,2.51842e-05,2.21551,-0.000125836,0.614946,0.000136458,0.00094049,-0.0427962,0.000364932,-0.0155343,-0.00179413,0.0583306,0.00194809,0,0,0,-0.0162588,0,0.000229444,0,0,0,0.0691091,-0.0246,0.588065,0,0,0,0,0,0
0.139851,6.6549e-05,-1.11135,2.5552e-05,2.21549,-0.000127643,0.615004,0.00013842,0.000947443,-0.043098,0.000367743,-0.0156588,-0.00180711,0.0587569,0.00196225,0,0,0,-0.0163758,0,0.000234437,0,0,0,0.0690927,-0.0246,0.588065,0,0,0,0,0,0
0.140852,6.75039e-05,-1.11139,2.59227e-05,2.21548,-0.000129464,0.615064,0.000140398,0.000954402,-0.0433998,0.000370559,-0.0157837,-0.00182009,0.0591836,0.00197642,0,0,0,-0.0164929,0,0.000239505,0,0,0,0.0690762,-0.0246,0.588065,0,0,0,0,0,0
0.142005,6.86138e-05,-1.11144,2.63538e-05,2.21546,-0.00013158,0.615132,0.000142696,0.000962406,-0.0437478,0.000373783,-0.0159276,-0.00183505,0.0596755,0.00199274,0,0,0,-0.0166279,0,0.000245436,0,0,0,0.069057,-0.0246,0.588066,0,0,0,0,0,0
0.14317,6.97441e-05,-1.11149,2.67929e-05,2.21544,-0.000133735,0.615202,0.000145036,0.000970514,-0.0440987,0.000377068,-0.0160736,-0.00185017,0.0601725,0.00200924,0,0,0,-0.0167642,0,0.000251524,0,0,0,0.0690375,-0.0246,0.588066,0,0,0,0,0,0
0.144366,7.09152e-05,-1.11155,2.72481e-05,2.21542,-0.000135967,0.615275,0.00014746,0.000978847,-0.0444591,0.000380446,-0.016224,-0.00186569,0.0606833,0.0020262,0,0,0,-0.0169043,0,0.000257883,0,0,0,0.0690173,-0.0246,0.588066,0,0,0,0,0,0
0.145529,7.20631e-05,-1.1116,2.76944e-05,2.2154,-0.000138155,0.615346,0.000149836,0.000986962,-0.0448091,0.000383746,-0.0163707,-0.00188079,0.06118,0.00204268,0,0,0,-0.0170404,0,0.000264165,0,0,0,0.0689975,-0.0246,0.588066,0,0,0,0,0,0
0.146723,7.32516e-05,-1.11165,2.81567e-05,2.21538,-0.000140419,0.61542,0.000152295,0.00099529,-0.0451684,0.000387128,-0.0165215,-0.00189629,0.0616901,0.00205961,0,0,0,-0.0171801,0,0.000270721,0,0,0,0.068977,-0.0246,0.588067,0,0,0,0,0,0
0.147914,7.44464e-05,-1.11171,2.86216e-05,2.21536,-0.000142695,0.615494,0.000154767,0.0010036,-0.0455263,0.000390513,-0.0166724,-0.00191174,0.0621989,0.00207649,0,0,0,-0.0173195,0,0.000277364,0,0,0,0.0689563,-0.0246,0.588067,0,0,0,0,0,0
0.1491,7.56469e-05,-1.11176,2.90889e-05,2.21534,-0.000144981,0.615568,0.000157251,0.00101189,-0.0458827,0.000393891,-0.0168232,-0.00192714,0.0627061,0.00209332,0,0,0,-0.0174583,0,0.000284091,0,0,0,0.0689356,-0.0246,0.588067,0,0,0,0,0,0
0.150334,7.69063e-05,-1.11182,2.95793e-05,2.21532,-0.000147379,0.615646,0.000159856,0.00102051,-0.0462534,0.000397402,-0.0169803,-0.00194317,0.0632339,0.00211082,0,0,0,-0.0176027,0,0.000291204,0,0,0,0.0689139,-0.0246,0.588068,0,0,0,0,0,0
0.151681,7.82934e-05,-1.11188,3.01197e-05,2.2153,-0.00015002,0.615732,0.000162724,0.00102992,-0.0466578,0.000401227,-0.0171522,-0.00196065,0.0638101,0.00212993,0,0,0,-0.0177603,0,0.0002991,0,0,0,0.06889,-0.0246,0.588068,0,0,0,0,0,0
0.152849,7.95062e-05,-1.11194,3.05924e-05,2.21528,-0.000152328,0.615807,0.000165232,0.00103813,-0.0470077,0.000404609,-0.0173024,-0.00197583,0.0643103,0.00214653,0,0,0,-0.0178971,0,0.000306064,0,0,0,0.0688691,-0.0246,0.588069,0,0,0,0,0,0
0.15398,8.06888e-05,-1.11199,3.10535e-05,2.21526,-0.000154579,0.615881,0.000167677,0.00104606,-0.0473464,0.000407859,-0.0174478,-0.00199051,0.0647944,0.00216258,0,0,0,-0.0180293,0,0.000312905,0,0,0,0.0688487,-0.0246,0.588069,0,0,0,0,0,0
0.155103,8.18721e-05,-1.11204,3.15151e-05,2.21524,-0.00015683,0.615954,0.000170123,0.00105393,-0.0476827,0.000411086,-0.0175925,-0.00200509,0.0652754,0.00217852,0,0,0,-0.0181607,0,0.0003198,0,0,0,0.0688283,-0.0246,0.588069,0,0,0,0,0,0
0.156219,8.30575e-05,-1.1121,3.19776e-05,2.21522,-0.000159085,0.616027,0.000172573,0.00106177,-0.0480169,0.0004143,-0.0177367,-0.00201959,0.0657538,0.00219438,0,0,0,-0.0182914,0,0.000326755,0,0,0,0.0688079,-0.0246,0.58807,0,0,0,0,0,0
0.157351,8.42689e-05,-1.11215,3.24504e-05,2.2152,-0.000161388,0.616102,0.000175076,0.00106972,-0.0483557,0.000417561,-0.0178834,-0.0020343,0.0662393,0.00221047,0,0,0,-0.0184239,0,0.000333911,0,0,0,0.068787,-0.0246,0.58807,0,0,0,0,0,0
0.158518,8.55259e-05,-1.11221,3.29413e-05,2.21518,-0.000163778,0.61618,0.000177673,0.00107791,-0.0487044,0.000420921,-0.0180347,-0.00204945,0.0667394,0.00222704,0,0,0,-0.0185603,0,0.00034139,0,0,0,0.0687654,-0.0246,0.58807,0,0,0,0,0,0
0.159822,8.69437e-05,-1.11227,3.34952e-05,2.21515,-0.000166474,0.616268,0.000180602,0.00108705,-0.0490944,0.000424664,-0.0182042,-0.0020664,0.0672989,0.00224556,0,0,0,-0.0187129,0,0.000349886,0,0,0,0.068741,-0.0246,0.588071,0,0,0,0,0,0
0.161109,8.83546e-05,-1.11234,3.40466e-05,2.21513,-0.000169155,0.616355,0.000183516,0.00109611,-0.0494787,0.000428399,-0.0183724,-0.00208312,0.0678513,0.00226386,0,0,0,-0.0188635,0,0.000358407,0,0,0,0.0687167,-0.0246,0.588071,0,0,0,0,0,0
0.162322,8.96942e-05,-1.1124,3.45704e-05,2.21511,-0.0001717,0.616438,0.000186282,0.00110467,-0.0498403,0.000431938,-0.0185316,-0.00209888,0.0683721,0.00228111,0,0,0,-0.0190054,0,0.000366561,0,0,0,0.0686936,-0.0246,0.588072,0,0,0,0,0,0
0.163469,9.09703e-05,-1.11245,3.50696e-05,2.21509,-0.000174124,0.616517,0.000188917,0.00111276,-0.050182,0.000435291,-0.0186825,-0.00211378,0.0688648,0.00229743,0,0,0,-0.0191396,0,0.000374384,0,0,0,0.0686717,-0.0246,0.588072,0,0,0,0,0,0
0.164964,9.26502e-05,-1.11253,3.5727e-05,2.21506,-0.000177315,0.616621,0.000192385,0.00112324,-0.0506285,0.000439568,-0.0188785,-0.00213322,0.0695073,0.00231868,0,0,0,-0.0193146,0,0.000384754,0,0,0,0.0686428,-0.0246,0.588073,0,0,0,0,0,0
0.166427,9.43079e-05,-1.1126,3.63761e-05,2.21503,-0.000180462,0.616724,0.000195806,0.00113357,-0.0510638,0.00044385,-0.0190721,-0.00215223,0.0701361,0.00233949,0,0,0,-0.0194856,0,0.000395076,0,0,0,0.0686143,-0.0246,0.588073,0,0,0,0,0,0
0.167867,9.59552e-05,-1.11268,3.70214e-05,2.215,-0.000183589,0.616826,0.000199205,0.00114375,-0.051492,0.000448074,-0.0192634,-0.00217096,0.0707557,0.00236,0,0,0,-0.0196541,0,0.000405421,0,0,0,0.068586,-0.0246,0.588074,0,0,0,0,0,0
0.16979,9.81814e-05,-1.11278,3.7894e-05,2.21496,-0.000187813,0.616963,0.000203797,0.00115725,-0.052065,0.000453601,-0.0195182,-0.00219597,0.0715835,0.00238734,0,0,0,-0.0198792,0,0.000419518,0,0,0,0.0685478,-0.0246,0.588075,0,0,0,0,0,0
0.171076,9.96804e-05,-1.11285,3.8482e-05,2.21494,-0.000190657,0.617056,0.000206889,0.00116649,-0.0524447,0.000457548,-0.0196924,-0.00221268,0.0721374,0.00240572,0,0,0,-0.0200295,0,0.000429115,0,0,0,0.068522,-0.0246,0.588075,0,0,0,0,0,0
0.172076,0.000100854,-1.1129,3.89426e-05,2.21492,-0.000192883,0.617129,0.000209309,0.00117364,-0.0527405,0.000460574,-0.0198276,-0.00222568,0.0725685,0.00242,0,0,0,-0.0201465,0,0.000436684,0,0,0,0.0685019,-0.0246,0.588076,0,0,0,0,0,0
0.173076,0.000102035,-1.11295,3.94062e-05,2.2149,-0.000195121,0.617202,0.000211744,0.00118073,-0.053037,0.00046353,-0.0199622,-0.00223869,0.0729995,0.00243425,0,0,0,-0.0202634,0,0.000444341,0,0,0,0.0684816,-0.0246,0.588076,0,0,0,0,0,0
0.174076,0.000103223,-1.113,3.98728e-05,2.21488,-0.000197373,0.617275,0.000214192,0.00118783,-0.0533333,0.000466491,-0.0200971,-0.00225169,0.0734307,0.00244851,0,0,0,-0.0203804,0,0.000452088,0,0,0,0.0684612,-0.0246,0.588077,0,0,0,0,0,0
0.175076,0.000104418,-1.11306,4.03423e-05,2.21486,-0.000199638,0.617349,0.000216655,0.00119493,-0.0536295,0.000469457,-0.0202323,-0.0022647,0.0738621,0.00246277,0,0,0,-0.0204974,0,0.000459924,0,0,0,0.0684407,-0.0246,0.588077,0,0,0,0,0,0
0.176076,0.00010562,-1.11311,4.08147e-05,2.21484,-0.000201916,0.617423,0.000219133,0.00120204,-0.0539254,0.000472428,-0.0203679,-0.00227771,0.0742936,0.00247703,0,0,0,-0.0206144,0,0.00046785,0,0,0,0.0684201,-0.0246,0.588078,0,0,0,0,0,0
0.177076,0.000106829,-1.11317,4.12902e-05,2.21482,-0.000204207,0.617498,0.000221624,0.00120915,-0.0542211,0.000475404,-0.0205038,-0.00229072,0.0747253,0.00249129,0,0,0,-0.0207313,0,0.000475866,0,0,0,0.0683994,-0.0246,0.588078,0,0,0,0,0,0
0.178119,0.000108098,-1.11322,4.17893e-05,2.2148,-0.000206611,0.617576,0.000224238,0.00121656,-0.0545295,0.0004785,-0.0206458,-0.00230429,0.0751756,0.00250617,0,0,0,-0.0208533,0,0.000484324,0,0,0,0.0683776,-0.0246,0.588079,0,0,0,0,0,0
0.179149,0.000109359,-1.11328,4.22851e-05,2.21477,-0.000208997,0.617654,0.000226834,0.00122389,-0.0548336,0.000481578,-0.0207865,-0.00231769,0.0756204,0.00252086,0,0,0,-0.0209737,0,0.000492771,0,0,0,0.068356,-0.0246,0.588079,0,0,0,0,0,0
0.180149,0.00011059,-1.11333,4.27698e-05,2.21475,-0.000211328,0.61773,0.00022937,0.00123103,-0.0551287,0.000484578,-0.0209236,-0.0023307,0.0760527,0.00253514,0,0,0,-0.0210907,0,0.00050107,0,0,0,0.0683349,-0.0246,0.58808,0,0,0,0,0,0
0.181844,0.000112697,-1.11343,4.35996e-05,2.21472,-0.000215317,0.61786,0.000233709,0.00124294,-0.0556309,0.000489458,-0.0211539,-0.00235277,0.0767851,0.00255927,0,0,0,-0.021289,0,0.000515348,0,0,0,0.0682988,-0.0246,0.58808,0,0,0,0,0,0
0.183851,0.00011522,-1.11354,4.45936e-05,2.21467,-0.00022009,0.618016,0.000238901,0.00125718,-0.0562229,0.000495395,-0.0214296,-0.00237888,0.0776529,0.00258789,0,0,0,-0.0215236,0,0.000532593,0,0,0,0.0682556,-0.0246,0.588081,0,0,0,0,0,0
0.185137,0.000116848,-1.11361,4.52358e-05,2.21465,-0.00022317,0.618117,0.000242252,0.00126656,-0.0565988,0.000499487,-0.0216108,-0.00239561,0.07821,0.00260634,0,0,0,-0.0216739,0,0.000543844,0,0,0,0.0682278,-0.0246,0.588082,0,0,0,0,0,0
0.186296,0.000118327,-1.11368,4.58192e-05,2.21462,-0.000225966,0.618208,0.000245294,0.00127489,-0.0569394,0.000503029,-0.0217726,-0.00241071,0.0787124,0.00262293,0,0,0,-0.0218095,0,0.000554127,0,0,0,0.0682025,-0.0246,0.588083,0,0,0,0,0,0
0.187431,0.000119783,-1.11375,4.63939e-05,2.2146,-0.000228718,0.618298,0.000248289,0.00128302,-0.0572726,0.000506473,-0.021931,-0.00242548,0.079204,0.00263916,0,0,0,-0.0219422,0,0.000564313,0,0,0,0.0681776,-0.0246,0.588083,0,0,0,0,0,0
0.18858,0.000121266,-1.11381,4.69799e-05,2.21457,-0.000231523,0.61839,0.00025134,0.00129125,-0.0576099,0.000509954,-0.0220917,-0.00244044,0.0797021,0.00265558,0,0,0,-0.0220765,0,0.000574754,0,0,0,0.0681522,-0.0246,0.588084,0,0,0,0,0,0
0.18974,0.000122773,-1.11388,4.75754e-05,2.21455,-0.00023437,0.618483,0.000254439,0.00129956,-0.0579501,0.000513475,-0.0222544,-0.00245554,0.0802049,0.00267217,0,0,0,-0.0222121,0,0.000585421,0,0,0,0.0681265,-0.0246,0.588085,0,0,0,0,0,0
0.190906,0.000124299,-1.11395,4.81784e-05,2.21452,-0.000237252,0.618577,0.000257575,0.00130793,-0.058292,0.000517026,-0.0224186,-0.00247072,0.080711,0.00268885,0,0,0,-0.0223484,0,0.000596282,0,0,0,0.0681004,-0.0246,0.588085,0,0,0,0,0,0
0.192127,0.000125906,-1.11402,4.8814e-05,2.21449,-0.000240287,0.618676,0.000260878,0.00131668,-0.0586495,0.000520733,-0.0225907,-0.00248662,0.0812406,0.00270631,0,0,0,-0.0224911,0,0.00060779,0,0,0,0.0680729,-0.0246,0.588086,0,0,0,0,0,0
0.19329,0.000127447,-1.11409,4.94239e-05,2.21447,-0.000243197,0.618771,0.000264046,0.00132506,-0.0589897,0.00052431,-0.0227557,-0.00250177,0.0817458,0.00272296,0,0,0,-0.0226271,0,0.000618895,0,0,0,0.0680466,-0.0246,0.588087,0,0,0,0,0,0
0.194535,0.000129108,-1.11416,5.00814e-05,2.21444,-0.000246332,0.618873,0.000267458,0.00133399,-0.059354,0.000528099,-0.0229322,-0.00251798,0.0822866,0.00274078,0,0,0,-0.0227726,0,0.000630931,0,0,0,0.0680183,-0.0246,0.588088,0,0,0,0,0,0
0.195677,0.000130641,-1.11423,5.06887e-05,2.21441,-0.000249225,0.618968,0.000270608,0.00134225,-0.0596872,0.000531641,-0.0230955,-0.00253286,0.0827831,0.00275715,0,0,0,-0.0229061,0,0.000642108,0,0,0,0.0679921,-0.0246,0.588088,0,0,0,0,0,0
0.196911,0.000132309,-1.1143,5.13494e-05,2.21438,-0.000252371,0.619071,0.000274032,0.00135111,-0.0600477,0.000535409,-0.0232715,-0.00254893,0.0833196,0.00277481,0,0,0,-0.0230504,0,0.000654331,0,0,0,0.0679637,-0.0246,0.588089,0,0,0,0,0,0
0.198737,0.000134799,-1.11441,5.23367e-05,2.21434,-0.000257068,0.619224,0.000279145,0.0013641,-0.0605821,0.000540836,-0.0235308,-0.00257272,0.0841134,0.00280089,0,0,0,-0.0232637,0,0.000672695,0,0,0,0.0679212,-0.0246,0.58809,0,0,0,0,0,0
0.200577,0.000137333,-1.11453,5.33423e-05,2.2143,-0.000261846,0.619381,0.000284347,0.00137739,-0.0611179,0.000546526,-0.0237961,-0.00259669,0.0849144,0.00282726,0,0,0,-0.0234787,0,0.000691549,0,0,0,0.067878,-0.0246,0.588092,0,0,0,0,0,0
0.20235,0.000139798,-1.11464,5.4321e-05,2.21425,-0.00026649,0.619533,0.000289405,0.00139023,-0.061633,0.000552054,-0.0240533,-0.00261979,0.0856869,0.00285268,0,0,0,-0.0236859,0,0.000710045,0,0,0,0.067836,-0.0246,0.588093,0,0,0,0,0,0
0.203695,0.000141681,-1.11472,5.50693e-05,2.21422,-0.000270037,0.619649,0.000293267,0.0014001,-0.0620218,0.000556399,-0.0242512,-0.00263731,0.0862735,0.00287203,0,0,0,-0.023843,0,0.000724294,0,0,0,0.0678039,-0.0246,0.588094,0,0,0,0,0,0
0.204893,0.000143369,-1.11479,5.57405e-05,2.21419,-0.000273215,0.619753,0.000296729,0.00140883,-0.0623688,0.000560194,-0.0244269,-0.00265292,0.0867962,0.00288924,0,0,0,-0.023983,0,0.000737147,0,0,0,0.0677752,-0.0246,0.588095,0,0,0,0,0,0
0.2061,0.00014508,-1.11487,5.64213e-05,2.21416,-0.000276437,0.619858,0.000300238,0.00141759,-0.0627188,0.000563969,-0.0246037,-0.00266865,0.087323,0.00290657,0,0,0,-0.024124,0,0.000750251,0,0,0,0.0677461,-0.0246,0.588096,0,0,0,0,0,0
0.207247,0.000146716,-1.11494,5.70725e-05,2.21413,-0.000279516,0.619959,0.000303591,0.00142594,-0.0630507,0.00056759,-0.0247726,-0.00268361,0.0878239,0.00292304,0,0,0,-0.024258,0,0.000762848,0,0,0,0.0677182,-0.0246,0.588097,0,0,0,0,0,0
0.208397,0.000148366,-1.11501,5.77294e-05,2.2141,-0.000282619,0.62006,0.000306972,0.00143429,-0.0633835,0.000571204,-0.0249422,-0.0026986,0.0883262,0.00293956,0,0,0,-0.0243924,0,0.000775615,0,0,0,0.0676902,-0.0246,0.588098,0,0,0,0,0,0
0.209532,0.000150003,-1.11509,5.83818e-05,2.21408,-0.000285699,0.620161,0.000310327,0.00144255,-0.0637115,0.000574784,-0.0251101,-0.00271339,0.0888222,0.00295586,0,0,0,-0.0245249,0,0.000788353,0,0,0,0.0676623,-0.0246,0.588098,0,0,0,0,0,0
0.210646,0.000151619,-1.11516,5.90261e-05,2.21405,-0.000288738,0.620261,0.000313637,0.00145067,-0.0640331,0.000578309,-0.0252755,-0.00272791,0.0893092,0.00297187,0,0,0,-0.0246551,0,0.000800992,0,0,0,0.0676349,-0.0246,0.588099,0,0,0,0,0,0
0.211901,0.000153451,-1.11524,5.97569e-05,2.21402,-0.000292183,0.620373,0.00031739,0.00145977,-0.0643959,0.000582224,-0.0254616,-0.00274428,0.0898581,0.00298988,0,0,0,-0.0248017,0,0.000815393,0,0,0,0.0676037,-0.0246,0.5881,0,0,0,0,0,0
0.213133,0.00015526,-1.11532,6.04785e-05,2.21398,-0.000295581,0.620485,0.000321093,0.00146875,-0.0647507,0.000586137,-0.0256455,-0.00276033,0.0903968,0.00300758,0,0,0,-0.0249455,0,0.000829686,0,0,0,0.067573,-0.0246,0.588101,0,0,0,0,0,0
0.214276,0.000156948,-1.11539,6.11527e-05,2.21395,-0.000298754,0.620589,0.00032455,0.00147713,-0.0650795,0.000589805,-0.0258173,-0.00277523,0.0908973,0.00302403,0,0,0,-0.025079,0,0.000843103,0,0,0,0.0675444,-0.0246,0.588102,0,0,0,0,0,0
0.215461,0.000158709,-1.11547,6.1856e-05,2.21392,-0.00030206,0.620697,0.000328153,0.00148577,-0.0654205,0.000593561,-0.0259951,-0.00279068,0.0914162,0.00304106,0,0,0,-0.0252173,0,0.000857163,0,0,0,0.0675145,-0.0246,0.588103,0,0,0,0,0,0
0.216673,0.000160521,-1.11555,6.25805e-05,2.21389,-0.000305463,0.620808,0.000331862,0.00149463,-0.0657692,0.00059742,-0.0261778,-0.00280649,0.0919476,0.0030585,0,0,0,-0.0253589,0,0.000871714,0,0,0,0.0674837,-0.0246,0.588104,0,0,0,0,0,0
0.217983,0.000162491,-1.11564,6.33683e-05,2.21386,-0.000309161,0.62093,0.000335892,0.00150418,-0.0661456,0.000601569,-0.0263754,-0.00282357,0.0925217,0.00307732,0,0,0,-0.0255118,0,0.000887612,0,0,0,0.0674503,-0.0246,0.588106,0,0,0,0,0,0
0.219242,0.000164396,-1.11572,6.41307e-05,2.21382,-0.000312736,0.621047,0.000339789,0.00151342,-0.0665065,0.000605628,-0.0265668,-0.00283999,0.093074,0.00309545,0,0,0,-0.0256588,0,0.000903075,0,0,0,0.067418,-0.0246,0.588107,0,0,0,0,0,0
0.220431,0.000166206,-1.1158,6.48554e-05,2.21379,-0.000316132,0.621158,0.00034349,0.00152216,-0.0668468,0.00060948,-0.0267484,-0.00285549,0.0935958,0.00311257,0,0,0,-0.0257976,0,0.000917843,0,0,0,0.0673873,-0.0246,0.588108,0,0,0,0,0,0
0.221605,0.000168004,-1.11588,6.55757e-05,2.21376,-0.000319504,0.621269,0.000347166,0.00153079,-0.0671829,0.00061327,-0.026928,-0.00287081,0.0941116,0.00312949,0,0,0,-0.0259347,0,0.00093259,0,0,0,0.0673569,-0.0246,0.588109,0,0,0,0,0,0
0.222764,0.000169788,-1.11596,6.62906e-05,2.21373,-0.000322847,0.621378,0.000350811,0.00153931,-0.0675141,0.000617019,-0.0271058,-0.00288592,0.0946206,0.00314618,0,0,0,-0.0260699,0,0.00094729,0,0,0,0.0673267,-0.0246,0.58811,0,0,0,0,0,0
0.223897,0.000171541,-1.11603,6.6994e-05,2.2137,-0.000326134,0.621486,0.000354395,0.00154765,-0.0678377,0.000620697,-0.0272802,-0.0029007,0.0951186,0.00316251,0,0,0,-0.0262022,0,0.000961816,0,0,0,0.067297,-0.0246,0.588111,0,0,0,0,0,0
0.225029,0.000173302,-1.11611,6.77006e-05,2.21367,-0.000329434,0.621594,0.000357993,0.00155598,-0.0681607,0.000624369,-0.0274549,-0.00291547,0.0956163,0.00317881,0,0,0,-0.0263343,0,0.000976471,0,0,0,0.0672672,-0.0246,0.588112,0,0,0,0,0,0
0.226152,0.000175059,-1.11619,6.8406e-05,2.21364,-0.000332725,0.621702,0.000361581,0.00156425,-0.0684808,0.000628023,-0.0276288,-0.00293012,0.0961103,0.003195,0,0,0,-0.0264654,0,0.00099116,0,0,0,0.0672375,-0.0246,0.588113,0,0,0,0,0,0
0.227277,0.000176828,-1.11627,6.91166e-05,2.2136,-0.000336038,0.621811,0.000365193,0.00157255,-0.0688012,0.000631687,-0.0278035,-0.00294479,0.0966055,0.00321122,0,0,0,-0.0265966,0,0.00100602,0,0,0,0.0672075,-0.0246,0.588114,0,0,0,0,0,0
0.228409,0.000178617,-1.11634,6.98355e-05,2.21357,-0.000339386,0.621921,0.000368845,0.00158089,-0.0691232,0.000635378,-0.0279797,-0.00295955,0.0971036,0.00322753,0,0,0,-0.0267287,0,0.00102111,0,0,0,0.0671773,-0.0246,0.588116,0,0,0,0,0,0
0.229495,0.000180344,-1.11642,7.05298e-05,2.21354,-0.000342618,0.622027,0.000372369,0.00158894,-0.0694318,0.000638955,-0.0281498,-0.00297373,0.0975823,0.00324321,0,0,0,-0.0268555,0,0.00103575,0,0,0,0.0671481,-0.0246,0.588117,0,0,0,0,0,0
0.230663,0.00018221,-1.1165,7.12808e-05,2.21351,-0.00034611,0.622141,0.000376178,0.00159754,-0.069764,0.000642747,-0.0283324,-0.00298898,0.0980972,0.00326005,0,0,0,-0.0269918,0,0.00105165,0,0,0,0.0671166,-0.0246,0.588118,0,0,0,0,0,0
0.232052,0.000184442,-1.1166,7.21791e-05,2.21347,-0.000350284,0.622278,0.000380731,0.00160772,-0.0701589,0.000647205,-0.0285494,-0.00300709,0.098709,0.00328004,0,0,0,-0.0271537,0,0.00107074,0,0,0,0.0670789,-0.0246,0.588119,0,0,0,0,0,0
0.233281,0.00018643,-1.11669,7.298e-05,2.21343,-0.000354001,0.6224,0.000384786,0.00161689,-0.0705063,0.000651332,-0.0287445,-0.00302313,0.0992516,0.00329782,0,0,0,-0.0272971,0,0.00108785,0,0,0,0.0670453,-0.0246,0.588121,0,0,0,0,0,0
0.23436,0.000188183,-1.11676,7.36867e-05,2.2134,-0.000357278,0.622508,0.000388361,0.00162496,-0.0708109,0.00065497,-0.0289164,-0.00303721,0.0997281,0.00331342,0,0,0,-0.027423,0,0.00110301,0,0,0,0.0670157,-0.0246,0.588122,0,0,0,0,0,0
0.23536,0.000189816,-1.11683,7.43451e-05,2.21337,-0.000360329,0.622608,0.00039169,0.00163241,-0.0710932,0.000658319,-0.0290758,-0.00305025,0.10017,0.00332788,0,0,0,-0.0275396,0,0.00111718,0,0,0,0.0669882,-0.0246,0.588123,0,0,0,0,0,0
0.23636,0.000191456,-1.1169,7.50068e-05,2.21334,-0.000363392,0.622709,0.000395032,0.00163984,-0.0713756,0.000661636,-0.0292351,-0.0030633,0.100612,0.00334232,0,0,0,-0.0276562,0,0.00113148,0,0,0,0.0669605,-0.0246,0.588124,0,0,0,0,0,0
0.237361,0.000193103,-1.11698,7.56719e-05,2.21332,-0.000366469,0.62281,0.000398389,0.00164727,-0.0716578,0.00066496,-0.0293949,-0.00307635,0.101054,0.00335677,0,0,0,-0.0277729,0,0.0011459,0,0,0,0.0669327,-0.0246,0.588125,0,0,0,0,0,0
0.238361,0.000194758,-1.11705,7.63402e-05,2.21329,-0.000369559,0.622911,0.000401761,0.00165471,-0.0719398,0.00066829,-0.0295551,-0.00308941,0.101496,0.00337122,0,0,0,-0.0278895,0,0.00116044,0,0,0,0.0669049,-0.0246,0.588126,0,0,0,0,0,0
0.239361,0.00019642,-1.11712,7.70119e-05,2.21326,-0.000372662,0.623013,0.000405147,0.00166215,-0.0722214,0.000671627,-0.0297158,-0.00310246,0.101938,0.00338568,0,0,0,-0.0280061,0,0.0011751,0,0,0,0.0668768,-0.0246,0.588128,0,0,0,0,0,0
0.240361,0.00019809,-1.11719,7.76869e-05,2.21323,-0.000375777,0.623116,0.000408547,0.0016696,-0.0725028,0.000674971,-0.029877,-0.00311551,0.102381,0.00340013,0,0,0,-0.0281227,0,0.00118988,0,0,0,0.0668487,-0.0246,0.588129,0,0,0,0,0,0
0.241402,0.000199836,-1.11727,7.83931e-05,2.21319,-0.000379035,0.623223,0.000412102,0.00167735,-0.0727957,0.000678437,-0.0300449,-0.00312909,0.102841,0.00341517,0,0,0,-0.028244,0,0.0012054,0,0,0,0.0668193,-0.0246,0.58813,0,0,0,0,0,0
0.242694,0.000202016,-1.11736,7.92751e-05,2.21316,-0.000383099,0.623356,0.000416539,0.00168688,-0.0731599,0.000682644,-0.0302526,-0.00314597,0.103413,0.00343381,0,0,0,-0.0283946,0,0.00122485,0,0,0,0.0667826,-0.0246,0.588132,0,0,0,0,0,0
0.243917,0.00020409,-1.11745,8.01152e-05,2.21312,-0.000386967,0.623484,0.000420761,0.00169605,-0.0735025,0.000686796,-0.0304521,-0.00316193,0.103956,0.00345152,0,0,0,-0.0285372,0,0.00124346,0,0,0,0.0667477,-0.0246,0.588133,0,0,0,0,0,0
0.24498,0.000205901,-1.11753,8.08491e-05,2.21309,-0.000390342,0.623595,0.000424446,0.00170407,-0.0737993,0.000690467,-0.0306267,-0.00317579,0.104427,0.00346693,0,0,0,-0.0286611,0,0.00125978,0,0,0,0.0667173,-0.0246,0.588135,0,0,0,0,0,0
0.246054,0.00020774,-1.11761,8.15944e-05,2.21305,-0.000393768,0.623707,0.000428185,0.0017121,-0.0740998,0.000694092,-0.0308024,-0.00318981,0.104903,0.00348246,0,0,0,-0.0287862,0,0.00127641,0,0,0,0.0666864,-0.0246,0.588136,0,0,0,0,0,0
0.247206,0.000209722,-1.1177,8.23986e-05,2.21302,-0.00039746,0.623829,0.000432217,0.00172069,-0.0744224,0.000697954,-0.0309911,-0.00320485,0.105414,0.00349913,0,0,0,-0.0289205,0,0.00129442,0,0,0,0.066653,-0.0246,0.588137,0,0,0,0,0,0
0.248373,0.000211742,-1.11778,8.32181e-05,2.21298,-0.00040122,0.623952,0.000436322,0.00172944,-0.0747484,0.000701911,-0.0311834,-0.00322009,0.105933,0.00351603,0,0,0,-0.0290565,0,0.00131284,0,0,0,0.0666191,-0.0246,0.588139,0,0,0,0,0,0
0.249618,0.000213905,-1.11788,8.40966e-05,2.21294,-0.000405246,0.624085,0.000440719,0.00173874,-0.0750958,0.000706105,-0.0313886,-0.00323633,0.106485,0.00353403,0,0,0,-0.0292015,0,0.00133266,0,0,0,0.0665828,-0.0246,0.588141,0,0,0,0,0,0
0.250623,0.000215661,-1.11795,8.481e-05,2.21291,-0.000408513,0.624192,0.000444286,0.00174641,-0.0753743,0.000709668,-0.0315571,-0.00324944,0.106932,0.00354864,0,0,0,-0.0293186,0,0.00134881,0,0,0,0.0665533,-0.0246,0.588142,0,0,0,0,0,0
0.251623,0.000217415,-1.11803,8.55232e-05,2.21288,-0.000411776,0.6243,0.00044785,0.00175393,-0.0756525,0.000713091,-0.0317235,-0.0032625,0.107377,0.00356313,0,0,0,-0.0294351,0,0.00136502,0,0,0,0.0665239,-0.0246,0.588143,0,0,0,0,0,0
0.252882,0.000219634,-1.11812,8.6426e-05,2.21284,-0.000415903,0.624436,0.000452358,0.00176328,-0.076004,0.000717259,-0.0319317,-0.00327894,0.107937,0.00358132,0,0,0,-0.0295817,0,0.0013856,0,0,0,0.0664866,-0.0246,0.588145,0,0,0,0,0,0
0.253885,0.000221412,-1.1182,8.71496e-05,2.21281,-0.000419207,0.624544,0.000455967,0.00177096,-0.076281,0.000720853,-0.0321016,-0.00329203,0.108384,0.00359592,0,0,0,-0.0296986,0,0.00140215,0,0,0,0.0664568,-0.0246,0.588146,0,0,0,0,0,0
0.254885,0.000223191,-1.11828,8.7874e-05,2.21277,-0.000422513,0.624653,0.000459578,0.00177851,-0.0765583,0.000724298,-0.0322696,-0.00330508,0.108829,0.00361042,0,0,0,-0.0298151,0,0.00141878,0,0,0,0.066427,-0.0246,0.588148,0,0,0,0,0,0
0.255886,0.000224977,-1.11835,8.86018e-05,2.21274,-0.000425831,0.624762,0.000463203,0.00178605,-0.0768353,0.000727748,-0.032438,-0.00331814,0.109274,0.00362492,0,0,0,-0.0299315,0,0.00143554,0,0,0,0.0663971,-0.0246,0.588149,0,0,0,0,0,0
0.256886,0.000226771,-1.11843,8.93331e-05,2.21271,-0.000429163,0.624872,0.000466843,0.0017936,-0.077112,0.000731205,-0.0326069,-0.00333119,0.10972,0.00363942,0,0,0,-0.0300479,0,0.00145243,0,0,0,0.066367,-0.0246,0.588151,0,0,0,0,0,0
0.257886,0.000228572,-1.11851,9.00678e-05,2.21268,-0.000432507,0.624982,0.000470497,0.00180116,-0.0773884,0.000734669,-0.0327763,-0.00334424,0.110166,0.00365393,0,0,0,-0.0301644,0,0.00146945,0,0,0,0.0663368,-0.0246,0.588152,0,0,0,0,0,0
0.258886,0.000230381,-1.11859,9.0806e-05,2.21264,-0.000435865,0.625093,0.000474166,0.00180873,-0.0776645,0.000738141,-0.0329462,-0.0033573,0.110612,0.00366844,0,0,0,-0.0302808,0,0.0014866,0,0,0,0.0663066,-0.0246,0.588154,0,0,0,0,0,0
0.259886,0.000232197,-1.11866,9.15477e-05,2.21261,-0.000439236,0.625204,0.000477849,0.0018163,-0.0779404,0.000741619,-0.0331166,-0.00337035,0.111058,0.00368295,0,0,0,-0.0303972,0,0.00150389,0,0,0,0.0662762,-0.0246,0.588155,0,0,0,0,0,0
0.260886,0.000234021,-1.11874,9.22929e-05,2.21258,-0.00044262,0.625316,0.000481547,0.00182388,-0.0782159,0.000745105,-0.0332874,-0.00338341,0.111504,0.00369747,0,0,0,-0.0305136,0,0.00152131,0,0,0,0.0662456,-0.0246,0.588157,0,0,0,0,0,0
0.261886,0.000235853,-1.11882,9.30416e-05,2.21254,-0.000446016,0.625428,0.00048526,0.00183146,-0.0784911,0.000748598,-0.0334588,-0.00339646,0.111951,0.00371198,0,0,0,-0.03063,0,0.00153886,0,0,0,0.066215,-0.0246,0.588158,0,0,0,0,0,0
0.262886,0.000237692,-1.1189,9.37937e-05,2.21251,-0.000449426,0.62554,0.000488986,0.00183905,-0.078766,0.000752098,-0.0336306,-0.00340951,0.112398,0.0037265,0,0,0,-0.0307464,0,0.00155655,0,0,0,0.0661843,-0.0246,0.58816,0,0,0,0,0,0
0.263886,0.000239539,-1.11898,9.45494e-05,2.21248,-0.000452849,0.625653,0.000492728,0.00184665,-0.0790406,0.000755606,-0.033803,-0.00342257,0.112845,0.00374103,0,0,0,-0.0308627,0,0.00157437,0,0,0,0.0661534,-0.0246,0.588161,0,0,0,0,0,0
0.264887,0.000241394,-1.11906,9.53087e-05,2.21244,-0.000456285,0.625766,0.000496484,0.00185425,-0.079315,0.000759121,-0.0339758,-0.00343562,0.113292,0.00375556,0,0,0,-0.0309791,0,0.00159233,0,0,0,0.0661224,-0.0246,0.588163,0,0,0,0,0,0
0.2661,0.000243655,-1.11915,9.62349e-05,2.2124,-0.000460474,0.625904,0.000501063,0.00186338,-0.079649,0.000763261,-0.0341845,-0.00345147,0.113835,0.00377314,0,0,0,-0.0311203,0,0.0016143,0,0,0,0.0660846,-0.0246,0.588165,0,0,0,0,0,0
0.267115,0.000245554,-1.11924,9.70134e-05,2.21236,-0.00046399,0.62602,0.000504908,0.00187121,-0.0799252,0.00076697,-0.0343627,-0.00346471,0.114289,0.00378793,0,0,0,-0.0312383,0,0.00163283,0,0,0,0.0660529,-0.0246,0.588167,0,0,0,0,0,0
0.268115,0.000247433,-1.11932,9.7784e-05,2.21233,-0.000467469,0.626135,0.00050871,0.00187884,-0.0801984,0.000770517,-0.0345372,-0.00347776,0.114737,0.00380247,0,0,0,-0.0313546,0,0.00165123,0,0,0,0.0660216,-0.0246,0.588168,0,0,0,0,0,0
0.269115,0.00024932,-1.1194,9.85581e-05,2.2123,-0.00047096,0.62625,0.000512528,0.00188648,-0.0804714,0.000774063,-0.0347122,-0.00349081,0.115185,0.003817,0,0,0,-0.0314709,0,0.00166976,0,0,0,0.0659901,-0.0246,0.58817,0,0,0,0,0,0
0.270115,0.000251214,-1.11948,9.93358e-05,2.21226,-0.000474464,0.626366,0.00051636,0.00189411,-0.0807441,0.000777616,-0.0348877,-0.00350386,0.115633,0.00383154,0,0,0,-0.0315872,0,0.00168844,0,0,0,0.0659585,-0.0246,0.588172,0,0,0,0,0,0
0.271213,0.000253302,-1.11957,0.000100194,2.21222,-0.000478325,0.626493,0.000520583,0.00190245,-0.0810437,0.000781461,-0.03508,-0.00351819,0.116125,0.00384748,0,0,0,-0.0317148,0,0.00170909,0,0,0,0.0659237,-0.0246,0.588173,0,0,0,0,0,0
0.273056,0.000256833,-1.11972,0.000101645,2.21216,-0.000484853,0.626709,0.000527721,0.00191613,-0.0815504,0.000787547,-0.0353992,-0.00354229,0.116951,0.00387413,0,0,0,-0.031929,0,0.00174414,0,0,0,0.0658649,-0.0246,0.588177,0,0,0,0,0,0
0.274363,0.000259351,-1.11982,0.000102681,2.21211,-0.000489506,0.626862,0.000532811,0.00192645,-0.081901,0.000792586,-0.0356359,-0.00355931,0.117538,0.00389326,0,0,0,-0.032081,0,0.00176929,0,0,0,0.0658229,-0.0246,0.588179,0,0,0,0,0,0
0.27551,0.000261572,-1.11992,0.000103595,2.21207,-0.000493607,0.626998,0.000537297,0.00193534,-0.0822106,0.000796815,-0.0358417,-0.00357428,0.118054,0.00390999,0,0,0,-0.0322143,0,0.00179157,0,0,0,0.065786,-0.0246,0.588181,0,0,0,0,0,0
0.276624,0.000263737,-1.12001,0.000104487,2.21203,-0.000497604,0.62713,0.000541671,0.00194391,-0.0825117,0.000800849,-0.0360411,-0.00358881,0.118554,0.00392621,0,0,0,-0.0323437,0,0.00181337,0,0,0,0.0657499,-0.0246,0.588183,0,0,0,0,0,0
0.277745,0.000265925,-1.1201,0.000105389,2.21199,-0.000501642,0.627263,0.000546088,0.00195252,-0.0828146,0.000804888,-0.036242,-0.00360343,0.119058,0.00394252,0,0,0,-0.0324739,0,0.00183548,0,0,0,0.0657135,-0.0246,0.588185,0,0,0,0,0,0
0.278926,0.000268243,-1.1202,0.000106345,2.21195,-0.000505918,0.627405,0.000550767,0.00196158,-0.0831339,0.000809121,-0.0364541,-0.00361885,0.119589,0.00395971,0,0,0,-0.0326112,0,0.00185899,0,0,0,0.065675,-0.0246,0.588187,0,0,0,0,0,0
0.280121,0.000270597,-1.1203,0.000107317,2.2119,-0.00051026,0.627548,0.000555518,0.00197077,-0.0834559,0.000813445,-0.0366697,-0.00363444,0.120127,0.00397711,0,0,0,-0.03275,0,0.00188296,0,0,0,0.0656359,-0.0246,0.58819,0,0,0,0,0,0
0.281389,0.000273109,-1.12041,0.000108354,2.21185,-0.000514889,0.627701,0.000560585,0.0019805,-0.0837977,0.000818004,-0.0368987,-0.00365099,0.120698,0.00399556,0,0,0,-0.0328972,0,0.00190863,0,0,0,0.0655942,-0.0246,0.588192,0,0,0,0,0,0
0.28284,0.000275999,-1.12053,0.000109549,2.2118,-0.000520216,0.627877,0.000566414,0.00199159,-0.084189,0.000823166,-0.037161,-0.00366993,0.121351,0.00401667,0,0,0,-0.0330657,0,0.00193829,0,0,0,0.0655462,-0.0246,0.588195,0,0,0,0,0,0
0.284286,0.000278894,-1.12065,0.000110746,2.21175,-0.000525547,0.628054,0.00057225,0.00200277,-0.0845765,0.000828456,-0.0374251,-0.00368879,0.122003,0.00403773,0,0,0,-0.0332335,0,0.00196814,0,0,0,0.0654981,-0.0246,0.588198,0,0,0,0,0,0
0.285286,0.000280905,-1.12074,0.000111579,2.21171,-0.00052925,0.628176,0.000576303,0.00201077,-0.0848403,0.000832446,-0.0376127,-0.0037018,0.122454,0.00405241,0,0,0,-0.0333496,0,0.00198896,0,0,0,0.0654648,-0.0246,0.5882,0,0,0,0,0,0
0.286286,0.000282924,-1.12082,0.000112415,2.21167,-0.000532965,0.628299,0.000580371,0.00201852,-0.0851077,0.000836122,-0.0377965,-0.00371484,0.122906,0.00406699,0,0,0,-0.0334657,0,0.00200994,0,0,0,0.0654313,-0.0246,0.588202,0,0,0,0,0,0
0.287286,0.00028495,-1.12091,0.000113255,2.21163,-0.000536693,0.628422,0.000584453,0.00202627,-0.0853747,0.000839806,-0.037981,-0.00372789,0.123357,0.00408157,0,0,0,-0.0335817,0,0.00203106,0,0,0,0.0653977,-0.0246,0.588204,0,0,0,0,0,0
0.288286,0.000286984,-1.12099,0.000114098,2.2116,-0.000540434,0.628546,0.000588549,0.00203403,-0.0856414,0.000843498,-0.0381659,-0.00374093,0.123809,0.00409616,0,0,0,-0.0336978,0,0.00205233,0,0,0,0.065364,-0.0246,0.588206,0,0,0,0,0,0
0.289286,0.000289026,-1.12108,0.000114946,2.21156,-0.000544189,0.628671,0.00059266,0.00204179,-0.0859077,0.000847198,-0.0383514,-0.00375397,0.124261,0.00411074,0,0,0,-0.0338138,0,0.00207374,0,0,0,0.0653302,-0.0246,0.588208,0,0,0,0,0,0
0.290286,0.000291076,-1.12116,0.000115797,2.21152,-0.000547956,0.628795,0.000596786,0.00204956,-0.0861736,0.000850906,-0.0385375,-0.00376702,0.124713,0.00412533,0,0,0,-0.0339298,0,0.00209531,0,0,0,0.0652963,-0.0246,0.58821,0,0,0,0,0,0
0.291286,0.000293134,-1.12125,0.000116651,2.21148,-0.000551737,0.62892,0.000600926,0.00205734,-0.0864392,0.000854622,-0.0387241,-0.00378006,0.125165,0.00413992,0,0,0,-0.0340458,0,0.00211702,0,0,0,0.0652622,-0.0246,0.588212,0,0,0,0,0,0
0.292508,0.000295659,-1.12136,0.000117701,2.21143,-0.000556375,0.629074,0.000606006,0.00206671,-0.0867653,0.000859003,-0.0389505,-0.00379601,0.125717,0.0041577,0,0,0,-0.0341875,0,0.00214375,0,0,0,0.0652204,-0.0246,0.588215,0,0,0,0,0,0
0.293772,0.000298283,-1.12147,0.000118793,2.21138,-0.000561193,0.629234,0.000611284,0.00207653,-0.0871003,0.000863689,-0.0391875,-0.00381249,0.126289,0.00417614,0,0,0,-0.0343341,0,0.00217163,0,0,0,0.0651771,-0.0246,0.588217,0,0,0,0,0,0
0.294772,0.000300368,-1.12155,0.00011966,2.21134,-0.000565019,0.62936,0.000615475,0.0020845,-0.0873622,0.000867636,-0.0393786,-0.0038255,0.126742,0.0041908,0,0,0,-0.03445,0,0.00219386,0,0,0,0.0651426,-0.0246,0.58822,0,0,0,0,0,0
0.295772,0.00030246,-1.12164,0.000120532,2.2113,-0.000568858,0.629488,0.000619681,0.00209231,-0.0876263,0.000871388,-0.0395677,-0.00383854,0.127196,0.0042054,0,0,0,-0.0345659,0,0.00221625,0,0,0,0.065108,-0.0246,0.588222,0,0,0,0,0,0
0.296772,0.000304561,-1.12173,0.000121407,2.21126,-0.00057271,0.629615,0.000623902,0.00210013,-0.0878899,0.000875147,-0.0397573,-0.00385157,0.127649,0.00422,0,0,0,-0.0346818,0,0.00223879,0,0,0,0.0650733,-0.0246,0.588224,0,0,0,0,0,0
0.297772,0.000306669,-1.12182,0.000122286,2.21122,-0.000576575,0.629743,0.000628137,0.00210795,-0.0881532,0.000878915,-0.0399474,-0.00386461,0.128102,0.00423461,0,0,0,-0.0347977,0,0.00226147,0,0,0,0.0650385,-0.0246,0.588226,0,0,0,0,0,0
0.298848,0.000308946,-1.12191,0.000123236,2.21118,-0.000580747,0.629882,0.000632709,0.00211632,-0.0884368,0.000882917,-0.0401518,-0.00387864,0.12859,0.0042503,0,0,0,-0.0349224,0,0.00228605,0,0,0,0.065001,-0.0246,0.588229,0,0,0,0,0,0
0.300026,0.000311449,-1.12202,0.000124281,2.21113,-0.000585334,0.630034,0.000637736,0.00212549,-0.088747,0.000887293,-0.0403761,-0.003894,0.129125,0.00426749,0,0,0,-0.0350588,0,0.00231316,0,0,0,0.0649597,-0.0246,0.588231,0,0,0,0,0,0
0.30117,0.000313891,-1.12212,0.000125301,2.21109,-0.000589805,0.630182,0.000642636,0.00213448,-0.0890464,0.00089166,-0.040596,-0.0039089,0.129644,0.0042842,0,0,0,-0.0351913,0,0.00233969,0,0,0,0.0649194,-0.0246,0.588234,0,0,0,0,0,0
0.302236,0.000316176,-1.12221,0.000126256,2.21104,-0.000593989,0.630321,0.000647222,0.00214291,-0.0893247,0.000895779,-0.0408022,-0.00392279,0.130129,0.00429981,0,0,0,-0.0353148,0,0.00236461,0,0,0,0.0648818,-0.0246,0.588237,0,0,0,0,0,0
0.303504,0.000318904,-1.12233,0.000127397,2.21099,-0.000598981,0.630487,0.000652694,0.00215273,-0.0896577,0.000900446,-0.0410449,-0.00393932,0.130704,0.00431828,0,0,0,-0.0354616,0,0.00239445,0,0,0,0.0648368,-0.0246,0.58824,0,0,0,0,0,0
0.304733,0.000321563,-1.12244,0.00012851,2.21094,-0.000603845,0.630648,0.000658027,0.00216243,-0.089978,0.000905177,-0.0412838,-0.00395533,0.131264,0.00433626,0,0,0,-0.0356039,0,0.00242364,0,0,0,0.064793,-0.0246,0.588243,0,0,0,0,0,0
0.305976,0.000324262,-1.12255,0.000129641,2.21089,-0.00060878,0.630812,0.000663437,0.00217221,-0.0903016,0.000909929,-0.0415255,-0.00397152,0.131829,0.00435443,0,0,0,-0.0357477,0,0.00245338,0,0,0,0.0647486,-0.0246,0.588246,0,0,0,0,0,0
0.307208,0.00032695,-1.12266,0.000130768,2.21084,-0.000613692,0.630975,0.000668823,0.00218193,-0.0906216,0.000914672,-0.0417662,-0.00398756,0.13239,0.00437244,0,0,0,-0.0358903,0,0.0024831,0,0,0,0.0647044,-0.0246,0.588249,0,0,0,0,0,0
0.308448,0.000329668,-1.12278,0.000131908,2.21079,-0.000618657,0.63114,0.000674268,0.00219171,-0.0909433,0.000919443,-0.0420093,-0.00400371,0.132954,0.00439057,0,0,0,-0.0360338,0,0.00251326,0,0,0,0.0646597,-0.0246,0.588252,0,0,0,0,0,0
0.309689,0.0003324,-1.12289,0.000133055,2.21073,-0.000623646,0.631305,0.00067974,0.00220152,-0.0912647,0.000924237,-0.0422534,-0.00401987,0.13352,0.00440873,0,0,0,-0.0361773,0,0.00254369,0,0,0,0.0646148,-0.0246,0.588255,0,0,0,0,0,0
0.310929,0.000335142,-1.123,0.000134207,2.21068,-0.00062865,0.631472,0.000685229,0.00221133,-0.0915851,0.000929041,-0.0424983,-0.00403601,0.134085,0.00442687,0,0,0,-0.0363207,0,0.00257433,0,0,0,0.0645698,-0.0246,0.588258,0,0,0,0,0,0
0.312194,0.000337953,-1.12312,0.000135389,2.21063,-0.000633777,0.631642,0.000690853,0.00222133,-0.0919117,0.000933934,-0.0427487,-0.00405248,0.134662,0.00444537,0,0,0,-0.036467,0,0.00260585,0,0,0,0.0645236,-0.0246,0.588261,0,0,0,0,0,0
0.313334,0.000340496,-1.12322,0.000136459,2.21058,-0.000638414,0.631796,0.00069594,0.00223046,-0.0922039,0.000938483,-0.0429769,-0.0040673,0.135183,0.00446208,0,0,0,-0.0365988,0,0.00263447,0,0,0,0.0644819,-0.0246,0.588264,0,0,0,0,0,0
0.314481,0.000343064,-1.12333,0.00013754,2.21053,-0.000643096,0.631952,0.000701077,0.00223956,-0.0924987,0.000942955,-0.0432056,-0.00408223,0.135706,0.00447887,0,0,0,-0.0367314,0,0.00266347,0,0,0,0.0644398,-0.0246,0.588268,0,0,0,0,0,0
0.315661,0.000345718,-1.12344,0.000138658,2.21048,-0.000647931,0.632113,0.000706382,0.00224891,-0.0928018,0.000947545,-0.0434415,-0.00409758,0.136245,0.00449613,0,0,0,-0.0368677,0,0.00269352,0,0,0,0.0643963,-0.0246,0.588271,0,0,0,0,0,0
0.316806,0.000348303,-1.12355,0.000139748,2.21043,-0.00065264,0.632269,0.000711549,0.00225804,-0.0930947,0.000952069,-0.0436719,-0.00411248,0.136769,0.0045129,0,0,0,-0.037,0,0.00272291,0,0,0,0.0643539,-0.0246,0.588274,0,0,0,0,0,0
0.317929,0.000350849,-1.12365,0.000140822,2.21038,-0.000657275,0.632423,0.000716637,0.002267,-0.0933816,0.000956508,-0.0438986,-0.00412708,0.137282,0.00452935,0,0,0,-0.0371298,0,0.00275194,0,0,0,0.0643122,-0.0246,0.588277,0,0,0,0,0,0
0.31909,0.000353492,-1.12376,0.000141938,2.21033,-0.000662083,0.632583,0.000721914,0.00227622,-0.0936782,0.000961052,-0.0441329,-0.00414219,0.137813,0.00454633,0,0,0,-0.0372639,0,0.00278215,0,0,0,0.064269,-0.0246,0.58828,0,0,0,0,0,0
0.320254,0.000356152,-1.12387,0.000143062,2.21027,-0.000666923,0.632744,0.000727226,0.00228551,-0.0939748,0.000965651,-0.044369,-0.00415732,0.138346,0.00456338,0,0,0,-0.0373983,0,0.00281267,0,0,0,0.0642254,-0.0246,0.588283,0,0,0,0,0,0
0.321375,0.000358723,-1.12397,0.000144149,2.21022,-0.000671598,0.6329,0.000732358,0.00229449,-0.0942593,0.000970133,-0.0445977,-0.00417189,0.138859,0.0045798,0,0,0,-0.0375276,0,0.00284227,0,0,0,0.0641834,-0.0246,0.588287,0,0,0,0,0,0
0.322503,0.000361322,-1.12408,0.000145249,2.21017,-0.000676322,0.633057,0.000737544,0.0023035,-0.0945458,0.000974609,-0.0448281,-0.00418656,0.139376,0.00459633,0,0,0,-0.0376579,0,0.00287227,0,0,0,0.0641409,-0.0246,0.58829,0,0,0,0,0,0
0.323617,0.000363899,-1.12419,0.00014634,2.21012,-0.000681003,0.633213,0.000742685,0.00231243,-0.0948279,0.000979061,-0.0450566,-0.00420104,0.139887,0.00461265,0,0,0,-0.0377865,0,0.00290211,0,0,0,0.0640988,-0.0246,0.588293,0,0,0,0,0,0
0.324765,0.000366564,-1.1243,0.000147469,2.21007,-0.000685843,0.633374,0.000747999,0.0023216,-0.0951186,0.000983613,-0.0452922,-0.00421596,0.140413,0.00462946,0,0,0,-0.0379189,0,0.00293306,0,0,0,0.0640552,-0.0246,0.588296,0,0,0,0,0,0
0.325876,0.000369154,-1.1244,0.000148567,2.21002,-0.000690543,0.633531,0.00075316,0.00233053,-0.0953987,0.000988094,-0.0455218,-0.00423039,0.140923,0.00464575,0,0,0,-0.0380471,0,0.00296322,0,0,0,0.064013,-0.0246,0.5883,0,0,0,0,0,0
0.327004,0.000371791,-1.12451,0.000149686,2.20997,-0.000695329,0.63369,0.000758417,0.00233957,-0.0956829,0.000992603,-0.0457549,-0.00424504,0.14144,0.00466226,0,0,0,-0.0381771,0,0.00299404,0,0,0,0.0639699,-0.0246,0.588303,0,0,0,0,0,0
0.32815,0.000374483,-1.12462,0.000150829,2.20992,-0.000700211,0.633853,0.000763779,0.00234876,-0.0959714,0.000997195,-0.0459926,-0.00425993,0.141966,0.00467905,0,0,0,-0.0383092,0,0.00302559,0,0,0,0.063926,-0.0246,0.588307,0,0,0,0,0,0
0.3293,0.000377194,-1.12473,0.000151981,2.20986,-0.000705126,0.634017,0.000769178,0.002358,-0.0962601,0.00100183,-0.046232,-0.00427486,0.142494,0.0046959,0,0,0,-0.0384418,0,0.00305746,0,0,0,0.0638818,-0.0246,0.58831,0,0,0,0,0,0
0.330483,0.000379997,-1.12485,0.000153172,2.20981,-0.000710205,0.634186,0.000774759,0.00236751,-0.0965571,0.00100658,-0.0464791,-0.00429024,0.143039,0.00471325,0,0,0,-0.0385782,0,0.00309051,0,0,0,0.0638361,-0.0246,0.588314,0,0,0,0,0,0
0.332353,0.000384451,-1.12503,0.000155067,2.20972,-0.000718273,0.634455,0.000783622,0.00238202,-0.0970328,0.00101349,-0.046863,-0.00431461,0.143898,0.00474048,0,0,0,-0.0387937,0,0.00314319,0,0,0,0.0637636,-0.0246,0.58832,0,0,0,0,0,0
0.333395,0.000386941,-1.12513,0.000156128,2.20967,-0.00072278,0.634606,0.000788575,0.0023911,-0.0972821,0.00101855,-0.047093,-0.004328,0.144378,0.00475596,0,0,0,-0.0389136,0,0.00317278,0,0,0,0.0637231,-0.0246,0.588323,0,0,0,0,0,0
0.334475,0.000389535,-1.12523,0.000157234,2.20962,-0.000727472,0.634762,0.000793732,0.0023998,-0.0975515,0.00102291,-0.0473211,-0.00434203,0.144875,0.0047718,0,0,0,-0.0390381,0,0.00320369,0,0,0,0.0636809,-0.0246,0.588326,0,0,0,0,0,0
0.336129,0.000393525,-1.1254,0.000158935,2.20954,-0.000734689,0.635003,0.000801663,0.0024127,-0.0979693,0.0010291,-0.0476648,-0.00436358,0.145637,0.0047959,0,0,0,-0.0392284,0,0.00325137,0,0,0,0.063616,-0.0246,0.588332,0,0,0,0,0,0
0.337875,0.000397761,-1.12557,0.000160744,2.20946,-0.000742345,0.635259,0.000810079,0.00242676,-0.0984026,0.00103617,-0.048036,-0.00438623,0.146441,0.00482147,0,0,0,-0.0394293,0,0.00330221,0,0,0,0.0635472,-0.0246,0.588337,0,0,0,0,0,0
0.339551,0.000401852,-1.12573,0.000162493,2.20938,-0.000749736,0.635506,0.000818204,0.00244042,-0.0988154,0.00104315,-0.0483963,-0.00440796,0.147214,0.00484608,0,0,0,-0.0396222,0,0.00335154,0,0,0,0.0634807,-0.0246,0.588343,0,0,0,0,0,0
0.341216,0.000405937,-1.1259,0.000164241,2.2093,-0.000757109,0.635752,0.000826312,0.00245395,-0.0992249,0.00105004,-0.0487551,-0.00442953,0.147983,0.0048705,0,0,0,-0.0398137,0,0.00340099,0,0,0,0.0634145,-0.0246,0.588349,0,0,0,0,0,0
0.342849,0.000409967,-1.12606,0.000165967,2.20922,-0.000764378,0.635995,0.000834306,0.00246727,-0.0996252,0.00105685,-0.049109,-0.00445069,0.148737,0.00489446,0,0,0,-0.0400014,0,0.00344998,0,0,0,0.0633491,-0.0246,0.588354,0,0,0,0,0,0
0.344085,0.000413029,-1.12618,0.00016728,2.20915,-0.000769899,0.636179,0.000840377,0.00247768,-0.0999222,0.00106241,-0.049383,-0.00446663,0.149308,0.00491269,0,0,0,-0.0401435,0,0.00348736,0,0,0,0.0632995,-0.0246,0.588359,0,0,0,0,0,0
0.345173,0.000415734,-1.12629,0.000168441,2.2091,-0.000774773,0.636342,0.000845739,0.00248668,-0.100186,0.00106711,-0.0496222,-0.00448069,0.149811,0.00492869,0,0,0,-0.0402685,0,0.00352049,0,0,0,0.0632557,-0.0246,0.588362,0,0,0,0,0,0
0.346336,0.000418638,-1.12641,0.000169688,2.20904,-0.000780003,0.636517,0.000851492,0.00249611,-0.10047,0.0010719,-0.0498757,-0.00449576,0.150349,0.00494573,0,0,0,-0.0404021,0,0.00355614,0,0,0,0.0632087,-0.0246,0.588367,0,0,0,0,0,0
0.347476,0.000421494,-1.12652,0.000170916,2.20899,-0.000785145,0.636689,0.00085715,0.00250545,-0.100747,0.00107671,-0.0501263,-0.00451052,0.150876,0.00496247,0,0,0,-0.040533,0,0.00359131,0,0,0,0.0631625,-0.0246,0.588371,0,0,0,0,0,0
0.348807,0.000424841,-1.12666,0.000172355,2.20892,-0.000791168,0.636891,0.000863777,0.00251616,-0.101072,0.0010821,-0.0504168,-0.00452776,0.151492,0.00498193,0,0,0,-0.0406857,0,0.00363264,0,0,0,0.0631084,-0.0246,0.588376,0,0,0,0,0,0
0.350084,0.00042807,-1.12679,0.000173745,2.20885,-0.000796975,0.637085,0.000870167,0.00252667,-0.101381,0.00108755,-0.0507001,-0.00454428,0.152084,0.00500069,0,0,0,-0.0408324,0,0.00367264,0,0,0,0.0630562,-0.0246,0.58838,0,0,0,0,0,0
0.351362,0.000431312,-1.12692,0.000175141,2.20879,-0.000802803,0.63728,0.000876582,0.00253715,-0.101689,0.00109295,-0.0509837,-0.00456081,0.152676,0.00501945,0,0,0,-0.040979,0,0.00371294,0,0,0,0.0630038,-0.0246,0.588385,0,0,0,0,0,0
0.352747,0.000434842,-1.12706,0.000176663,2.20872,-0.000809145,0.637493,0.000883562,0.00254842,-0.102024,0.00109871,-0.0512908,-0.00457874,0.153318,0.00503974,0,0,0,-0.0411379,0,0.00375694,0,0,0,0.0629468,-0.0246,0.58839,0,0,0,0,0,0
0.355574,0.000442108,-1.12735,0.000179798,2.20857,-0.000822192,0.63793,0.000897924,0.00257035,-0.102723,0.00110913,-0.0519038,-0.00461555,0.15463,0.00508085,0,0,0,-0.0414619,0,0.00384781,0,0,0,0.0628296,-0.0246,0.588401,0,0,0,0,0,0
0.357768,0.000447788,-1.12758,0.000182254,2.20846,-0.000832379,0.638271,0.000909142,0.00258901,-0.103237,0.00111924,-0.052408,-0.00464376,0.155648,0.0051132,0,0,0,-0.0417133,0,0.00391933,0,0,0,0.0627381,-0.0246,0.58841,0,0,0,0,0,0
0.35988,0.000453294,-1.1278,0.000184637,2.20834,-0.000842247,0.638602,0.000920008,0.00260652,-0.103738,0.00112842,-0.0528889,-0.00467101,0.15663,0.00514422,0,0,0,-0.0419552,0,0.00398903,0,0,0,0.0626495,-0.0246,0.588418,0,0,0,0,0,0
0.362085,0.00045908,-1.12803,0.000187146,2.20823,-0.000852607,0.63895,0.000931421,0.00262467,-0.104261,0.00113784,-0.0533914,-0.00469948,0.157656,0.00517655,0,0,0,-0.0422075,0,0.00406264,0,0,0,0.0625564,-0.0246,0.588427,0,0,0,0,0,0
0.363343,0.000462396,-1.12816,0.000188586,2.20816,-0.00085854,0.639149,0.000937957,0.00263599,-0.104543,0.00114441,-0.0536943,-0.0047155,0.158241,0.00519525,0,0,0,-0.0423514,0,0.00410504,0,0,0,0.0625031,-0.0246,0.588432,0,0,0,0,0,0
0.364343,0.000465041,-1.12826,0.000189735,2.2081,-0.000863268,0.639307,0.000943167,0.00264453,-0.104775,0.00114907,-0.0539286,-0.00472833,0.158706,0.00520999,0,0,0,-0.0424658,0,0.00413896,0,0,0,0.0624607,-0.0246,0.588436,0,0,0,0,0,0
0.365417,0.000467891,-1.12838,0.000190974,2.20805,-0.000868362,0.639478,0.000948781,0.00265338,-0.105028,0.00115367,-0.0541757,-0.00474219,0.159207,0.00522573,0,0,0,-0.0425886,0,0.0041756,0,0,0,0.0624149,-0.0246,0.588441,0,0,0,0,0,0
0.366417,0.000470553,-1.12848,0.000192132,2.20799,-0.000873118,0.639638,0.000954022,0.00266176,-0.105261,0.00115813,-0.0544087,-0.00475506,0.159673,0.00524043,0,0,0,-0.0427029,0,0.00420991,0,0,0,0.0623722,-0.0246,0.588445,0,0,0,0,0,0
0.367418,0.000473224,-1.12859,0.000193295,2.20794,-0.000877887,0.639798,0.000959278,0.00267008,-0.105494,0.00116252,-0.0546412,-0.00476794,0.160139,0.0052551,0,0,0,-0.0428172,0,0.0042444,0,0,0,0.0623294,-0.0246,0.588449,0,0,0,0,0,0
0.36845,0.000475989,-1.12869,0.0001945,2.20788,-0.000882823,0.639964,0.000964719,0.00267864,-0.105736,0.00116701,-0.0548814,-0.00478124,0.16062,0.00527024,0,0,0,-0.0429351,0,0.0042802,0,0,0,0.062285,-0.0246,0.588454,0,0,0,0,0,0
0.369473,0.000478739,-1.1288,0.000195699,2.20782,-0.000887729,0.640129,0.000970127,0.00268718,-0.105973,0.00117153,-0.0551208,-0.00479441,0.161098,0.00528525,0,0,0,-0.043052,0,0.00431588,0,0,0,0.062241,-0.0246,0.588458,0,0,0,0,0,0
0.370473,0.000481435,-1.12891,0.000196875,2.20777,-0.000892537,0.64029,0.000975428,0.00269554,-0.106205,0.00117597,-0.0553556,-0.00480727,0.161564,0.00529993,0,0,0,-0.0431662,0,0.00435095,0,0,0,0.0621978,-0.0246,0.588462,0,0,0,0,0,0
0.371474,0.000484139,-1.12902,0.000198055,2.20771,-0.000897357,0.640453,0.000980743,0.00270389,-0.106437,0.00118039,-0.0555908,-0.00482014,0.162031,0.0053146,0,0,0,-0.0432803,0,0.0043862,0,0,0,0.0621545,-0.0246,0.588467,0,0,0,0,0,0
0.372474,0.000486852,-1.12912,0.00019924,2.20766,-0.000902191,0.640615,0.000986073,0.00271224,-0.106668,0.00118482,-0.0558266,-0.004833,0.162498,0.00532927,0,0,0,-0.0433945,0,0.00442164,0,0,0,0.0621111,-0.0246,0.588471,0,0,0,0,0,0
0.373474,0.000489573,-1.12923,0.00020043,2.2076,-0.000907037,0.640778,0.000991417,0.0027206,-0.106899,0.00118927,-0.0560631,-0.00484585,0.162965,0.00534394,0,0,0,-0.0435085,0,0.00445727,0,0,0,0.0620676,-0.0246,0.588476,0,0,0,0,0,0
0.374474,0.000492302,-1.12934,0.000201624,2.20754,-0.000911897,0.640941,0.000996776,0.00272897,-0.107129,0.00119372,-0.0563003,-0.00485871,0.163433,0.00535861,0,0,0,-0.0436226,0,0.00449309,0,0,0,0.062024,-0.0246,0.58848,0,0,0,0,0,0
0.375474,0.000495039,-1.12944,0.000202822,2.20749,-0.000916769,0.641105,0.00100215,0.00273735,-0.107358,0.00119818,-0.0565382,-0.00487156,0.1639,0.00537328,0,0,0,-0.0437366,0,0.0045291,0,0,0,0.0619802,-0.0246,0.588485,0,0,0,0,0,0
0.376474,0.000497785,-1.12955,0.000204025,2.20743,-0.000921653,0.64127,0.00100754,0.00274573,-0.107587,0.00120265,-0.0567767,-0.0048844,0.164368,0.00538795,0,0,0,-0.0438506,0,0.0045653,0,0,0,0.0619364,-0.0246,0.588489,0,0,0,0,0,0
0.377474,0.00050054,-1.12966,0.000205232,2.20737,-0.000926551,0.641435,0.00101294,0.00275412,-0.107816,0.00120713,-0.0570159,-0.00489724,0.164836,0.00540262,0,0,0,-0.0439646,0,0.00460169,0,0,0,0.0618924,-0.0246,0.588494,0,0,0,0,0,0
0.378474,0.000503303,-1.12977,0.000206444,2.20732,-0.000931462,0.6416,0.00101836,0.00276252,-0.108044,0.00121162,-0.0572557,-0.00491008,0.165303,0.00541728,0,0,0,-0.0440785,0,0.00463827,0,0,0,0.0618483,-0.0246,0.588498,0,0,0,0,0,0
0.379474,0.000506074,-1.12988,0.00020766,2.20726,-0.000936385,0.641766,0.00102379,0.00277093,-0.108272,0.00121612,-0.0574963,-0.00492291,0.165772,0.00543195,0,0,0,-0.0441924,0,0.00467505,0,0,0,0.0618041,-0.0246,0.588503,0,0,0,0,0,0
0.380474,0.000508853,-1.12998,0.000208881,2.2072,-0.000941321,0.641932,0.00102924,0.00277934,-0.108499,0.00122063,-0.0577375,-0.00493574,0.16624,0.00544661,0,0,0,-0.0443062,0,0.00471202,0,0,0,0.0617598,-0.0246,0.588508,0,0,0,0,0,0
0.381475,0.000511642,-1.13009,0.000210106,2.20714,-0.000946271,0.642099,0.0010347,0.00278776,-0.108725,0.00122515,-0.0579794,-0.00494856,0.166708,0.00546128,0,0,0,-0.0444201,0,0.00474918,0,0,0,0.0617154,-0.0246,0.588513,0,0,0,0,0,0
0.382788,0.000515318,-1.13024,0.000211723,2.20707,-0.000952794,0.642319,0.0010419,0.0027985,-0.109027,0.00123069,-0.0582931,-0.00496548,0.167324,0.00548046,0,0,0,-0.0445695,0,0.00479829,0,0,0,0.0616568,-0.0246,0.588519,0,0,0,0,0,0
0.383788,0.000518125,-1.13035,0.000212958,2.20701,-0.000957772,0.642486,0.0010474,0.00280726,-0.109247,0.00123564,-0.0585417,-0.00497821,0.167793,0.00549519,0,0,0,-0.0446832,0,0.0048359,0,0,0,0.0616122,-0.0246,0.588524,0,0,0,0,0,0
0.384788,0.000520941,-1.13046,0.000214199,2.20695,-0.000962764,0.642655,0.00105291,0.00281571,-0.109472,0.00124019,-0.0587858,-0.00499102,0.168262,0.00550985,0,0,0,-0.0447969,0,0.0048737,0,0,0,0.0615673,-0.0246,0.588529,0,0,0,0,0,0
0.385789,0.000523766,-1.13056,0.000215444,2.20689,-0.000967769,0.642823,0.00105843,0.00282416,-0.109696,0.00124475,-0.0590307,-0.00500383,0.168731,0.00552451,0,0,0,-0.0449106,0,0.0049117,0,0,0,0.0615224,-0.0246,0.588533,0,0,0,0,0,0
0.386789,0.000526599,-1.13067,0.000216693,2.20683,-0.000972786,0.642993,0.00106397,0.00283262,-0.10992,0.00124933,-0.0592762,-0.00501663,0.1692,0.00553917,0,0,0,-0.0450243,0,0.0049499,0,0,0,0.0614774,-0.0246,0.588538,0,0,0,0,0,0
0.387789,0.000529441,-1.13078,0.000217947,2.20677,-0.000977816,0.643162,0.00106953,0.00284108,-0.110143,0.00125391,-0.0595225,-0.00502942,0.16967,0.00555382,0,0,0,-0.0451379,0,0.0049883,0,0,0,0.0614322,-0.0246,0.588543,0,0,0,0,0,0
0.388789,0.00053229,-1.1309,0.000219206,2.20671,-0.000982859,0.643332,0.0010751,0.00284955,-0.110366,0.0012585,-0.0597694,-0.00504221,0.170139,0.00556848,0,0,0,-0.0452514,0,0.00502688,0,0,0,0.061387,-0.0246,0.588548,0,0,0,0,0,0
0.389789,0.000535149,-1.13101,0.000220469,2.20665,-0.000987914,0.643503,0.00108068,0.00285803,-0.110588,0.0012631,-0.060017,-0.005055,0.170609,0.00558313,0,0,0,-0.0453649,0,0.00506567,0,0,0,0.0613416,-0.0246,0.588554,0,0,0,0,0,0
0.390789,0.000538016,-1.13112,0.000221737,2.20659,-0.000992983,0.643674,0.00108628,0.00286652,-0.11081,0.00126771,-0.0602653,-0.00506778,0.171079,0.00559778,0,0,0,-0.0454784,0,0.00510465,0,0,0,0.0612961,-0.0246,0.588559,0,0,0,0,0,0
0.391789,0.000540891,-1.13123,0.00022301,2.20653,-0.000998064,0.643846,0.00109189,0.00287501,-0.111031,0.00127233,-0.0605142,-0.00508055,0.171549,0.00561243,0,0,0,-0.0455919,0,0.00514383,0,0,0,0.0612505,-0.0246,0.588564,0,0,0,0,0,0
0.392928,0.000544176,-1.13135,0.000224464,2.20646,-0.00100387,0.644042,0.0010983,0.00288454,-0.111284,0.00127741,-0.0607962,-0.00509513,0.172084,0.00562907,0,0,0,-0.045721,0,0.00518869,0,0,0,0.0611985,-0.0246,0.58857,0,0,0,0,0,0
0.394097,0.000547558,-1.13148,0.000225963,2.20639,-0.00100984,0.644243,0.0011049,0.00289445,-0.111541,0.00128279,-0.0610884,-0.00511006,0.172634,0.00564618,0,0,0,-0.0458535,0,0.00523499,0,0,0,0.0611449,-0.0246,0.588576,0,0,0,0,0,0
0.39525,0.000550907,-1.13161,0.000227449,2.20632,-0.00101575,0.644443,0.00111143,0.00290429,-0.111794,0.00128818,-0.0613785,-0.00512476,0.173176,0.00566306,0,0,0,-0.0459842,0,0.00528095,0,0,0,0.0610918,-0.0246,0.588582,0,0,0,0,0,0
0.396377,0.00055419,-1.13174,0.000228906,2.20625,-0.00102154,0.644639,0.00111783,0.00291392,-0.11204,0.00129347,-0.061663,-0.00513912,0.173707,0.00567956,0,0,0,-0.0461118,0,0.0053261,0,0,0,0.0610399,-0.0246,0.588588,0,0,0,0,0,0
0.397512,0.000557511,-1.13187,0.000230381,2.20618,-0.00102739,0.644837,0.0011243,0.0029236,-0.112287,0.00129877,-0.06195,-0.0051536,0.174241,0.00569618,0,0,0,-0.0462404,0,0.00537188,0,0,0,0.0609874,-0.0246,0.588594,0,0,0,0,0,0
0.398794,0.000561273,-1.13201,0.000232054,2.2061,-0.00103402,0.645061,0.00113163,0.00293438,-0.112568,0.00130457,-0.0622728,-0.00516998,0.174845,0.00571491,0,0,0,-0.0463854,0,0.00542387,0,0,0,0.0609279,-0.0246,0.588601,0,0,0,0,0,0
0.39986,0.000564411,-1.13213,0.00023345,2.20603,-0.00103954,0.645248,0.00113773,0.00294374,-0.112795,0.00130989,-0.0625479,-0.00518348,0.175347,0.00573056,0,0,0,-0.046506,0,0.00546734,0,0,0,0.0608783,-0.0246,0.588607,0,0,0,0,0,0
0.40086,0.000567364,-1.13225,0.000234765,2.20597,-0.00104474,0.645424,0.00114348,0.00295237,-0.11301,0.00131469,-0.0628044,-0.00519619,0.175819,0.00574521,0,0,0,-0.0466191,0,0.00550834,0,0,0,0.0608317,-0.0246,0.588612,0,0,0,0,0,0
0.401861,0.000570325,-1.13236,0.000236084,2.20591,-0.00104995,0.6456,0.00114924,0.00296094,-0.113225,0.00131941,-0.0630604,-0.00520891,0.17629,0.00575983,0,0,0,-0.0467322,0,0.00554955,0,0,0,0.060785,-0.0246,0.588618,0,0,0,0,0,0
0.402861,0.000573295,-1.13247,0.000237409,2.20584,-0.00105517,0.645777,0.00115502,0.00296951,-0.11344,0.00132414,-0.0633172,-0.00522163,0.176762,0.00577446,0,0,0,-0.0468452,0,0.00559096,0,0,0,0.0607381,-0.0246,0.588623,0,0,0,0,0,0
0.403861,0.000576273,-1.13259,0.000238738,2.20578,-0.00106041,0.645954,0.00116081,0.00297809,-0.113654,0.00132889,-0.0635746,-0.00523434,0.177233,0.00578909,0,0,0,-0.0469582,0,0.00563257,0,0,0,0.0606911,-0.0246,0.588629,0,0,0,0,0,0
0.404861,0.00057926,-1.1327,0.000240072,2.20572,-0.00106566,0.646132,0.00116661,0.00298667,-0.113868,0.00133364,-0.0638328,-0.00524705,0.177705,0.00580371,0,0,0,-0.0470711,0,0.00567438,0,0,0,0.0606441,-0.0246,0.588635,0,0,0,0,0,0
0.405861,0.000582256,-1.13281,0.00024141,2.20565,-0.00107092,0.64631,0.00117243,0.00299527,-0.114081,0.0013384,-0.0640917,-0.00525975,0.178177,0.00581832,0,0,0,-0.047184,0,0.0057164,0,0,0,0.0605969,-0.0246,0.58864,0,0,0,0,0,0
0.406861,0.00058526,-1.13293,0.000242753,2.20559,-0.00107619,0.646489,0.00117826,0.00300387,-0.114294,0.00134317,-0.0643512,-0.00527245,0.17865,0.00583294,0,0,0,-0.0472969,0,0.00575862,0,0,0,0.0605496,-0.0246,0.588646,0,0,0,0,0,0
0.407861,0.000588273,-1.13304,0.000244101,2.20552,-0.00108147,0.646668,0.00118411,0.00301247,-0.114506,0.00134795,-0.0646115,-0.00528513,0.179122,0.00584755,0,0,0,-0.0474097,0,0.00580105,0,0,0,0.0605022,-0.0246,0.588652,0,0,0,0,0,0
0.408861,0.000591294,-1.13316,0.000245454,2.20546,-0.00108677,0.646847,0.00118997,0.00302109,-0.114717,0.00135274,-0.0648725,-0.00529782,0.179594,0.00586217,0,0,0,-0.0475224,0,0.00584369,0,0,0,0.0604546,-0.0246,0.588658,0,0,0,0,0,0
0.409861,0.000594324,-1.13327,0.000246812,2.20539,-0.00109208,0.647027,0.00119585,0.00302971,-0.114928,0.00135754,-0.0651343,-0.00531049,0.180067,0.00587677,0,0,0,-0.0476352,0,0.00588653,0,0,0,0.060407,-0.0246,0.588664,0,0,0,0,0,0
0.410861,0.000597363,-1.13339,0.000248175,2.20533,-0.00109741,0.647208,0.00120174,0.00303833,-0.115138,0.00136235,-0.0653967,-0.00532316,0.18054,0.00589138,0,0,0,-0.0477478,0,0.00592958,0,0,0,0.0603592,-0.0246,0.58867,0,0,0,0,0,0
0.411862,0.00060041,-1.1335,0.000249542,2.20526,-0.00110274,0.647389,0.00120765,0.00304697,-0.115348,0.00136717,-0.0656598,-0.00533583,0.181012,0.00590598,0,0,0,-0.0478605,0,0.00597284,0,0,0,0.0603114,-0.0246,0.588676,0,0,0,0,0,0
0.413097,0.000604188,-1.13365,0.000251238,2.20518,-0.00110936,0.647613,0.00121497,0.00305737,-0.115611,0.00137279,-0.0659816,-0.00535155,0.181597,0.00592396,0,0,0,-0.0479996,0,0.00602657,0,0,0,0.0602521,-0.0246,0.588683,0,0,0,0,0,0
0.414266,0.000607772,-1.13378,0.000252849,2.2051,-0.00111563,0.647826,0.00122191,0.00306755,-0.115853,0.00137855,-0.0662923,-0.00536631,0.18215,0.00594103,0,0,0,-0.0481311,0,0.00607768,0,0,0,0.0601958,-0.0246,0.58869,0,0,0,0,0,0
0.415386,0.00061122,-1.13391,0.0002544,2.20503,-0.00112166,0.648031,0.00122859,0.00307731,-0.116084,0.00138406,-0.0665908,-0.00538046,0.18268,0.00595739,0,0,0,-0.0482571,0,0.00612695,0,0,0,0.0601417,-0.0246,0.588697,0,0,0,0,0,0
0.416523,0.00061473,-1.13404,0.000255979,2.20495,-0.00112779,0.648239,0.00123538,0.00308714,-0.11632,0.00138957,-0.0668933,-0.00539483,0.183218,0.00597397,0,0,0,-0.0483849,0,0.00617721,0,0,0,0.0600867,-0.0246,0.588704,0,0,0,0,0,0
0.417664,0.000618264,-1.13418,0.000257572,2.20488,-0.00113396,0.648449,0.00124221,0.00309703,-0.116555,0.00139513,-0.0671983,-0.00540924,0.183759,0.00599061,0,0,0,-0.0485131,0,0.00622794,0,0,0,0.0600314,-0.0246,0.588711,0,0,0,0,0,0
0.418809,0.000621821,-1.13431,0.000259175,2.2048,-0.00114017,0.64866,0.00124909,0.00310696,-0.116791,0.00140072,-0.0675051,-0.00542369,0.184301,0.0060073,0,0,0,-0.0486417,0,0.0062791,0,0,0,0.0599757,-0.0246,0.588718,0,0,0,0,0,0
0.419918,0.000625277,-1.13444,0.000260734,2.20472,-0.0011462,0.648865,0.00125577,0.00311664,-0.117017,0.00140622,-0.067804,-0.00543766,0.184826,0.00602347,0,0,0,-0.0487662,0,0.00632892,0,0,0,0.0599216,-0.0246,0.588725,0,0,0,0,0,0
0.421061,0.00062885,-1.13457,0.000262348,2.20465,-0.00115243,0.649077,0.00126267,0.00312654,-0.117251,0.00141178,-0.0681116,-0.00545208,0.185368,0.00604012,0,0,0,-0.0488945,0,0.00638055,0,0,0,0.0598657,-0.0245999,0.588733,0,0,0,0,0,0
0.422193,0.0006324,-1.13471,0.000263952,2.20457,-0.00115862,0.649287,0.00126953,0.0031364,-0.117481,0.00141737,-0.068418,-0.00546634,0.185904,0.0060566,0,0,0,-0.0490214,0,0.00643194,0,0,0,0.0598102,-0.0245999,0.58874,0,0,0,0,0,0
0.423193,0.000635546,-1.13482,0.000265375,2.2045,-0.0011641,0.649474,0.0012756,0.00314528,-0.117681,0.00142251,-0.068692,-0.00547888,0.186378,0.0060712,0,0,0,-0.0491335,0,0.00647759,0,0,0,0.0597611,-0.0245999,0.588746,0,0,0,0,0,0
0.424193,0.0006387,-1.13494,0.000266802,2.20443,-0.00116959,0.64966,0.00128169,0.003154,-0.117883,0.00142746,-0.0689641,-0.00549146,0.186853,0.00608576,0,0,0,-0.0492456,0,0.00652344,0,0,0,0.0597118,-0.0245999,0.588753,0,0,0,0,0,0
0.425193,0.000641863,-1.13506,0.000268235,2.20436,-0.00117509,0.649848,0.00128779,0.00316272,-0.118085,0.00143242,-0.0692369,-0.00550404,0.187327,0.00610032,0,0,0,-0.0493576,0,0.00656951,0,0,0,0.0596625,-0.0245999,0.588759,0,0,0,0,0,0
0.426193,0.000645035,-1.13518,0.000269672,2.20429,-0.00118061,0.650036,0.0012939,0.00317146,-0.118286,0.00143739,-0.0695105,-0.00551661,0.187802,0.00611487,0,0,0,-0.0494696,0,0.0066158,0,0,0,0.059613,-0.0245999,0.588766,0,0,0,0,0,0
0.427193,0.000648215,-1.1353,0.000271115,2.20422,-0.00118614,0.650224,0.00130003,0.0031802,-0.118486,0.00144236,-0.0697848,-0.00552917,0.188276,0.00612942,0,0,0,-0.0495816,0,0.00666229,0,0,0,0.0595634,-0.0245999,0.588773,0,0,0,0,0,0
0.428193,0.000651405,-1.13542,0.000272562,2.20415,-0.00119168,0.650413,0.00130618,0.00318894,-0.118686,0.00144735,-0.0700599,-0.00554173,0.188751,0.00614396,0,0,0,-0.0496934,0,0.00670901,0,0,0,0.0595137,-0.0245999,0.588779,0,0,0,0,0,0
0.429193,0.000654603,-1.13553,0.000274015,2.20408,-0.00119724,0.650602,0.00131234,0.00319769,-0.118885,0.00145235,-0.0703357,-0.00555428,0.189226,0.0061585,0,0,0,-0.0498053,0,0.00675594,0,0,0,0.0594639,-0.0245999,0.588786,0,0,0,0,0,0
0.430193,0.000657809,-1.13565,0.000275472,2.20401,-0.00120281,0.650792,0.00131851,0.00320645,-0.119083,0.00145736,-0.0706122,-0.00556682,0.189701,0.00617304,0,0,0,-0.0499171,0,0.00680308,0,0,0,0.059414,-0.0245999,0.588793,0,0,0,0,0,0
0.431194,0.000661025,-1.13577,0.000276935,2.20394,-0.00120839,0.650982,0.0013247,0.00321522,-0.119281,0.00146238,-0.0708895,-0.00557936,0.190176,0.00618757,0,0,0,-0.0500288,0,0.00685044,0,0,0,0.0593639,-0.0245999,0.5888,0,0,0,0,0,0
0.432194,0.00066425,-1.13589,0.000278403,2.20387,-0.00121398,0.651172,0.0013309,0.00322399,-0.119478,0.00146741,-0.0711676,-0.00559189,0.190651,0.0062021,0,0,0,-0.0501405,0,0.00689803,0,0,0,0.0593138,-0.0245999,0.588807,0,0,0,0,0,0
0.433502,0.000668483,-1.13605,0.000280331,2.20378,-0.00122132,0.651423,0.00133904,0.00323508,-0.119743,0.00147349,-0.0715262,-0.0056084,0.191274,0.00622104,0,0,0,-0.0502865,0,0.0069606,0,0,0,0.059248,-0.0245999,0.588816,0,0,0,0,0,0
0.434782,0.000672638,-1.1362,0.000282225,2.20368,-0.00122852,0.651668,0.00134703,0.00324637,-0.119992,0.00148001,-0.0718849,-0.0056244,0.191883,0.00623963,0,0,0,-0.0504293,0,0.00702219,0,0,0,0.0591834,-0.0245999,0.588825,0,0,0,0,0,0
0.436018,0.000676664,-1.13635,0.000284062,2.20359,-0.00123549,0.651906,0.00135476,0.00325729,-0.120232,0.00148634,-0.0722328,-0.00563983,0.19247,0.00625757,0,0,0,-0.0505671,0,0.00708198,0,0,0,0.0591209,-0.0245999,0.588833,0,0,0,0,0,0
0.437264,0.000680737,-1.1365,0.000285922,2.2035,-0.00124253,0.652147,0.00136258,0.00326825,-0.120474,0.00149265,-0.0725836,-0.0056554,0.193063,0.00627564,0,0,0,-0.050706,0,0.00714261,0,0,0,0.0590577,-0.0245999,0.588842,0,0,0,0,0,0
0.438527,0.000684878,-1.13665,0.000287815,2.20341,-0.0012497,0.652391,0.00137053,0.00327936,-0.120718,0.00149905,-0.0729401,-0.00567116,0.193664,0.00629395,0,0,0,-0.0508466,0,0.0072044,0,0,0,0.0589935,-0.0245999,0.588851,0,0,0,0,0,0
0.439815,0.000689115,-1.13681,0.000289754,2.20332,-0.00125702,0.652642,0.00137866,0.00329068,-0.120967,0.00150558,-0.0733047,-0.00568723,0.194277,0.0063126,0,0,0,-0.0509899,0,0.00726776,0,0,0,0.0589279,-0.0245999,0.588861,0,0,0,0,0,0
0.441095,0.000693341,-1.13696,0.000291689,2.20322,-0.00126432,0.652891,0.00138676,0.00330199,-0.121211,0.00151215,-0.073669,-0.00570317,0.194886,0.00633114,0,0,0,-0.0511322,0,0.0073311,0,0,0,0.0588624,-0.0245999,0.58887,0,0,0,0,0,0
0.442609,0.000698361,-1.13715,0.00029399,2.20311,-0.00127298,0.653187,0.00139638,0.00331506,-0.121506,0.00151951,-0.0740965,-0.00572214,0.195608,0.00635303,0,0,0,-0.0513006,0,0.00740653,0,0,0,0.0587847,-0.0245999,0.588881,0,0,0,0,0,0
0.443872,0.000702561,-1.1373,0.000295918,2.20302,-0.00128023,0.653435,0.00140443,0.00332656,-0.121739,0.00152645,-0.0744637,-0.00573772,0.196209,0.00637134,0,0,0,-0.0514408,0,0.0074698,0,0,0,0.0587198,-0.0245999,0.588891,0,0,0,0,0,0
0.445032,0.000706433,-1.13744,0.000297696,2.20293,-0.0012869,0.653663,0.00141184,0.00333697,-0.121956,0.00153261,-0.0747995,-0.00575209,0.196761,0.00638815,0,0,0,-0.0515696,0,0.00752826,0,0,0,0.0586599,-0.0245999,0.5889,0,0,0,0,0,0
0.44617,0.000710241,-1.13758,0.000299446,2.20285,-0.00129346,0.653888,0.00141913,0.00334709,-0.122169,0.00153853,-0.0751282,-0.00576621,0.197303,0.0064046,0,0,0,-0.0516958,0,0.00758587,0,0,0,0.0586011,-0.0245999,0.588908,0,0,0,0,0,0
0.44731,0.000714069,-1.13772,0.000301207,2.20276,-0.00130005,0.654113,0.00142645,0.0033572,-0.122383,0.00154444,-0.075458,-0.00578035,0.197847,0.00642108,0,0,0,-0.0518222,0,0.0076439,0,0,0,0.058542,-0.0245999,0.588917,0,0,0,0,0,0
0.448468,0.000717969,-1.13786,0.000303003,2.20267,-0.00130677,0.654343,0.0014339,0.00336745,-0.122599,0.00155043,-0.0757936,-0.00579472,0.198399,0.00643781,0,0,0,-0.0519506,0,0.00770314,0,0,0,0.0584818,-0.0245999,0.588926,0,0,0,0,0,0
0.449656,0.000721981,-1.13801,0.000304852,2.20258,-0.00131366,0.654579,0.00144157,0.00337796,-0.122821,0.00155656,-0.0761387,-0.00580945,0.198966,0.00645495,0,0,0,-0.0520821,0,0.0077642,0,0,0,0.05842,-0.0245999,0.588935,0,0,0,0,0,0
0.450819,0.000725924,-1.13815,0.00030667,2.20249,-0.00132044,0.654812,0.0014491,0.00338834,-0.123035,0.00156268,-0.0764789,-0.00582384,0.199521,0.00647175,0,0,0,-0.0522109,0,0.00782435,0,0,0,0.0583592,-0.0245999,0.588944,0,0,0,0,0,0
0.451977,0.000729859,-1.1383,0.000308486,2.2024,-0.0013272,0.655043,0.00145661,0.00339865,-0.123248,0.00156874,-0.0768181,-0.00583816,0.200073,0.00648845,0,0,0,-0.052339,0,0.00788448,0,0,0,0.0582986,-0.0245999,0.588953,0,0,0,0,0,0
0.453127,0.000733779,-1.13844,0.000310297,2.20231,-0.00133393,0.655274,0.00146409,0.0034089,-0.123459,0.00157479,-0.077156,-0.00585236,0.200621,0.00650503,0,0,0,-0.0524661,0,0.00794451,0,0,0,0.0582383,-0.0245999,0.588962,0,0,0,0,0,0
0.454127,0.000737197,-1.13856,0.000311878,2.20224,-0.0013398,0.655475,0.00147061,0.00341802,-0.123638,0.00158031,-0.0774538,-0.00586463,0.201098,0.00651947,0,0,0,-0.0525766,0,0.00799696,0,0,0,0.0581857,-0.0245999,0.58897,0,0,0,0,0,0
0.455127,0.000740624,-1.13869,0.000313463,2.20216,-0.00134567,0.655677,0.00147715,0.00342694,-0.12382,0.00158558,-0.0777492,-0.00587697,0.201575,0.00653388,0,0,0,-0.052687,0,0.00804964,0,0,0,0.058133,-0.0245999,0.588978,0,0,0,0,0,0
0.456127,0.000744061,-1.13881,0.000315055,2.20208,-0.00135156,0.655879,0.0014837,0.00343587,-0.124001,0.00159086,-0.0780453,-0.0058893,0.202053,0.00654828,0,0,0,-0.0527974,0,0.00810256,0,0,0,0.0580802,-0.0245999,0.588987,0,0,0,0,0,0
0.457128,0.000747506,-1.13893,0.000316651,2.202,-0.00135747,0.656081,0.00149026,0.0034448,-0.124181,0.00159615,-0.0783422,-0.00590163,0.20253,0.00656267,0,0,0,-0.0529078,0,0.00815569,0,0,0,0.0580273,-0.0245999,0.588995,0,0,0,0,0,0
0.458128,0.00075096,-1.13906,0.000318253,2.20192,-0.00136338,0.656284,0.00149684,0.00345374,-0.124361,0.00160144,-0.0786399,-0.00591394,0.203008,0.00657706,0,0,0,-0.053018,0,0.00820906,0,0,0,0.0579742,-0.0245999,0.589003,0,0,0,0,0,0
0.459128,0.000754423,-1.13918,0.000319859,2.20185,-0.00136931,0.656488,0.00150343,0.00346268,-0.12454,0.00160675,-0.0789383,-0.00592624,0.203485,0.00659144,0,0,0,-0.0531282,0,0.00826265,0,0,0,0.0579211,-0.0245999,0.589011,0,0,0,0,0,0
0.460128,0.000757895,-1.13931,0.000321472,2.20177,-0.00137525,0.656692,0.00151004,0.00347163,-0.124719,0.00161207,-0.0792375,-0.00593853,0.203963,0.00660582,0,0,0,-0.0532384,0,0.00831647,0,0,0,0.0578679,-0.0245999,0.589019,0,0,0,0,0,0
0.461128,0.000761376,-1.13943,0.000323089,2.20169,-0.0013812,0.656896,0.00151666,0.00348059,-0.124897,0.0016174,-0.0795375,-0.00595082,0.204441,0.00662019,0,0,0,-0.0533485,0,0.00837053,0,0,0,0.0578145,-0.0245999,0.589028,0,0,0,0,0,0
0.462128,0.000764866,-1.13956,0.000324712,2.20161,-0.00138716,0.657101,0.00152329,0.00348955,-0.125074,0.00162274,-0.0798382,-0.00596309,0.204919,0.00663455,0,0,0,-0.0534585,0,0.00842481,0,0,0,0.057761,-0.0245999,0.589036,0,0,0,0,0,0
0.463502,0.000769676,-1.13973,0.00032695,2.2015,-0.00139538,0.657384,0.00153243,0.00350133,-0.125326,0.00162939,-0.080244,-0.00598015,0.205577,0.00665421,0,0,0,-0.0536095,0,0.00849974,0,0,0,0.0576874,-0.0245999,0.589048,0,0,0,0,0,0
0.464586,0.000773482,-1.13987,0.000328723,2.20141,-0.00140187,0.657607,0.00153966,0.00351148,-0.125508,0.00163575,-0.0805786,-0.00599326,0.206094,0.0066698,0,0,0,-0.0537286,0,0.00855918,0,0,0,0.0576292,-0.0245999,0.589057,0,0,0,0,0,0
0.465683,0.000777345,-1.14,0.000330524,2.20132,-0.00140846,0.657834,0.001547,0.00352131,-0.1257,0.00164162,-0.0809112,-0.0060067,0.206618,0.00668552,0,0,0,-0.053849,0,0.00861963,0,0,0,0.0575701,-0.0245999,0.589067,0,0,0,0,0,0
0.466926,0.000781738,-1.14016,0.000332574,2.20122,-0.00141595,0.658091,0.00155533,0.00353228,-0.12592,0.00164804,-0.0812863,-0.00602199,0.207213,0.00670332,0,0,0,-0.0539855,0,0.00868848,0,0,0,0.0575029,-0.0245999,0.589077,0,0,0,0,0,0
0.468062,0.000785761,-1.1403,0.000334453,2.20113,-0.00142281,0.658327,0.00156297,0.00354265,-0.126113,0.00165438,-0.0816355,-0.0060358,0.207756,0.0067196,0,0,0,-0.05411,0,0.00875167,0,0,0,0.0574415,-0.0245999,0.589087,0,0,0,0,0,0
0.469142,0.000789597,-1.14044,0.000336246,2.20104,-0.00142934,0.658552,0.00157024,0.00355245,-0.126297,0.00166033,-0.0819673,-0.00604894,0.208272,0.00673505,0,0,0,-0.0542283,0,0.00881202,0,0,0,0.0573829,-0.0245999,0.589097,0,0,0,0,0,0
0.470195,0.000793347,-1.14057,0.000338,2.20095,-0.00143572,0.658772,0.00157735,0.00356197,-0.126477,0.00166609,-0.0822911,-0.00606177,0.208775,0.00675012,0,0,0,-0.0543436,0,0.00887114,0,0,0,0.0573257,-0.0245999,0.589106,0,0,0,0,0,0
0.471195,0.000796919,-1.1407,0.000339672,2.20087,-0.00144179,0.658981,0.00158411,0.00357106,-0.126646,0.00167162,-0.0826001,-0.00607392,0.209253,0.00676442,0,0,0,-0.0544531,0,0.00892753,0,0,0,0.0572712,-0.0245999,0.589115,0,0,0,0,0,0
0.472195,0.000800499,-1.14083,0.000341349,2.20079,-0.00144788,0.659191,0.00159089,0.00358008,-0.126816,0.00167707,-0.0829087,-0.00608609,0.209732,0.00677871,0,0,0,-0.0545624,0,0.00898416,0,0,0,0.0572167,-0.0245999,0.589124,0,0,0,0,0,0
0.473195,0.000804089,-1.14095,0.000343032,2.2007,-0.00145398,0.659401,0.00159768,0.00358911,-0.126985,0.00168252,-0.0832181,-0.00609826,0.21021,0.00679299,0,0,0,-0.0546718,0,0.00904103,0,0,0,0.057162,-0.0245999,0.589133,0,0,0,0,0,0
0.47431,0.000808102,-1.1411,0.000344914,2.20061,-0.0014608,0.659636,0.00160528,0.00359901,-0.127176,0.00168839,-0.0835612,-0.00611188,0.210744,0.00680889,0,0,0,-0.0547936,0,0.0091047,0,0,0,0.0571009,-0.0245999,0.589143,0,0,0,0,0,0
0.475455,0.000812233,-1.14124,0.000346854,2.20051,-0.00146781,0.659878,0.00161309,0.00360931,-0.127368,0.0016946,-0.0839165,-0.00612579,0.211292,0.00682521,0,0,0,-0.0549185,0,0.00917037,0,0,0,0.057038,-0.0245999,0.589154,0,0,0,0,0,0
0.47661,0.000816414,-1.14139,0.000348819,2.20042,-0.0014749,0.660123,0.00162099,0.00361974,-0.127561,0.00170092,-0.0842766,-0.00613981,0.211845,0.00684167,0,0,0,-0.0550445,0,0.00923696,0,0,0,0.0569744,-0.0245999,0.589164,0,0,0,0,0,0
0.477715,0.000820425,-1.14153,0.000350705,2.20032,-0.0014817,0.660357,0.00162857,0.00362982,-0.127742,0.00170709,-0.0846235,-0.00615317,0.212374,0.00685741,0,0,0,-0.055165,0,0.00930096,0,0,0,0.0569135,-0.0245999,0.589175,0,0,0,0,0,0
0.478816,0.000824432,-1.14167,0.000352591,2.20023,-0.00148849,0.660592,0.00163614,0.00363979,-0.127924,0.00171317,-0.084969,-0.00616649,0.2129,0.00687309,0,0,0,-0.0552849,0,0.00936501,0,0,0,0.0568526,-0.0245999,0.589185,0,0,0,0,0,0
0.47994,0.000828538,-1.14181,0.000354525,2.20013,-0.00149544,0.660832,0.00164388,0.00364995,-0.128109,0.00171933,-0.0853223,-0.00618011,0.213439,0.00688908,0,0,0,-0.0554074,0,0.00943074,0,0,0,0.0567903,-0.0245999,0.589196,0,0,0,0,0,0
0.481082,0.000832717,-1.14196,0.000356495,2.20004,-0.00150251,0.661076,0.00165177,0.00366028,-0.128296,0.00172562,-0.0856821,-0.00619391,0.213986,0.00690531,0,0,0,-0.0555316,0,0.00949777,0,0,0,0.0567269,-0.0245999,0.589206,0,0,0,0,0,0
0.482242,0.000836976,-1.14211,0.000358504,2.19994,-0.00150971,0.661325,0.0016598,0.00367078,-0.128485,0.00173202,-0.0860487,-0.00620792,0.214541,0.00692179,0,0,0,-0.0556577,0,0.00956621,0,0,0,0.0566623,-0.0245999,0.589218,0,0,0,0,0,0
0.483395,0.000841219,-1.14226,0.000360508,2.19984,-0.00151688,0.661573,0.0016678,0.00368125,-0.128671,0.00173844,-0.0864146,-0.00622181,0.215093,0.00693815,0,0,0,-0.0557829,0,0.00963452,0,0,0,0.056598,-0.0245999,0.589229,0,0,0,0,0,0
0.484516,0.000845358,-1.1424,0.000362465,2.19974,-0.00152388,0.661815,0.00167559,0.00369149,-0.12885,0.00174475,-0.0867722,-0.00623529,0.21563,0.00695406,0,0,0,-0.0559046,0,0.00970129,0,0,0,0.0565353,-0.0245999,0.58924,0,0,0,0,0,0
0.485639,0.000849515,-1.14255,0.000364431,2.19964,-0.00153089,0.662058,0.00168342,0.0037017,-0.129029,0.00175101,-0.0871305,-0.0062488,0.216168,0.00696998,0,0,0,-0.0560264,0,0.00976844,0,0,0,0.0564724,-0.0245999,0.58925,0,0,0,0,0,0
0.486781,0.000853752,-1.1427,0.000366437,2.19954,-0.00153804,0.662305,0.00169139,0.00371205,-0.129211,0.00175736,-0.0874954,-0.00626253,0.216714,0.00698615,0,0,0,-0.0561501,0,0.00983703,0,0,0,0.0564083,-0.0245999,0.589262,0,0,0,0,0,0
0.487898,0.000857912,-1.14284,0.000368408,2.19944,-0.00154506,0.662548,0.00169922,0.00372227,-0.129387,0.00176367,-0.0878546,-0.00627592,0.217249,0.00700197,0,0,0,-0.0562711,0,0.00990448,0,0,0,0.0563454,-0.0245999,0.589273,0,0,0,0,0,0
0.489029,0.000862131,-1.14299,0.000370408,2.19934,-0.00155216,0.662794,0.00170715,0.00373254,-0.129565,0.00176999,-0.088218,-0.00628948,0.217791,0.00701795,0,0,0,-0.0563934,0,0.009973,0,0,0,0.0562817,-0.0245999,0.589284,0,0,0,0,0,0
0.490157,0.000866356,-1.14313,0.000372414,2.19924,-0.00155928,0.66304,0.00171509,0.00374284,-0.129741,0.00177635,-0.0885824,-0.006303,0.218332,0.00703391,0,0,0,-0.0565155,0,0.0100418,0,0,0,0.0562179,-0.0245999,0.589295,0,0,0,0,0,0
0.491279,0.000870564,-1.14328,0.000374413,2.19914,-0.00156636,0.663286,0.001723,0.00375307,-0.129915,0.00178269,-0.0889454,-0.00631641,0.218869,0.00704974,0,0,0,-0.0566367,0,0.0101103,0,0,0,0.0561543,-0.0245999,0.589307,0,0,0,0,0,0
0.492388,0.00087474,-1.14342,0.000376398,2.19904,-0.00157339,0.663529,0.00173084,0.00376322,-0.130086,0.00178898,-0.0893058,-0.00632966,0.2194,0.0070654,0,0,0,-0.0567565,0,0.0101785,0,0,0,0.0560914,-0.0245999,0.589318,0,0,0,0,0,0
0.493388,0.000878513,-1.14355,0.000378193,2.19895,-0.00157973,0.663749,0.00173792,0.00377252,-0.130236,0.00179488,-0.0896339,-0.00634152,0.219878,0.00707951,0,0,0,-0.0568644,0,0.0102402,0,0,0,0.0560345,-0.0245999,0.589328,0,0,0,0,0,0
0.494389,0.000882295,-1.14368,0.000379994,2.19886,-0.00158608,0.66397,0.00174501,0.00378166,-0.130389,0.00180055,-0.0899601,-0.00635344,0.220357,0.0070936,0,0,0,-0.0569722,0,0.0103022,0,0,0,0.0559775,-0.0245999,0.589339,0,0,0,0,0,0
0.495389,0.000886086,-1.14381,0.0003818,2.19877,-0.00159245,0.66419,0.00175212,0.00379081,-0.130541,0.00180624,-0.0902871,-0.00636536,0.220836,0.00710769,0,0,0,-0.05708,0,0.0103644,0,0,0,0.0559204,-0.0245999,0.589349,0,0,0,0,0,0
0.496389,0.000889887,-1.14394,0.000383612,2.19868,-0.00159883,0.664412,0.00175924,0.00379996,-0.130692,0.00181193,-0.0906149,-0.00637726,0.221316,0.00712176,0,0,0,-0.0571877,0,0.0104268,0,0,0,0.0558632,-0.0245999,0.589359,0,0,0,0,0,0
0.497389,0.000893696,-1.14408,0.00038543,2.19859,-0.00160522,0.664634,0.00176638,0.00380911,-0.130842,0.00181763,-0.0909435,-0.00638915,0.221795,0.00713582,0,0,0,-0.0572953,0,0.0104895,0,0,0,0.0558059,-0.0245999,0.58937,0,0,0,0,0,0
0.498389,0.000897515,-1.14421,0.000387254,2.1985,-0.00161162,0.664856,0.00177353,0.00381827,-0.130992,0.00182335,-0.0912729,-0.00640102,0.222274,0.00714988,0,0,0,-0.0574028,0,0.0105525,0,0,0,0.0557485,-0.0245999,0.58938,0,0,0,0,0,0
0.499389,0.000901343,-1.14434,0.000389083,2.19841,-0.00161803,0.665079,0.0017807,0.00382743,-0.131141,0.00182907,-0.0916032,-0.00641289,0.222753,0.00716392,0,0,0,-0.0575103,0,0.0106156,0,0,0,0.055691,-0.0245999,0.589391,0,0,0,0,0,0
0.500522,0.000905691,-1.14449,0.000391162,2.19831,-0.00162531,0.665332,0.00178883,0.0038376,-0.131313,0.00183528,-0.0919748,-0.00642642,0.223297,0.00717981,0,0,0,-0.0576319,0,0.0106875,0,0,0,0.0556257,-0.0245999,0.589403,0,0,0,0,0,0
0.501635,0.000909973,-1.14463,0.000393212,2.1982,-0.00163248,0.665581,0.00179684,0.00384784,-0.131476,0.00184172,-0.0923447,-0.00643957,0.22383,0.00719541,0,0,0,-0.0577513,0,0.0107584,0,0,0,0.0555614,-0.0245999,0.589415,0,0,0,0,0,0
