Kcygt/SemiCircleKinovaTest_Cpp/x64/Debug/data45.csv
t,q1,q2,q3,q4,q5,q6,q7,qp1,qp2,qp3,qp4,qp5,qp6,qp7,xd,yd,zd,vxd,vyd,vzd,wxd,wyd,wzd,x,y,z,vx,vy,vz,wx,wy,wz
1.8e-06,1.27977e-14,-1.10828,4.85938e-15,2.21657,-2.46851e-14,0.610865,2.6734e-14,7.10985e-09,-5.94273e-07,2.69966e-09,3.28433e-07,-1.3714e-08,2.6584e-07,1.48522e-08,0,0,0,-1.49052e-07,0,-1.49052e-07,0,0,0,0.0702507,-0.0246,0.588057,0,0,0,0,0,0
0.0027947,-1.61879e-08,-1.10828,-6.14666e-09,2.21657,3.12243e-08,0.610863,-3.3816e-08,-5.7961e-06,-0.000301383,-2.20082e-06,0.00104873,1.11799e-05,-0.000747343,-1.21079e-05,0,0,0,4.83748e-05,0,-0.000323683,0,0,0,0.0702509,-0.0246,0.588056,0,0,0,0,0,0
0.0048933,-3.74852e-08,-1.10829,-1.42334e-08,2.21657,7.23041e-08,0.61086,-7.83055e-08,-1.01483e-05,-0.000527705,-3.85339e-06,0.00183623,1.95748e-05,-0.00130853,-2.11996e-05,0,0,0,8.46972e-05,0,-0.000566744,0,0,0,0.0702511,-0.0246,0.588055,0,0,0,0,0,0
0.0063061,-5.59615e-08,-1.10829,-2.1249e-08,2.21658,1.07943e-07,0.610858,-1.16903e-07,-1.30778e-05,-0.000680086,-4.96575e-06,0.00236639,2.52257e-05,-0.0016863,-2.73196e-05,0,0,0,0.000109142,0,-0.000730377,0,0,0,0.0702512,-0.0246,0.588054,0,0,0,0,0,0
0.0075778,-7.59457e-08,-1.10829,-2.88371e-08,2.21658,1.4649e-07,0.610855,-1.5865e-07,-1.57145e-05,-0.000817258,-5.96693e-06,0.00284359,3.03118e-05,-0.00202633,-3.28278e-05,0,0,0,0.000131142,0,-0.000877667,0,0,0,0.0702514,-0.0246,0.588052,0,0,0,0,0,0
0.0087776,-9.77842e-08,-1.10829,-3.71294e-08,2.21659,1.88615e-07,0.610853,-2.04271e-07,-1.82018e-05,-0.000946688,-6.9114e-06,0.00329381,3.51098e-05,-0.00234713,-3.80242e-05,0,0,0,0.000151893,0,-0.00101663,0,0,0,0.0702516,-0.0246,0.588051,0,0,0,0,0,0
0.0097777,-1.18061e-07,-1.10829,-4.48287e-08,2.21659,2.27728e-07,0.61085,-2.4663e-07,-2.02747e-05,-0.00105459,-7.69851e-06,0.00366909,3.91085e-05,-0.0026145,-4.23549e-05,0,0,0,0.000169183,0,-0.00113247,0,0,0,0.0702517,-0.0246,0.58805,0,0,0,0,0,0
0.0107778,-1.40411e-07,-1.10829,-5.33151e-08,2.21659,2.70839e-07,0.610847,-2.9332e-07,-2.23475e-05,-0.0011625,-8.48557e-06,0.00404437,4.3107e-05,-0.00288187,-4.66854e-05,0,0,0,0.000186471,0,-0.0012483,0,0,0,0.0702519,-0.0246,0.588049,0,0,0,0,0,0
0.0125026,-1.85122e-07,-1.10829,-7.02924e-08,2.2166,3.57085e-07,0.610841,-3.86726e-07,-2.59225e-05,-0.00134859,-9.84307e-06,0.00469159,5.00034e-05,-0.003343,-5.41544e-05,0,0,0,0.00021629,0,-0.00144807,0,0,0,0.0702523,-0.0246,0.588046,0,0,0,0,0,0
0.0137067,-2.19338e-07,-1.1083,-8.32847e-08,2.21661,4.23087e-07,0.610837,-4.58207e-07,-2.84162e-05,-0.00147859,-1.079e-05,0.0051434,5.48146e-05,-0.00366481,-5.93651e-05,0,0,0,0.000237074,0,-0.00158754,0,0,0,0.0702526,-0.0246,0.588044,0,0,0,0,0,0
0.0149611,-2.58242e-07,-1.1083,-9.80573e-08,2.21661,4.98134e-07,0.610832,-5.39485e-07,-3.10144e-05,-0.00161401,-1.17766e-05,0.00561409,5.98271e-05,-0.00400008,-6.4794e-05,0,0,0,0.00025873,0,-0.00173284,0,0,0,0.0702529,-0.0246,0.588042,0,0,0,0,0,0
0.0159614,-2.91337e-07,-1.1083,-1.10624e-07,2.21662,5.61976e-07,0.610828,-6.08627e-07,-3.30851e-05,-0.00172204,-1.25629e-05,0.00598942,6.38224e-05,-0.00426738,-6.91212e-05,0,0,0,0.00027598,0,-0.0018487,0,0,0,0.0702532,-0.0246,0.58804,0,0,0,0,0,0
0.0173028,-3.39444e-07,-1.1083,-1.28891e-07,2.21663,6.54776e-07,0.610821,-7.09132e-07,-3.58629e-05,-0.00186688,-1.36178e-05,0.00649275,6.91816e-05,-0.00462587,-7.49255e-05,0,0,0,0.000299129,0,-0.00200407,0,0,0,0.0702536,-0.0246,0.588038,0,0,0,0,0,0
0.0188997,-4.01992e-07,-1.1083,-1.52642e-07,2.21664,7.75437e-07,0.610813,-8.39811e-07,-3.91684e-05,-0.00203935,-1.4873e-05,0.00709193,7.55595e-05,-0.00505258,-8.18332e-05,0,0,0,0.000326664,0,-0.00218904,0,0,0,0.0702541,-0.0246,0.588034,0,0,0,0,0,0
0.020086,-4.51367e-07,-1.10831,-1.7139e-07,2.21665,8.70688e-07,0.610807,-9.42972e-07,-4.16211e-05,-0.0021676,-1.58044e-05,0.00753702,8.02926e-05,-0.00536941,-8.69597e-05,0,0,0,0.00034707,0,-0.00232646,0,0,0,0.0702545,-0.0246,0.588031,0,0,0,0,0,0
0.0211958,-5.00105e-07,-1.10831,-1.89897e-07,2.21666,9.64711e-07,0.610801,-1.0448e-06,-4.39158e-05,-0.00228758,-1.66758e-05,0.00795341,8.47208e-05,-0.00566583,-9.17559e-05,0,0,0,0.000366163,0,-0.00245501,0,0,0,0.0702549,-0.0246,0.588029,0,0,0,0,0,0
0.0224332,-5.57612e-07,-1.10831,-2.11734e-07,2.21667,1.07565e-06,0.610793,-1.16496e-06,-4.64743e-05,-0.00242134,-1.76475e-05,0.00841767,8.96582e-05,-0.00599633,-9.71037e-05,0,0,0,0.000387452,0,-0.00259835,0,0,0,0.0702554,-0.0246,0.588026,0,0,0,0,0,0
0.0241023,-6.40943e-07,-1.10832,-2.43377e-07,2.21668,1.23642e-06,0.610783,-1.33907e-06,-4.99256e-05,-0.00260178,-1.89581e-05,0.00904391,9.63182e-05,-0.00644213,-0.000104317,0,0,0,0.00041617,0,-0.00279169,0,0,0,0.0702561,-0.0246,0.588021,0,0,0,0,0,0
0.0251569,-6.95888e-07,-1.10832,-2.64241e-07,2.21669,1.34242e-06,0.610775,-1.45388e-06,-5.21001e-05,-0.00271603,-1.9784e-05,0.00943953,0.000100516,-0.0067235,-0.000108865,0,0,0,0.000434214,0,-0.00291387,0,0,0,0.0702565,-0.0246,0.588018,0,0,0,0,0,0
0.026157,-7.50057e-07,-1.10832,-2.84811e-07,2.2167,1.44693e-06,0.610768,-1.56708e-06,-5.41645e-05,-0.00282429,-2.0568e-05,0.00981473,0.000104501,-0.00699043,-0.000113181,0,0,0,0.00045136,0,-0.00302972,0,0,0,0.070257,-0.0246,0.588015,0,0,0,0,0,0
0.0271572,-8.06297e-07,-1.10833,-3.06168e-07,2.21671,1.55544e-06,0.610761,-1.6846e-06,-5.62286e-05,-0.00293259,-2.13519e-05,0.01019,0.000108485,-0.00725737,-0.000117497,0,0,0,0.000468502,0,-0.00314559,0,0,0,0.0702575,-0.0246,0.588012,0,0,0,0,0,0
0.0281573,-8.64595e-07,-1.10833,-3.28305e-07,2.21672,1.66792e-06,0.610754,-1.80642e-06,-5.82916e-05,-0.0030409,-2.21355e-05,0.0105651,0.000112468,-0.00752424,-0.000121811,0,0,0,0.000485627,0,-0.00326145,0,0,0,0.070258,-0.0246,0.588008,0,0,0,0,0,0
0.0291574,-9.24955e-07,-1.10833,-3.51226e-07,2.21674,1.78438e-06,0.610746,-1.93255e-06,-6.03539e-05,-0.00314925,-2.29187e-05,0.0109403,0.000116449,-0.00779107,-0.000126123,0,0,0,0.000502739,0,-0.00337731,0,0,0,0.0702585,-0.0246,0.588005,0,0,0,0,0,0
0.0301576,-9.87383e-07,-1.10834,-3.74933e-07,2.21675,1.90484e-06,0.610738,-2.06301e-06,-6.24155e-05,-0.00325765,-2.37017e-05,0.0113155,0.000120429,-0.00805787,-0.000130434,0,0,0,0.000519838,0,-0.00349319,0,0,0,0.070259,-0.0246,0.588002,0,0,0,0,0,0
0.0311578,-1.05187e-06,-1.10834,-3.99422e-07,2.21676,2.02927e-06,0.61073,-2.19779e-06,-6.44762e-05,-0.00336609,-2.44844e-05,0.0116907,0.000124408,-0.00832463,-0.000134744,0,0,0,0.000536923,0,-0.00360907,0,0,0,0.0702595,-0.0246,0.587998,0,0,0,0,0,0
0.0321579,-1.11841e-06,-1.10834,-4.24691e-07,2.21677,2.15767e-06,0.610721,-2.33685e-06,-6.65357e-05,-0.00347455,-2.52666e-05,0.0120659,0.000128385,-0.00859132,-0.000139052,0,0,0,0.00055399,0,-0.00372493,0,0,0,0.0702601,-0.0246,0.587994,0,0,0,0,0,0
0.0331581,-1.18702e-06,-1.10835,-4.50745e-07,2.21678,2.29005e-06,0.610712,-2.48024e-06,-6.85945e-05,-0.00358307,-2.60486e-05,0.0124411,0.000132361,-0.00885798,-0.000143359,0,0,0,0.000571042,0,-0.00384082,0,0,0,0.0702606,-0.0246,0.58799,0,0,0,0,0,0
0.0343798,-1.2739e-06,-1.10835,-4.83736e-07,2.2168,2.45769e-06,0.610701,-2.66181e-06,-7.11105e-05,-0.00371556,-2.70043e-05,0.0128993,0.000137219,-0.00918377,-0.000148622,0,0,0,0.000591892,0,-0.00398236,0,0,0,0.0702614,-0.0246,0.587985,0,0,0,0,0,0
0.0354844,-1.35495e-06,-1.10835,-5.14517e-07,2.21681,2.61411e-06,0.61069,-2.83122e-06,-7.33804e-05,-0.00383556,-2.78665e-05,0.0133136,0.000141603,-0.00947807,-0.000153371,0,0,0,0.00061066,0,-0.00411035,0,0,0,0.070262,-0.0246,0.587981,0,0,0,0,0,0
0.0364845,-1.4304e-06,-1.10836,-5.43167e-07,2.21683,2.75969e-06,0.610681,-2.98891e-06,-7.54343e-05,-0.00394426,-2.86467e-05,0.0136887,0.000145571,-0.00974446,-0.000157669,0,0,0,0.000627633,0,-0.00422623,0,0,0,0.0702627,-0.0246,0.587977,0,0,0,0,0,0
0.0374847,-1.5079e-06,-1.10836,-5.726e-07,2.21684,2.90926e-06,0.610671,-3.15091e-06,-7.74886e-05,-0.00405297,-2.94271e-05,0.0140639,0.000149539,-0.0100109,-0.000161968,0,0,0,0.00064461,0,-0.00434212,0,0,0,0.0702633,-0.0246,0.587972,0,0,0,0,0,0
0.0384849,-1.58746e-06,-1.10837,-6.02813e-07,2.21686,3.0628e-06,0.61066,-3.31721e-06,-7.95417e-05,-0.00416172,-3.0207e-05,0.014439,0.000153505,-0.0102773,-0.000166265,0,0,0,0.000661569,0,-0.00445802,0,0,0,0.070264,-0.0246,0.587968,0,0,0,0,0,0
0.039771,-1.69315e-06,-1.10837,-6.42953e-07,2.21688,3.26679e-06,0.610647,-3.53816e-06,-8.21846e-05,-0.00430144,-3.12109e-05,0.0149214,0.00015861,-0.0106199,-0.000171796,0,0,0,0.000683421,0,-0.00460703,0,0,0,0.0702649,-0.0246,0.587962,0,0,0,0,0,0
0.0407711,-1.77739e-06,-1.10838,-6.74945e-07,2.21689,3.42937e-06,0.610636,-3.71425e-06,-8.42304e-05,-0.00441048,-3.19882e-05,0.0152964,0.000162564,-0.0108859,-0.00017608,0,0,0,0.000700259,0,-0.00472294,0,0,0,0.0702656,-0.0246,0.587957,0,0,0,0,0,0
0.0417713,-1.86369e-06,-1.10838,-7.07718e-07,2.21691,3.59592e-06,0.610625,-3.89466e-06,-8.62797e-05,-0.00451939,-3.27667e-05,0.0156715,0.000166524,-0.0111521,-0.00018037,0,0,0,0.000717152,0,-0.00483884,0,0,0,0.0702663,-0.0246,0.587952,0,0,0,0,0,0
0.0427714,-1.95203e-06,-1.10839,-7.41266e-07,2.21692,3.76642e-06,0.610613,-4.07934e-06,-8.83276e-05,-0.00462835,-3.35447e-05,0.0160465,0.000170482,-0.0114181,-0.000184658,0,0,0,0.000734023,0,-0.00495474,0,0,0,0.070267,-0.0246,0.587947,0,0,0,0,0,0
0.0437715,-2.04241e-06,-1.10839,-7.75592e-07,2.21694,3.94088e-06,0.610602,-4.2683e-06,-9.03741e-05,-0.00473736,-3.43223e-05,0.0164215,0.000174437,-0.0116842,-0.000188944,0,0,0,0.000750873,0,-0.00507064,0,0,0,0.0702678,-0.0246,0.587942,0,0,0,0,0,0
0.0447717,-2.13485e-06,-1.1084,-8.10698e-07,2.21696,4.1193e-06,0.61059,-4.46156e-06,-9.24196e-05,-0.00484643,-3.50994e-05,0.0167966,0.000178391,-0.0119501,-0.000193227,0,0,0,0.000767702,0,-0.00518656,0,0,0,0.0702685,-0.0246,0.587937,0,0,0,0,0,0
0.0457718,-2.22932e-06,-1.1084,-8.46578e-07,2.21697,4.30166e-06,0.610577,-4.65909e-06,-9.44635e-05,-0.00495556,-3.5876e-05,0.0171716,0.000182342,-0.012216,-0.000197509,0,0,0,0.000784507,0,-0.00530246,0,0,0,0.0702693,-0.0246,0.587932,0,0,0,0,0,0
0.0467719,-2.32584e-06,-1.10841,-8.83234e-07,2.21699,4.48797e-06,0.610565,-4.8609e-06,-9.6506e-05,-0.00506473,-3.66521e-05,0.0175465,0.000186291,-0.0124818,-0.000201787,0,0,0,0.000801289,0,-0.00541837,0,0,0,0.0702701,-0.0246,0.587926,0,0,0,0,0,0
0.0477721,-2.4244e-06,-1.10841,-9.20669e-07,2.21701,4.67825e-06,0.610552,-5.06701e-06,-9.85474e-05,-0.00517398,-3.74277e-05,0.0179216,0.000190237,-0.0127476,-0.000206064,0,0,0,0.000818049,0,-0.0055343,0,0,0,0.0702709,-0.0246,0.587921,0,0,0,0,0,0
0.0488798,-2.53607e-06,-1.10842,-9.63079e-07,2.21703,4.89382e-06,0.610538,-5.30051e-06,-0.000100809,-0.00529494,-3.82871e-05,0.0183369,0.00019461,-0.0130419,-0.000210802,0,0,0,0.000836626,0,-0.00566268,0,0,0,0.0702719,-0.0246,0.587915,0,0,0,0,0,0
0.0502194,-2.67478e-06,-1.10842,-1.01576e-06,2.21705,5.1616e-06,0.61052,-5.59058e-06,-0.000103544,-0.0054412,-3.93265e-05,0.0188392,0.000199899,-0.013398,-0.000216532,0,0,0,0.000859098,0,-0.00581794,0,0,0,0.070273,-0.0246,0.587907,0,0,0,0,0,0
0.0513157,-2.79073e-06,-1.10843,-1.0598e-06,2.21707,5.38547e-06,0.610505,-5.83308e-06,-0.00010577,-0.00556143,-4.01724e-05,0.0192501,0.000204206,-0.0136886,-0.0002212,0,0,0,0.000877275,0,-0.00594503,0,0,0,0.070274,-0.0246,0.5879,0,0,0,0,0,0
0.0523158,-2.89855e-06,-1.10844,-1.10075e-06,2.21709,5.59363e-06,0.610491,-6.05856e-06,-0.000107802,-0.00567106,-4.09446e-05,0.019625,0.000208137,-0.0139539,-0.00022546,0,0,0,0.000893879,0,-0.00606097,0,0,0,0.0702749,-0.0246,0.587894,0,0,0,0,0,0
0.053316,-3.0084e-06,-1.10844,-1.14248e-06,2.21711,5.80574e-06,0.610477,-6.28833e-06,-0.000109835,-0.00578066,-4.17172e-05,0.0199999,0.00021207,-0.0142192,-0.000229723,0,0,0,0.0009105,0,-0.00617691,0,0,0,0.0702758,-0.0246,0.587888,0,0,0,0,0,0
0.054352,-3.12437e-06,-1.10845,-1.18652e-06,2.21714,6.02967e-06,0.610462,-6.5309e-06,-0.00011194,-0.00589421,-4.25173e-05,0.0203882,0.000216143,-0.014494,-0.000234137,0,0,0,0.000927705,0,-0.00629701,0,0,0,0.0702767,-0.0246,0.587882,0,0,0,0,0,0
0.0555064,-3.25631e-06,-1.10845,-1.23664e-06,2.21716,6.28442e-06,0.610444,-6.80686e-06,-0.000114287,-0.00602071,-4.34089e-05,0.0208209,0.000220682,-0.0148002,-0.000239056,0,0,0,0.000946884,0,-0.00643083,0,0,0,0.0702778,-0.0246,0.587874,0,0,0,0,0,0
0.0566361,-3.388e-06,-1.10846,-1.28666e-06,2.21718,6.53873e-06,0.610427,-7.08235e-06,-0.000116576,-0.00614478,-4.42792e-05,0.0212443,0.000225113,-0.0150996,-0.000243858,0,0,0,0.000965546,0,-0.00656181,0,0,0,0.0702789,-0.0246,0.587867,0,0,0,0,0,0
0.0577685,-3.52261e-06,-1.10847,-1.33779e-06,2.21721,6.79868e-06,0.61041,-7.36394e-06,-0.00011887,-0.0062692,-4.5151e-05,0.0216687,0.000229553,-0.0153995,-0.000248671,0,0,0,0.000984231,0,-0.0066931,0,0,0,0.07028,-0.0246,0.587859,0,0,0,0,0,0
0.0588973,-3.65937e-06,-1.10848,-1.38973e-06,2.21723,7.06279e-06,0.610392,-7.65005e-06,-0.000121154,-0.00639333,-4.60193e-05,0.0220918,0.000233975,-0.0156985,-0.000253463,0,0,0,0.00100282,0,-0.00682398,0,0,0,0.0702812,-0.0246,0.587851,0,0,0,0,0,0
0.0600407,-3.80054e-06,-1.10848,-1.44336e-06,2.21726,7.33543e-06,0.610374,-7.94541e-06,-0.000123466,-0.00651913,-4.68981e-05,0.0225203,0.000238451,-0.0160011,-0.000258315,0,0,0,0.00102161,0,-0.00695655,0,0,0,0.0702823,-0.0246,0.587844,0,0,0,0,0,0
0.0611725,-3.94287e-06,-1.10849,-1.49742e-06,2.21728,7.61032e-06,0.610355,-8.2432e-06,-0.000125751,-0.00664379,-4.77668e-05,0.0229444,0.000242877,-0.0163006,-0.000263112,0,0,0,0.00104017,0,-0.00708779,0,0,0,0.0702835,-0.0246,0.587836,0,0,0,0,0,0
0.0623266,-4.09068e-06,-1.1085,-1.55357e-06,2.21731,7.89583e-06,0.610336,-8.5525e-06,-0.00012808,-0.00677096,-4.86523e-05,0.0233768,0.000247387,-0.0166059,-0.000268001,0,0,0,0.00105907,0,-0.00722162,0,0,0,0.0702847,-0.0246,0.587827,0,0,0,0,0,0
0.0634417,-4.23601e-06,-1.10851,-1.60877e-06,2.21734,8.17654e-06,0.610317,-8.85661e-06,-0.000130326,-0.00689402,-4.95061e-05,0.0237946,0.000251738,-0.0169006,-0.000272717,0,0,0,0.00107725,0,-0.00735093,0,0,0,0.0702859,-0.0246,0.587819,0,0,0,0,0,0
0.064646,-4.39589e-06,-1.10851,-1.6695e-06,2.21737,8.48538e-06,0.610297,-9.19118e-06,-0.000132754,-0.00702682,-5.04292e-05,0.0242458,0.000256441,-0.017219,-0.000277815,0,0,0,0.00109693,0,-0.00749059,0,0,0,0.0702873,-0.0246,0.58781,0,0,0,0,0,0
0.0658447,-4.55791e-06,-1.10852,-1.73105e-06,2.2174,8.79837e-06,0.610276,-9.53027e-06,-0.000135164,-0.00715928,-5.13456e-05,0.0246949,0.000261111,-0.0175356,-0.000282878,0,0,0,0.0011164,0,-0.00762961,0,0,0,0.0702886,-0.0246,0.587801,0,0,0,0,0,0
0.0670853,-4.72869e-06,-1.10853,-1.79593e-06,2.21743,9.1283e-06,0.610254,-9.8877e-06,-0.000137658,-0.00729641,-5.22937e-05,0.0251597,0.000265943,-0.0178633,-0.000288117,0,0,0,0.00113655,0,-0.00777349,0,0,0,0.07029,-0.0246,0.587791,0,0,0,0,0,0
0.0683283,-4.90289e-06,-1.10854,-1.86211e-06,2.21746,9.46487e-06,0.610231,-1.02523e-05,-0.000140151,-0.007434,-5.32419e-05,0.0256253,0.000270776,-0.0181913,-0.000293357,0,0,0,0.00115665,0,-0.00791766,0,0,0,0.0702914,-0.0246,0.587781,0,0,0,0,0,0
0.0696659,-5.09395e-06,-1.10855,-1.93469e-06,2.21749,9.83402e-06,0.610206,-1.06523e-05,-0.000142835,-0.00758203,-5.42626e-05,0.0261263,0.000275979,-0.0185443,-0.000298998,0,0,0,0.0011783,0,-0.0080728,0,0,0,0.070293,-0.0246,0.587771,0,0,0,0,0,0
0.0708494,-5.26579e-06,-1.10856,-1.99997e-06,2.21753,1.01661e-05,0.610184,-1.1012e-05,-0.000145196,-0.00771362,-5.51603e-05,0.0265695,0.000280558,-0.0188559,-0.000303963,0,0,0,0.00119721,0,-0.00821011,0,0,0,0.0702944,-0.0246,0.587761,0,0,0,0,0,0
0.0720315,-5.44022e-06,-1.10857,-2.06624e-06,2.21756,1.05031e-05,0.610161,-1.13772e-05,-0.000147557,-0.00784488,-5.60586e-05,0.0270122,0.000285139,-0.0191674,-0.00030893,0,0,0,0.00121617,0,-0.00834724,0,0,0,0.0702959,-0.0246,0.587751,0,0,0,0,0,0
0.0732271,-5.61949e-06,-1.10858,-2.13435e-06,2.21759,1.08496e-05,0.610138,-1.17526e-05,-0.000149944,-0.00797773,-5.69664e-05,0.02746,0.000289768,-0.0194822,-0.00031395,0,0,0,0.00123531,0,-0.00848594,0,0,0,0.0702973,-0.0246,0.587741,0,0,0,0,0,0
0.0744115,-5.79988e-06,-1.10859,-2.20288e-06,2.21762,1.11982e-05,0.610114,-1.21303e-05,-0.000152304,-0.00810952,-5.7864e-05,0.0279035,0.000294347,-0.0197939,-0.000318915,0,0,0,0.00125419,0,-0.00862335,0,0,0,0.0702988,-0.0246,0.587731,0,0,0,0,0,0
0.0756025,-5.9841e-06,-1.1086,-2.27287e-06,2.21766,1.15542e-05,0.61009,-1.25161e-05,-0.000154674,-0.00824213,-5.87658e-05,0.0283494,0.000298947,-0.0201073,-0.000323904,0,0,0,0.00127314,0,-0.00876154,0,0,0,0.0703003,-0.0246,0.58772,0,0,0,0,0,0
0.0767983,-6.1719e-06,-1.10861,-2.34423e-06,2.21769,1.19172e-05,0.610066,-1.29094e-05,-0.000157051,-0.00837542,-5.96701e-05,0.0287971,0.000303561,-0.0204217,-0.000328908,0,0,0,0.00129212,0,-0.00890029,0,0,0,0.0703019,-0.0246,0.58771,0,0,0,0,0,0
0.07799,-6.36187e-06,-1.10862,-2.41641e-06,2.21773,1.22845e-05,0.610041,-1.33073e-05,-0.000159416,-0.00850842,-6.05699e-05,0.0292433,0.000308153,-0.0207348,-0.000333887,0,0,0,0.00131096,0,-0.00903857,0,0,0,0.0703035,-0.0246,0.587699,0,0,0,0,0,0
0.0791941,-6.5567e-06,-1.10863,-2.49043e-06,2.21776,1.26611e-05,0.610016,-1.37154e-05,-0.000161804,-0.0086429,-6.14781e-05,0.029694,0.000312788,-0.0210511,-0.000338915,0,0,0,0.00132996,0,-0.0091783,0,0,0,0.0703051,-0.0246,0.587688,0,0,0,0,0,0
0.0804056,-6.75563e-06,-1.10864,-2.56602e-06,2.2178,1.30457e-05,0.60999,-1.41321e-05,-0.000164202,-0.00877836,-6.23906e-05,0.0301475,0.000317445,-0.0213691,-0.000343967,0,0,0,0.00134902,0,-0.0093189,0,0,0,0.0703067,-0.0246,0.587676,0,0,0,0,0,0
0.0816278,-6.95927e-06,-1.10865,-2.6434e-06,2.21784,1.34394e-05,0.609964,-1.45587e-05,-0.000166618,-0.00891516,-6.331e-05,0.030605,0.000322139,-0.0216898,-0.000349057,0,0,0,0.00136818,0,-0.00946074,0,0,0,0.0703084,-0.0246,0.587665,0,0,0,0,0,0
0.0828414,-7.16438e-06,-1.10866,-2.72133e-06,2.21787,1.3836e-05,0.609937,-1.49884e-05,-0.000169012,-0.00905121,-6.42211e-05,0.0310592,0.000326791,-0.022008,-0.000354104,0,0,0,0.00138713,0,-0.0096016,0,0,0,0.07031,-0.0246,0.587653,0,0,0,0,0,0
0.0841052,-7.38113e-06,-1.10867,-2.8037e-06,2.21791,1.42551e-05,0.609909,-1.54426e-05,-0.000171505,-0.00919287,-6.517e-05,0.0315321,0.000331635,-0.0223393,-0.000359359,0,0,0,0.00140687,0,-0.00974828,0,0,0,0.0703118,-0.0246,0.587641,0,0,0,0,0,0
0.0853833,-7.60355e-06,-1.10869,-2.88821e-06,2.21796,1.46852e-05,0.60988,-1.59087e-05,-0.00017402,-0.00933642,-6.61272e-05,0.0320104,0.000336524,-0.022674,-0.000364663,0,0,0,0.00142672,0,-0.00989664,0,0,0,0.0703136,-0.0246,0.587628,0,0,0,0,0,0
0.0866108,-7.82011e-06,-1.1087,-2.97051e-06,2.218,1.51041e-05,0.609851,-1.63625e-05,-0.000176427,-0.00947464,-6.70434e-05,0.0324697,0.000341205,-0.022995,-0.000369741,0,0,0,0.00144564,0,-0.0100391,0,0,0,0.0703154,-0.0246,0.587616,0,0,0,0,0,0
0.0877676,-8.02682e-06,-1.10871,-3.04906e-06,2.21803,1.55038e-05,0.609825,-1.67958e-05,-0.000178689,-0.00960514,-6.79048e-05,0.0329024,0.000345607,-0.0232972,-0.000374518,0,0,0,0.00146338,0,-0.0101735,0,0,0,0.0703171,-0.0246,0.587604,0,0,0,0,0,0
0.0888884,-8.22955e-06,-1.10872,-3.1261e-06,2.21807,1.5896e-05,0.609798,-1.72207e-05,-0.00018088,-0.00973163,-6.8739e-05,0.0333217,0.00034987,-0.02359,-0.000379143,0,0,0,0.00148054,0,-0.0103036,0,0,0,0.0703188,-0.0246,0.587593,0,0,0,0,0,0
0.0900257,-8.43779e-06,-1.10873,-3.20524e-06,2.21811,1.62988e-05,0.609771,-1.76572e-05,-0.000183104,-0.00985995,-6.95857e-05,0.0337471,0.000354197,-0.0238871,-0.000383839,0,0,0,0.00149797,0,-0.0104356,0,0,0,0.0703205,-0.0246,0.587581,0,0,0,0,0,0
0.0911679,-8.64948e-06,-1.10874,-3.28569e-06,2.21815,1.67083e-05,0.609743,-1.8101e-05,-0.000185333,-0.00998901,-7.04345e-05,0.0341743,0.000358535,-0.0241853,-0.000388546,0,0,0,0.0015154,0,-0.0105683,0,0,0,0.0703222,-0.0246,0.587569,0,0,0,0,0,0
0.0922934,-8.86054e-06,-1.10875,-3.36591e-06,2.21819,1.71167e-05,0.609716,-1.85436e-05,-0.000187525,-0.0101164,-7.1269e-05,0.0345952,0.000362801,-0.0244788,-0.000393176,0,0,0,0.00153249,0,-0.010699,0,0,0,0.0703239,-0.0246,0.587557,0,0,0,0,0,0
0.0934196,-9.0742e-06,-1.10876,-3.44711e-06,2.21823,1.75301e-05,0.609688,-1.89916e-05,-0.000189715,-0.010244,-7.21032e-05,0.0350164,0.000367067,-0.0247724,-0.000397805,0,0,0,0.00154956,0,-0.0108298,0,0,0,0.0703257,-0.0246,0.587544,0,0,0,0,0,0
0.0945455,-9.29026e-06,-1.10878,-3.52923e-06,2.21827,1.79481e-05,0.60966,-1.94447e-05,-0.000191901,-0.0103716,-7.29359e-05,0.0354374,0.000371325,-0.0250658,-0.000402426,0,0,0,0.00156655,0,-0.0109605,0,0,0,0.0703274,-0.0246,0.587532,0,0,0,0,0,0
0.0956762,-9.50972e-06,-1.10879,-3.61264e-06,2.21831,1.83728e-05,0.609631,-1.99049e-05,-0.000194094,-0.0105,-7.37709e-05,0.0358602,0.000375595,-0.0253602,-0.000407062,0,0,0,0.00158357,0,-0.0110918,0,0,0,0.0703292,-0.0246,0.58752,0,0,0,0,0,0
0.0968085,-9.73198e-06,-1.1088,-3.69712e-06,2.21835,1.88029e-05,0.609602,-2.03711e-05,-0.000196285,-0.0106287,-7.46058e-05,0.0362835,0.000379866,-0.0256548,-0.000411697,0,0,0,0.00160054,0,-0.0112234,0,0,0,0.070331,-0.0246,0.587507,0,0,0,0,0,0
0.0979507,-9.95869e-06,-1.10881,-3.78329e-06,2.21839,1.92417e-05,0.609572,-2.08467e-05,-0.000198493,-0.0107587,-7.54468e-05,0.0367105,0.000384168,-0.0259518,-0.000416367,0,0,0,0.00161762,0,-0.011356,0,0,0,0.0703329,-0.0246,0.587494,0,0,0,0,0,0
0.099155,-1.02005e-05,-1.10883,-3.87522e-06,2.21843,1.97099e-05,0.609541,-2.1354e-05,-0.000200822,-0.0108957,-7.63339e-05,0.0371608,0.000388706,-0.0262651,-0.000421293,0,0,0,0.00163563,0,-0.0114959,0,0,0,0.0703349,-0.0246,0.58748,0,0,0,0,0,0
0.100367,-1.04468e-05,-1.10884,-3.96882e-06,2.21848,2.01865e-05,0.609508,-2.18707e-05,-0.000203156,-0.011034,-7.72233e-05,0.0376138,0.000393258,-0.0265799,-0.000426235,0,0,0,0.00165361,0,-0.0116368,0,0,0,0.0703369,-0.0246,0.587466,0,0,0,0,0,0
0.102272,-1.08409e-05,-1.10886,-4.11863e-06,2.21855,2.09495e-05,0.609457,-2.26976e-05,-0.000206886,-0.0112487,-7.86435e-05,0.0383264,0.000400514,-0.0270778,-0.000434108,0,0,0,0.00168289,0,-0.0118579,0,0,0,0.0703401,-0.0246,0.587443,0,0,0,0,0,0
0.103272,-1.10496e-05,-1.10887,-4.19799e-06,2.21859,2.13536e-05,0.609429,-2.31357e-05,-0.000208707,-0.0113672,-7.93395e-05,0.0386992,0.000404096,-0.027332,-0.000438004,0,0,0,0.00169597,0,-0.0119744,0,0,0,0.0703418,-0.0246,0.587431,0,0,0,0,0,0
0.104272,-1.12603e-05,-1.10888,-4.27806e-06,2.21863,2.17615e-05,0.609402,-2.35778e-05,-0.00021062,-0.0114818,-8.00685e-05,0.0390729,0.000407829,-0.027591,-0.000442058,0,0,0,0.00171057,0,-0.0120906,0,0,0,0.0703435,-0.0246,0.587419,0,0,0,0,0,0
0.105272,-1.14728e-05,-1.1089,-4.35888e-06,2.21867,2.21731e-05,0.609374,-2.4024e-05,-0.00021253,-0.0115966,-8.07964e-05,0.0394466,0.000411558,-0.0278499,-0.000446106,0,0,0,0.00172513,0,-0.0122068,0,0,0,0.0703452,-0.0246,0.587407,0,0,0,0,0,0
0.106273,-1.16873e-05,-1.10891,-4.44042e-06,2.21871,2.25885e-05,0.609346,-2.44742e-05,-0.000214436,-0.0117116,-8.15232e-05,0.0398202,0.000415281,-0.0281086,-0.000450149,0,0,0,0.00173963,0,-0.0123231,0,0,0,0.0703469,-0.0246,0.587395,0,0,0,0,0,0
0.107273,-1.19037e-05,-1.10892,-4.52268e-06,2.21875,2.30076e-05,0.609318,-2.49285e-05,-0.000216339,-0.0118267,-8.22488e-05,0.0401938,0.000418998,-0.0283671,-0.000454187,0,0,0,0.00175407,0,-0.0124393,0,0,0,0.0703487,-0.0246,0.587382,0,0,0,0,0,0
0.108273,-1.2122e-05,-1.10893,-4.60566e-06,2.21879,2.34303e-05,0.609289,-2.53868e-05,-0.000218239,-0.0119419,-8.29732e-05,0.0405673,0.00042271,-0.0286255,-0.000458218,0,0,0,0.00176846,0,-0.0125556,0,0,0,0.0703505,-0.0246,0.58737,0,0,0,0,0,0
0.109273,-1.23421e-05,-1.10894,-4.68937e-06,2.21883,2.38568e-05,0.60926,-2.58491e-05,-0.000220135,-0.0120572,-8.36963e-05,0.0409409,0.000426416,-0.0288836,-0.000462244,0,0,0,0.0017828,0,-0.0126718,0,0,0,0.0703522,-0.0246,0.587357,0,0,0,0,0,0
0.110273,-1.25642e-05,-1.10895,-4.77379e-06,2.21887,2.4287e-05,0.609231,-2.63154e-05,-0.000222028,-0.0121727,-8.44183e-05,0.0413143,0.000430117,-0.0291416,-0.000466264,0,0,0,0.00179708,0,-0.0127881,0,0,0,0.070354,-0.0246,0.587344,0,0,0,0,0,0
0.111273,-1.27881e-05,-1.10897,-4.85894e-06,2.21891,2.47208e-05,0.609201,-2.67857e-05,-0.000223918,-0.0122883,-8.51391e-05,0.0416878,0.000433813,-0.0293994,-0.000470278,0,0,0,0.0018113,0,-0.0129043,0,0,0,0.0703559,-0.0246,0.587331,0,0,0,0,0,0
0.112273,-1.30139e-05,-1.10898,-4.94481e-06,2.21896,2.51584e-05,0.609172,-2.726e-05,-0.000225805,-0.0124041,-8.58587e-05,0.0420611,0.000437502,-0.0296571,-0.000474287,0,0,0,0.00182547,0,-0.0130206,0,0,0,0.0703577,-0.0246,0.587318,0,0,0,0,0,0
0.113273,-1.32417e-05,-1.10899,-5.0314e-06,2.219,2.55996e-05,0.609142,-2.77384e-05,-0.000227688,-0.01252,-8.65771e-05,0.0424345,0.000441186,-0.0299145,-0.000478289,0,0,0,0.00183958,0,-0.0131369,0,0,0,0.0703595,-0.0246,0.587305,0,0,0,0,0,0
0.114274,-1.34712e-05,-1.109,-5.1187e-06,2.21904,2.60445e-05,0.609112,-2.82207e-05,-0.000229567,-0.012636,-8.72942e-05,0.0428078,0.000444864,-0.0301718,-0.000482285,0,0,0,0.00185364,0,-0.0132532,0,0,0,0.0703614,-0.0246,0.587292,0,0,0,0,0,0
0.115274,-1.37027e-05,-1.10902,-5.20673e-06,2.21909,2.64931e-05,0.609081,-2.87071e-05,-0.000231444,-0.0127522,-8.80102e-05,0.0431812,0.000448537,-0.0304289,-0.000486276,0,0,0,0.00186763,0,-0.0133695,0,0,0,0.0703632,-0.0246,0.587279,0,0,0,0,0,0
0.116274,-1.39361e-05,-1.10903,-5.29546e-06,2.21913,2.69454e-05,0.609051,-2.91974e-05,-0.000233316,-0.0128686,-8.87248e-05,0.0435544,0.000452204,-0.0306858,-0.00049026,0,0,0,0.00188157,0,-0.0134858,0,0,0,0.0703651,-0.0246,0.587265,0,0,0,0,0,0
0.117719,-1.42773e-05,-1.10905,-5.42521e-06,2.21919,2.76067e-05,0.609006,-2.99144e-05,-0.000236078,-0.0130344,-8.97776e-05,0.0440944,0.000457595,-0.03106,-0.000496114,0,0,0,0.00190264,0,-0.0136538,0,0,0,0.0703679,-0.0246,0.587245,0,0,0,0,0,0
0.118719,-1.45152e-05,-1.10906,-5.51568e-06,2.21924,2.80679e-05,0.608974,-3.04144e-05,-0.00023788,-0.0131537,-9.04667e-05,0.0444669,0.000461144,-0.0313132,-0.000499976,0,0,0,0.0019154,0,-0.0137702,0,0,0,0.0703698,-0.0246,0.587232,0,0,0,0,0,0
0.11972,-1.4755e-05,-1.10908,-5.6069e-06,2.21928,2.85329e-05,0.608943,-3.09185e-05,-0.000239741,-0.0132706,-9.11772e-05,0.0448401,0.000464792,-0.0315695,-0.00050394,0,0,0,0.00192914,0,-0.0138866,0,0,0,0.0703717,-0.0246,0.587218,0,0,0,0,0,0
0.120966,-1.50568e-05,-1.10909,-5.72169e-06,2.21934,2.91181e-05,0.608903,-3.15531e-05,-0.000242092,-0.013415,-9.20738e-05,0.0453056,0.000469389,-0.0318906,-0.000508935,0,0,0,0.00194678,0,-0.0140316,0,0,0,0.0703741,-0.0246,0.5872,0,0,0,0,0,0
0.122184,-1.53544e-05,-1.10911,-5.83486e-06,2.21939,2.96951e-05,0.608864,-3.21786e-05,-0.000244343,-0.0135578,-9.29335e-05,0.0457598,0.000473805,-0.0322019,-0.000513735,0,0,0,0.00196326,0,-0.0141732,0,0,0,0.0703765,-0.0246,0.587183,0,0,0,0,0,0
0.123184,-1.56006e-05,-1.10912,-5.92849e-06,2.21944,3.01725e-05,0.608831,-3.26963e-05,-0.000246158,-0.0136766,-9.36273e-05,0.0461324,0.000477375,-0.0324558,-0.000517619,0,0,0,0.00197623,0,-0.0142897,0,0,0,0.0703785,-0.0246,0.587169,0,0,0,0,0,0
0.124255,-1.58663e-05,-1.10914,-6.02956e-06,2.21949,3.06878e-05,0.608796,-3.32551e-05,-0.000248144,-0.013802,-9.43853e-05,0.0465318,0.000481268,-0.0327298,-0.00052185,0,0,0,0.00199082,0,-0.0144143,0,0,0,0.0703806,-0.0246,0.587153,0,0,0,0,0,0
0.125317,-1.6132e-05,-1.10915,-6.13063e-06,2.21954,3.12032e-05,0.608761,-3.3814e-05,-0.000250097,-0.0139271,-9.51315e-05,0.0469279,0.000485103,-0.0330008,-0.00052602,0,0,0,0.00200503,0,-0.0145379,0,0,0,0.0703828,-0.0246,0.587138,0,0,0,0,0,0
0.126317,-1.63839e-05,-1.10917,-6.22647e-06,2.21959,3.16919e-05,0.608728,-3.43439e-05,-0.000251923,-0.0140455,-9.58293e-05,0.0473007,0.000488691,-0.0332552,-0.000529923,0,0,0,0.00201818,0,-0.0146543,0,0,0,0.0703848,-0.0246,0.587123,0,0,0,0,0,0
0.12776,-1.67513e-05,-1.10919,-6.36624e-06,2.21966,3.24047e-05,0.60868,-3.51169e-05,-0.000254638,-0.0142128,-9.68651e-05,0.0478393,0.000494002,-0.0336265,-0.000535693,0,0,0,0.00203851,0,-0.0148221,0,0,0,0.0703877,-0.0246,0.587102,0,0,0,0,0,0
0.129039,-1.70799e-05,-1.10921,-6.49122e-06,2.21972,3.30422e-05,0.608636,-3.58081e-05,-0.000256946,-0.0143651,-9.77478e-05,0.0483156,0.000498547,-0.0339505,-0.000540637,0,0,0,0.00205489,0,-0.014971,0,0,0,0.0703904,-0.0246,0.587083,0,0,0,0,0,0
0.130284,-1.74025e-05,-1.10922,-6.61395e-06,2.21978,3.36682e-05,0.608593,-3.6487e-05,-0.000259208,-0.0145129,-9.86123e-05,0.0487794,0.000502994,-0.0342665,-0.000545474,0,0,0,0.00207108,0,-0.0151159,0,0,0,0.0703929,-0.0246,0.587064,0,0,0,0,0,0
0.131863,-1.78165e-05,-1.10925,-6.77147e-06,2.21986,3.44717e-05,0.608539,-3.73585e-05,-0.000262135,-0.0146979,-9.97299e-05,0.0493685,0.000508733,-0.0346706,-0.000551712,0,0,0,0.00209257,0,-0.0152996,0,0,0,0.0703962,-0.0246,0.58704,0,0,0,0,0,0
0.133561,-1.82668e-05,-1.10927,-6.94278e-06,2.21994,3.53457e-05,0.608479,-3.83063e-05,-0.000265229,-0.014899,-0.000100913,0.0500012,0.000514815,-0.0351022,-0.000558327,0,0,0,0.00211482,0,-0.0154972,0,0,0,0.0703998,-0.0246,0.587013,0,0,0,0,0,0
0.135639,-1.8826e-05,-1.1093,-7.15556e-06,2.22005,3.64313e-05,0.608405,-3.94837e-05,-0.000269047,-0.0151439,-0.000102371,0.0507761,0.00052231,-0.0356322,-0.000566477,0,0,0,0.00214254,0,-0.0157391,0,0,0,0.0704043,-0.0246,0.586981,0,0,0,0,0,0
0.13701,-1.9198e-05,-1.10932,-7.29714e-06,2.22012,3.71537e-05,0.608356,-4.02673e-05,-0.000271377,-0.0153134,-0.000103266,0.0512853,0.000526941,-0.0359719,-0.000571526,0,0,0,0.00215768,0,-0.0158991,0,0,0,0.0704072,-0.0246,0.586959,0,0,0,0,0,0
0.13801,-1.94712e-05,-1.10934,-7.40107e-06,2.22017,3.76842e-05,0.608319,-4.08426e-05,-0.000273097,-0.0154362,-0.000103925,0.0516569,0.000530352,-0.0362207,-0.000575242,0,0,0,0.00216905,0,-0.0160157,0,0,0,0.0704094,-0.0246,0.586943,0,0,0,0,0,0
0.139021,-1.97491e-05,-1.10936,-7.50683e-06,2.22022,3.82239e-05,0.608283,-4.1428e-05,-0.000274903,-0.0155575,-0.000104616,0.0520333,0.000533913,-0.0364757,-0.000579118,0,0,0,0.00218169,0,-0.0161335,0,0,0,0.0704116,-0.0246,0.586926,0,0,0,0,0,0
0.140021,-2.00258e-05,-1.10937,-7.61216e-06,2.22027,3.87615e-05,0.608246,-4.20111e-05,-0.000276683,-0.0156778,-0.000105297,0.0524056,0.000537422,-0.0367277,-0.000582939,0,0,0,0.00219406,0,-0.01625,0,0,0,0.0704138,-0.0246,0.58691,0,0,0,0,0,0
0.141022,-2.03043e-05,-1.10939,-7.71815e-06,2.22033,3.93024e-05,0.608209,-4.25979e-05,-0.000278459,-0.0157983,-0.000105977,0.0527778,0.000540928,-0.0369795,-0.000586754,0,0,0,0.00220638,0,-0.0163665,0,0,0,0.070416,-0.0246,0.586894,0,0,0,0,0,0
0.142022,-2.05846e-05,-1.1094,-7.82481e-06,2.22038,3.98469e-05,0.608172,-4.31886e-05,-0.000280232,-0.0159188,-0.000106656,0.05315,0.000544426,-0.0372311,-0.000590562,0,0,0,0.00221864,0,-0.016483,0,0,0,0.0704182,-0.0246,0.586877,0,0,0,0,0,0
0.143022,-2.08666e-05,-1.10942,-7.93217e-06,2.22043,4.0395e-05,0.608134,-4.3783e-05,-0.000282,-0.0160396,-0.000107333,0.0535221,0.000547917,-0.0374825,-0.000594363,0,0,0,0.00223083,0,-0.0165996,0,0,0,0.0704205,-0.0246,0.586861,0,0,0,0,0,0
0.144022,-2.11505e-05,-1.10943,-8.0402e-06,2.22049,4.09465e-05,0.608096,-4.43813e-05,-0.000283764,-0.0161606,-0.000108008,0.0538942,0.000551401,-0.0377336,-0.000598157,0,0,0,0.00224294,0,-0.0167161,0,0,0,0.0704227,-0.0246,0.586844,0,0,0,0,0,0
0.145022,-2.1436e-05,-1.10945,-8.14889e-06,2.22054,4.15014e-05,0.608058,-4.49833e-05,-0.000285523,-0.0162818,-0.000108682,0.0542663,0.000554877,-0.0379845,-0.000601942,0,0,0,0.00225498,0,-0.0168327,0,0,0,0.070425,-0.0246,0.586827,0,0,0,0,0,0
0.146022,-2.17233e-05,-1.10947,-8.25826e-06,2.2206,4.20598e-05,0.60802,-4.55891e-05,-0.000287278,-0.0164031,-0.000109355,0.0546382,0.000558346,-0.0382351,-0.000605719,0,0,0,0.00226694,0,-0.0169493,0,0,0,0.0704272,-0.0246,0.58681,0,0,0,0,0,0
0.147189,-2.20609e-05,-1.10949,-8.38674e-06,2.22066,4.27159e-05,0.607975,-4.63009e-05,-0.000289356,-0.0165433,-0.00011015,0.0550724,0.000562443,-0.0385291,-0.000610179,0,0,0,0.00228141,0,-0.0170851,0,0,0,0.0704299,-0.0246,0.58679,0,0,0,0,0,0
0.148429,-2.24223e-05,-1.10951,-8.52436e-06,2.22073,4.34186e-05,0.607927,-4.70632e-05,-0.000291536,-0.0166936,-0.000110985,0.0555336,0.000566751,-0.0388401,-0.000614869,0,0,0,0.00229632,0,-0.0172296,0,0,0,0.0704327,-0.0246,0.586769,0,0,0,0,0,0
0.149513,-2.27404e-05,-1.10953,-8.64543e-06,2.22079,4.40369e-05,0.607885,-4.77341e-05,-0.000293388,-0.0168272,-0.000111695,0.0559363,0.000570425,-0.039109,-0.000618874,0,0,0,0.00230843,0,-0.0173561,0,0,0,0.0704352,-0.0246,0.58675,0,0,0,0,0,0
0.150513,-2.30355e-05,-1.10954,-8.75781e-06,2.22085,4.46109e-05,0.607845,-4.83568e-05,-0.000295104,-0.0169502,-0.000112354,0.0563079,0.000573829,-0.0393576,-0.000622584,0,0,0,0.00231974,0,-0.0174727,0,0,0,0.0704376,-0.0246,0.586733,0,0,0,0,0,0
0.151513,-2.33324e-05,-1.10956,-8.87084e-06,2.2209,4.51882e-05,0.607806,-4.89832e-05,-0.000296834,-0.0170726,-0.000113017,0.0566796,0.000577256,-0.0396069,-0.000626318,0,0,0,0.0023313,0,-0.0175894,0,0,0,0.0704399,-0.0246,0.586715,0,0,0,0,0,0
0.152513,-2.3631e-05,-1.10958,-8.98454e-06,2.22096,4.5769e-05,0.607766,-4.96134e-05,-0.00029856,-0.0171952,-0.000113679,0.0570512,0.000580676,-0.039856,-0.000630044,0,0,0,0.00234277,0,-0.017706,0,0,0,0.0704422,-0.0246,0.586697,0,0,0,0,0,0
0.153513,-2.39313e-05,-1.10959,-9.09889e-06,2.22102,4.63531e-05,0.607726,-5.02472e-05,-0.000300281,-0.017318,-0.000114339,0.0574228,0.000584087,-0.0401049,-0.000633761,0,0,0,0.00235417,0,-0.0178226,0,0,0,0.0704446,-0.0246,0.586679,0,0,0,0,0,0
0.154513,-2.42334e-05,-1.10961,-9.21391e-06,2.22108,4.69408e-05,0.607685,-5.08848e-05,-0.000301998,-0.0174409,-0.000114998,0.0577944,0.000587491,-0.0403535,-0.000637471,0,0,0,0.00236549,0,-0.0179393,0,0,0,0.070447,-0.0246,0.586662,0,0,0,0,0,0
0.155514,-2.45371e-05,-1.10963,-9.32959e-06,2.22113,4.75318e-05,0.607645,-5.15261e-05,-0.00030371,-0.0175641,-0.000115655,0.058166,0.000590887,-0.0406018,-0.000641172,0,0,0,0.00237673,0,-0.0180559,0,0,0,0.0704493,-0.0246,0.586643,0,0,0,0,0,0
0.156514,-2.48426e-05,-1.10965,-9.44592e-06,2.22119,4.81262e-05,0.607604,-5.21711e-05,-0.000305417,-0.0176875,-0.00011631,0.0585374,0.000594275,-0.0408499,-0.000644865,0,0,0,0.00238789,0,-0.0181726,0,0,0,0.0704517,-0.0246,0.586625,0,0,0,0,0,0
0.157514,-2.51498e-05,-1.10966,-9.56291e-06,2.22125,4.87239e-05,0.607563,-5.28198e-05,-0.00030712,-0.0178111,-0.000116963,0.0589089,0.000597655,-0.0410977,-0.00064855,0,0,0,0.00239897,0,-0.0182893,0,0,0,0.0704541,-0.0246,0.586607,0,0,0,0,0,0
0.158581,-2.54795e-05,-1.10968,-9.68849e-06,2.22131,4.93657e-05,0.607519,-5.35162e-05,-0.000308948,-0.0179425,-0.000117665,0.0593053,0.000601281,-0.0413628,-0.000652502,0,0,0,0.00241099,0,-0.0184138,0,0,0,0.0704567,-0.0246,0.586587,0,0,0,0,0,0
0.159582,-2.57902e-05,-1.1097,-9.80683e-06,2.22137,4.99704e-05,0.607477,-5.41724e-05,-0.000310624,-0.0180672,-0.000118309,0.0596765,0.000604616,-0.0416092,-0.000656139,0,0,0,0.00242162,0,-0.0185305,0,0,0,0.0704591,-0.0246,0.586569,0,0,0,0,0,0
0.160653,-2.61248e-05,-1.10972,-9.93427e-06,2.22144,5.06218e-05,0.607432,-5.48793e-05,-0.000312449,-0.0181994,-0.000119009,0.0600741,0.000608238,-0.0418747,-0.000660088,0,0,0,0.00243353,0,-0.0186554,0,0,0,0.0704617,-0.0246,0.586549,0,0,0,0,0,0
0.163435,-2.70086e-05,-1.10977,-1.02709e-05,2.22161,5.23424e-05,0.607314,-5.67467e-05,-0.000317577,-0.0185267,-0.000120969,0.0611117,0.000618297,-0.042585,-0.000671024,0,0,0,0.00247092,0,-0.0189792,0,0,0,0.0704686,-0.0246,0.586496,0,0,0,0,0,0
0.164435,-2.73274e-05,-1.10979,-1.03924e-05,2.22167,5.29632e-05,0.607271,-5.74205e-05,-0.000318768,-0.0186719,-0.000121438,0.0614776,0.000620819,-0.0428056,-0.000673812,0,0,0,0.00247343,0,-0.019097,0,0,0,0.0704711,-0.0246,0.586477,0,0,0,0,0,0
0.167376,-2.82807e-05,-1.10985,-1.07555e-05,2.22185,5.48201e-05,0.607143,-5.94359e-05,-0.000324191,-0.0190176,-0.00012351,0.062574,0.000631454,-0.0435563,-0.000685373,0,0,0,0.002513,0,-0.0194391,0,0,0,0.0704785,-0.0246,0.58642,0,0,0,0,0,0
0.169358,-2.89293e-05,-1.10989,-1.10027e-05,2.22198,5.60839e-05,0.607056,-6.08077e-05,-0.000327192,-0.0192783,-0.000124671,0.063306,0.000637525,-0.0440277,-0.00069202,0,0,0,0.00252872,0,-0.0196711,0,0,0,0.0704835,-0.0246,0.586381,0,0,0,0,0,0
0.170666,-2.93598e-05,-1.10991,-1.11668e-05,2.22206,5.6923e-05,0.606998,-6.17186e-05,-0.000329141,-0.0194517,-0.000125426,0.0637887,0.000641478,-0.044337,-0.00069635,0,0,0,0.00253856,0,-0.0198243,0,0,0,0.0704868,-0.0246,0.586355,0,0,0,0,0,0
0.171667,-2.96906e-05,-1.10993,-1.12928e-05,2.22213,5.75676e-05,0.606953,-6.24184e-05,-0.000330683,-0.0195821,-0.000126022,0.0641583,0.000644586,-0.0445762,-0.00069975,0,0,0,0.00254695,0,-0.0199413,0,0,0,0.0704893,-0.0246,0.586335,0,0,0,0,0,0
0.172667,-3.00229e-05,-1.10995,-1.14194e-05,2.22219,5.82155e-05,0.606908,-6.31218e-05,-0.00033231,-0.0197089,-0.000126648,0.0645288,0.000647837,-0.0448199,-0.000703299,0,0,0,0.00255676,0,-0.0200581,0,0,0,0.0704919,-0.0246,0.586315,0,0,0,0,0,0
0.173667,-3.03569e-05,-1.10997,-1.15467e-05,2.22226,5.88668e-05,0.606863,-6.38288e-05,-0.000333931,-0.0198359,-0.000127273,0.0648993,0.00065108,-0.0450634,-0.00070684,0,0,0,0.00256648,0,-0.020175,0,0,0,0.0704945,-0.0246,0.586295,0,0,0,0,0,0
0.174667,-3.06925e-05,-1.10999,-1.16747e-05,2.22232,5.95211e-05,0.606818,-6.45392e-05,-0.000335548,-0.0199631,-0.000127896,0.0652697,0.000654312,-0.0453065,-0.00071037,0,0,0,0.00257612,0,-0.0202918,0,0,0,0.070497,-0.0246,0.586274,0,0,0,0,0,0
0.175667,-3.10297e-05,-1.11001,-1.18032e-05,2.22239,6.01787e-05,0.606772,-6.52532e-05,-0.000337159,-0.0200906,-0.000128516,0.06564,0.000657536,-0.0455494,-0.000713892,0,0,0,0.00258567,0,-0.0204086,0,0,0,0.0704996,-0.0246,0.586254,0,0,0,0,0,0
0.176667,-3.13685e-05,-1.11003,-1.19323e-05,2.22245,6.08395e-05,0.606726,-6.59707e-05,-0.000338764,-0.0202183,-0.000129135,0.0660103,0.000660751,-0.045792,-0.000717403,0,0,0,0.00259512,0,-0.0205255,0,0,0,0.0705022,-0.0246,0.586233,0,0,0,0,0,0
0.177689,-3.17163e-05,-1.11005,-1.20649e-05,2.22252,6.1518e-05,0.606679,-6.67073e-05,-0.000340406,-0.0203487,-0.000129768,0.0663886,0.000664037,-0.0460399,-0.000720993,0,0,0,0.00260481,0,-0.0206449,0,0,0,0.0705049,-0.0246,0.586212,0,0,0,0,0,0
0.178689,-3.20583e-05,-1.11007,-1.21953e-05,2.22259,6.21853e-05,0.606633,-6.74319e-05,-0.000341994,-0.0204771,-0.000130381,0.0667586,0.000667222,-0.0462815,-0.000724473,0,0,0,0.00261397,0,-0.0207618,0,0,0,0.0705075,-0.0246,0.586192,0,0,0,0,0,0
0.179689,-3.24019e-05,-1.11009,-1.23263e-05,2.22266,6.28558e-05,0.606587,-6.81599e-05,-0.000343583,-0.0206055,-0.000130994,0.0671287,0.000670409,-0.0465232,-0.000727955,0,0,0,0.00262315,0,-0.0208786,0,0,0,0.0705101,-0.0246,0.586171,0,0,0,0,0,0
0.180689,-3.27472e-05,-1.11011,-1.24579e-05,2.22272,6.35295e-05,0.60654,-6.88915e-05,-0.000345167,-0.0207342,-0.000131605,0.0674988,0.000673587,-0.0467646,-0.000731428,0,0,0,0.00263224,0,-0.0209955,0,0,0,0.0705128,-0.0246,0.58615,0,0,0,0,0,0
0.181689,-3.3094e-05,-1.11013,-1.25902e-05,2.22279,6.42064e-05,0.606493,-6.96265e-05,-0.000346745,-0.020863,-0.000132214,0.0678687,0.000676755,-0.0470057,-0.000734891,0,0,0,0.00264124,0,-0.0211125,0,0,0,0.0705154,-0.0246,0.586129,0,0,0,0,0,0
0.18269,-3.34423e-05,-1.11016,-1.2723e-05,2.22286,6.48864e-05,0.606446,-7.03649e-05,-0.000348318,-0.0209921,-0.000132821,0.0682386,0.000679914,-0.0472465,-0.000738344,0,0,0,0.00265015,0,-0.0212294,0,0,0,0.070518,-0.0246,0.586107,0,0,0,0,0,0
0.183696,-3.37946e-05,-1.11018,-1.28574e-05,2.22293,6.55741e-05,0.606398,-7.11118e-05,-0.000349898,-0.0211222,-0.000133431,0.0686109,0.000683088,-0.0474887,-0.000741814,0,0,0,0.00265906,0,-0.0213471,0,0,0,0.0705207,-0.0246,0.586086,0,0,0,0,0,0
0.184696,-3.41461e-05,-1.1102,-1.29914e-05,2.223,6.62604e-05,0.60635,-7.18571e-05,-0.000351458,-0.0212519,-0.000134034,0.0689807,0.000686223,-0.0477288,-0.000745242,0,0,0,0.00266774,0,-0.021464,0,0,0,0.0705234,-0.0246,0.586064,0,0,0,0,0,0
0.185696,-3.44991e-05,-1.11022,-1.31261e-05,2.22307,6.69498e-05,0.606302,-7.26058e-05,-0.000353014,-0.0213817,-0.000134635,0.0693503,0.000689353,-0.0479686,-0.000748665,0,0,0,0.00267637,0,-0.021581,0,0,0,0.0705261,-0.0246,0.586043,0,0,0,0,0,0
0.186697,-3.48537e-05,-1.11024,-1.32613e-05,2.22314,6.76423e-05,0.606254,-7.3358e-05,-0.000354564,-0.0215117,-0.000135234,0.06972,0.000692474,-0.0482082,-0.000752077,0,0,0,0.0026849,0,-0.0216979,0,0,0,0.0705287,-0.0246,0.586021,0,0,0,0,0,0
0.187697,-3.52099e-05,-1.11026,-1.33971e-05,2.22321,6.8338e-05,0.606205,-7.41135e-05,-0.000356109,-0.021642,-0.000135831,0.0700895,0.000695584,-0.0484475,-0.00075548,0,0,0,0.00269334,0,-0.0218149,0,0,0,0.0705314,-0.0246,0.585999,0,0,0,0,0,0
0.188697,-3.55676e-05,-1.11028,-1.35336e-05,2.22328,6.90368e-05,0.606157,-7.48725e-05,-0.000357648,-0.0217725,-0.000136426,0.070459,0.000698685,-0.0486864,-0.000758872,0,0,0,0.00270168,0,-0.0219319,0,0,0,0.0705341,-0.0246,0.585977,0,0,0,0,0,0
0.189697,-3.59268e-05,-1.11031,-1.36706e-05,2.22335,6.97386e-05,0.606108,-7.56348e-05,-0.000359182,-0.0219033,-0.00013702,0.0708284,0.000701776,-0.048925,-0.000762253,0,0,0,0.00270992,0,-0.0220489,0,0,0,0.0705369,-0.0246,0.585955,0,0,0,0,0,0
0.190697,-3.62875e-05,-1.11033,-1.38082e-05,2.22342,7.04435e-05,0.606059,-7.64005e-05,-0.000360709,-0.0220343,-0.000137611,0.0711977,0.000704857,-0.0491633,-0.000765625,0,0,0,0.00271807,0,-0.0221659,0,0,0,0.0705396,-0.0246,0.585933,0,0,0,0,0,0
0.191697,-3.66498e-05,-1.11035,-1.39465e-05,2.22349,7.11515e-05,0.606009,-7.71696e-05,-0.000362231,-0.0221656,-0.0001382,0.071567,0.000707928,-0.0494013,-0.000768986,0,0,0,0.00272612,0,-0.0222829,0,0,0,0.0705423,-0.0246,0.585911,0,0,0,0,0,0
0.192697,-3.70136e-05,-1.11037,-1.40853e-05,2.22356,7.18626e-05,0.605959,-7.7942e-05,-0.000363747,-0.0222971,-0.000138787,0.0719362,0.000710988,-0.049639,-0.000772336,0,0,0,0.00273407,0,-0.0223999,0,0,0,0.070545,-0.0246,0.585888,0,0,0,0,0,0
0.193933,-3.74653e-05,-1.1104,-1.42576e-05,2.22365,7.27457e-05,0.605898,-7.89014e-05,-0.000365701,-0.0224561,-0.000139541,0.0723931,0.000714906,-0.0499369,-0.000776618,0,0,0,0.00274526,0,-0.0225443,0,0,0,0.0705484,-0.0246,0.585861,0,0,0,0,0,0
0.195143,-3.79102e-05,-1.11043,-1.44274e-05,2.22374,7.36155e-05,0.605837,-7.98462e-05,-0.00036751,-0.0226164,-0.000140242,0.0728396,0.000718568,-0.0502232,-0.000780627,0,0,0,0.00275446,0,-0.0226859,0,0,0,0.0705518,-0.0246,0.585833,0,0,0,0,0,0
0.196228,-3.83107e-05,-1.11045,-1.45803e-05,2.22382,7.43988e-05,0.605782,-8.06972e-05,-0.000369085,-0.0227621,-0.000140854,0.0732395,0.000721771,-0.0504774,-0.000784139,0,0,0,0.00276192,0,-0.022813,0,0,0,0.0705548,-0.0246,0.585808,0,0,0,0,0,0
0.197228,-3.86813e-05,-1.11048,-1.47217e-05,2.22389,7.51236e-05,0.605732,-8.14847e-05,-0.000370542,-0.0228962,-0.00014142,0.073608,0.000724729,-0.0507118,-0.000787382,0,0,0,0.00276886,0,-0.0229302,0,0,0,0.0705575,-0.0246,0.585785,0,0,0,0,0,0
0.198229,-3.90534e-05,-1.1105,-1.48637e-05,2.22397,7.58515e-05,0.605681,-8.22755e-05,-0.000372025,-0.0230291,-0.000141995,0.0739768,0.000727734,-0.0509477,-0.000790673,0,0,0,0.00277627,0,-0.0230473,0,0,0,0.0705603,-0.0246,0.585762,0,0,0,0,0,0
0.199495,-3.9527e-05,-1.11053,-1.50445e-05,2.22406,7.6778e-05,0.605616,-8.32822e-05,-0.000374001,-0.0231932,-0.000142759,0.0744448,0.000731704,-0.0512516,-0.000795014,0,0,0,0.00278729,0,-0.0231953,0,0,0,0.0705638,-0.0246,0.585733,0,0,0,0,0,0
0.200495,-3.99024e-05,-1.11055,-1.51878e-05,2.22414,7.75125e-05,0.605564,-8.40804e-05,-0.000375364,-0.0233312,-0.000143291,0.0748122,0.000734504,-0.051481,-0.000798091,0,0,0,0.00279267,0,-0.0233126,0,0,0,0.0705666,-0.0246,0.58571,0,0,0,0,0,0
0.201495,-4.02792e-05,-1.11057,-1.53317e-05,2.22421,7.82501e-05,0.605512,-8.48818e-05,-0.000376827,-0.023465,-0.000143859,0.0751808,0.000737474,-0.0517157,-0.000801346,0,0,0,0.00279974,0,-0.0234297,0,0,0,0.0705694,-0.0246,0.585686,0,0,0,0,0,0
0.202495,-4.06576e-05,-1.1106,-1.54761e-05,2.22429,7.89906e-05,0.60546,-8.56865e-05,-0.000378285,-0.023599,-0.000144425,0.0755493,0.000740434,-0.0519502,-0.00080459,0,0,0,0.00280671,0,-0.0235468,0,0,0,0.0705722,-0.0246,0.585663,0,0,0,0,0,0
0.203495,-4.10374e-05,-1.11062,-1.56211e-05,2.22436,7.97341e-05,0.605408,-8.64944e-05,-0.000379736,-0.0237333,-0.000144989,0.0759177,0.000743383,-0.0521843,-0.000807823,0,0,0,0.00281357,0,-0.023664,0,0,0,0.070575,-0.0246,0.585639,0,0,0,0,0,0
0.204497,-4.14191e-05,-1.11065,-1.57669e-05,2.22444,8.04815e-05,0.605356,-8.73066e-05,-0.000381183,-0.0238681,-0.000145552,0.0762865,0.000746326,-0.0524184,-0.00081105,0,0,0,0.00282035,0,-0.0237813,0,0,0,0.0705779,-0.0246,0.585615,0,0,0,0,0,0
0.205497,-4.18017e-05,-1.11067,-1.5913e-05,2.22452,8.12308e-05,0.605303,-8.8121e-05,-0.000382622,-0.0240029,-0.000146112,0.0766547,0.000749253,-0.0526518,-0.000814259,0,0,0,0.002827,0,-0.0238984,0,0,0,0.0705807,-0.0246,0.585591,0,0,0,0,0,0
0.206497,-4.21858e-05,-1.11069,-1.60597e-05,2.22459,8.19831e-05,0.60525,-8.89385e-05,-0.000384054,-0.024138,-0.000146669,0.0770229,0.000752169,-0.0528849,-0.000817458,0,0,0,0.00283355,0,-0.0240156,0,0,0,0.0705835,-0.0246,0.585567,0,0,0,0,0,0
0.207497,-4.25714e-05,-1.11072,-1.62069e-05,2.22467,8.27382e-05,0.605197,-8.97592e-05,-0.00038548,-0.0242734,-0.000147224,0.077391,0.000755075,-0.0531176,-0.000820646,0,0,0,0.00283999,0,-0.0241327,0,0,0,0.0705864,-0.0246,0.585543,0,0,0,0,0,0
0.208497,-4.29583e-05,-1.11074,-1.63547e-05,2.22475,8.34963e-05,0.605144,-9.05832e-05,-0.000386901,-0.024409,-0.000147777,0.077759,0.00075797,-0.05335,-0.000823822,0,0,0,0.00284633,0,-0.0242499,0,0,0,0.0705892,-0.0246,0.585519,0,0,0,0,0,0
0.209497,-4.33467e-05,-1.11077,-1.65031e-05,2.22483,8.42573e-05,0.60509,-9.14103e-05,-0.000388314,-0.0245449,-0.000148328,0.078127,0.000760854,-0.053582,-0.000826987,0,0,0,0.00285257,0,-0.0243671,0,0,0,0.0705921,-0.0246,0.585495,0,0,0,0,0,0
0.210497,-4.37365e-05,-1.11079,-1.6652e-05,2.2249,8.50211e-05,0.605036,-9.22405e-05,-0.000389721,-0.0246811,-0.000148876,0.0784948,0.000763727,-0.0538137,-0.00083014,0,0,0,0.00285869,0,-0.0244843,0,0,0,0.0705949,-0.0246,0.58547,0,0,0,0,0,0
0.211497,-4.41276e-05,-1.11082,-1.68014e-05,2.22498,8.57877e-05,0.604982,-9.30739e-05,-0.000391122,-0.0248175,-0.000149422,0.0788626,0.000766589,-0.054045,-0.000833281,0,0,0,0.00286471,0,-0.0246015,0,0,0,0.0705978,-0.0246,0.585445,0,0,0,0,0,0
0.212498,-4.45202e-05,-1.11084,-1.69514e-05,2.22506,8.65573e-05,0.604928,-9.39104e-05,-0.000392517,-0.0249543,-0.000149966,0.0792303,0.000769439,-0.0542759,-0.000836411,0,0,0,0.00287062,0,-0.0247187,0,0,0,0.0706007,-0.0246,0.585421,0,0,0,0,0,0
0.213498,-4.49141e-05,-1.11087,-1.71019e-05,2.22514,8.73296e-05,0.604874,-9.475e-05,-0.000393905,-0.0250913,-0.000150507,0.0795979,0.000772279,-0.0545065,-0.000839528,0,0,0,0.00287643,0,-0.024836,0,0,0,0.0706035,-0.0246,0.585396,0,0,0,0,0,0
0.214498,-4.53095e-05,-1.11089,-1.7253e-05,2.22522,8.81049e-05,0.604819,-9.55928e-05,-0.000395286,-0.0252286,-0.000151047,0.0799654,0.000775107,-0.0547368,-0.000842634,0,0,0,0.00288212,0,-0.0249532,0,0,0,0.0706064,-0.0246,0.585371,0,0,0,0,0,0
0.21561,-4.57508e-05,-1.11092,-1.74216e-05,2.22531,8.89705e-05,0.604758,-9.65338e-05,-0.000396868,-0.0253793,-0.000151662,0.0803746,0.000778328,-0.0549952,-0.000846168,0,0,0,0.0028892,0,-0.0250835,0,0,0,0.0706096,-0.0246,0.585343,0,0,0,0,0,0
0.21661,-4.61491e-05,-1.11095,-1.75738e-05,2.22539,8.97516e-05,0.604702,-9.7383e-05,-0.000398183,-0.0255194,-0.000152178,0.0807413,0.000781042,-0.0552219,-0.000849155,0,0,0,0.00289378,0,-0.0252009,0,0,0,0.0706125,-0.0246,0.585318,0,0,0,0,0,0
0.21761,-4.65486e-05,-1.11097,-1.77266e-05,2.22547,9.05355e-05,0.604647,-9.82354e-05,-0.000399544,-0.0256576,-0.00015271,0.0811086,0.000783835,-0.055451,-0.000852223,0,0,0,0.00289913,0,-0.0253181,0,0,0,0.0706154,-0.0246,0.585293,0,0,0,0,0,0
0.21861,-4.69496e-05,-1.111,-1.78798e-05,2.22556,9.13222e-05,0.604591,-9.90907e-05,-0.000400898,-0.025796,-0.00015324,0.0814757,0.000786615,-0.0556797,-0.00085528,0,0,0,0.00290437,0,-0.0254354,0,0,0,0.0706183,-0.0246,0.585267,0,0,0,0,0,0
0.21961,-4.73519e-05,-1.11102,-1.80336e-05,2.22564,9.21116e-05,0.604535,-9.99491e-05,-0.000402246,-0.0259347,-0.000153767,0.0818428,0.000789385,-0.055908,-0.000858324,0,0,0,0.0029095,0,-0.0255527,0,0,0,0.0706212,-0.0246,0.585242,0,0,0,0,0,0
0.22061,-4.77555e-05,-1.11105,-1.81879e-05,2.22572,9.29039e-05,0.604479,-0.000100811,-0.000403587,-0.0260738,-0.000154292,0.0822098,0.000792142,-0.056136,-0.000861356,0,0,0,0.00291452,0,-0.02567,0,0,0,0.0706242,-0.0246,0.585216,0,0,0,0,0,0
0.221611,-4.81605e-05,-1.11108,-1.83427e-05,2.2258,9.36989e-05,0.604423,-0.000101675,-0.000404922,-0.0262131,-0.000154815,0.0825768,0.000794889,-0.0563637,-0.000864376,0,0,0,0.00291942,0,-0.0257873,0,0,0,0.0706271,-0.0246,0.58519,0,0,0,0,0,0
0.222611,-4.85668e-05,-1.1111,-1.84981e-05,2.22588,9.44966e-05,0.604366,-0.000102543,-0.00040625,-0.0263527,-0.000155335,0.0829436,0.000797623,-0.0565909,-0.000867383,0,0,0,0.00292421,0,-0.0259047,0,0,0,0.07063,-0.0246,0.585164,0,0,0,0,0,0
0.223611,-4.89744e-05,-1.11113,-1.8654e-05,2.22597,9.5297e-05,0.604309,-0.000103413,-0.000407571,-0.0264925,-0.000155853,0.0833103,0.000800345,-0.0568177,-0.000870378,0,0,0,0.00292889,0,-0.026022,0,0,0,0.0706329,-0.0246,0.585138,0,0,0,0,0,0
0.224772,-4.94495e-05,-1.11116,-1.88357e-05,2.22607,9.62301e-05,0.604243,-0.000104428,-0.000409178,-0.0266518,-0.00015648,0.083737,0.000803631,-0.0570851,-0.000873986,0,0,0,0.00293555,0,-0.0261581,0,0,0,0.0706363,-0.0246,0.585108,0,0,0,0,0,0
0.225772,-4.986e-05,-1.11119,-1.89926e-05,2.22615,9.70365e-05,0.604186,-0.000105305,-0.000410402,-0.0267958,-0.000156964,0.0841026,0.000806188,-0.0573067,-0.000876807,0,0,0,0.0029386,0,-0.0262756,0,0,0,0.0706393,-0.0246,0.585081,0,0,0,0,0,0
0.226772,-5.02717e-05,-1.11121,-1.91501e-05,2.22623,9.78454e-05,0.604128,-0.000106185,-0.000411701,-0.0269367,-0.000157474,0.084469,0.000808872,-0.0575323,-0.000879762,0,0,0,0.00294291,0,-0.026393,0,0,0,0.0706422,-0.0246,0.585055,0,0,0,0,0,0
0.227772,-5.06848e-05,-1.11124,-1.93081e-05,2.22632,9.86571e-05,0.60407,-0.000107067,-0.000412994,-0.0270778,-0.000157982,0.0848354,0.000811544,-0.0577576,-0.000882704,0,0,0,0.00294711,0,-0.0265103,0,0,0,0.0706452,-0.0246,0.585029,0,0,0,0,0,0
0.228773,-5.10991e-05,-1.11127,-1.94667e-05,2.2264,9.94714e-05,0.604013,-0.000107953,-0.000414279,-0.0272192,-0.000158487,0.0852017,0.000814205,-0.0579825,-0.000885634,0,0,0,0.00295119,0,-0.0266277,0,0,0,0.0706481,-0.0246,0.585002,0,0,0,0,0,0
0.229773,-5.15148e-05,-1.11129,-1.96257e-05,2.22649,0.000100288,0.603954,-0.000108842,-0.000415558,-0.0273609,-0.00015899,0.0855679,0.000816853,-0.058207,-0.000888551,0,0,0,0.00295516,0,-0.0267451,0,0,0,0.0706511,-0.0246,0.584975,0,0,0,0,0,0
0.230773,-5.19316e-05,-1.11132,-1.97852e-05,2.22658,0.000101108,0.603896,-0.000109734,-0.00041683,-0.0275029,-0.000159491,0.085934,0.000819489,-0.058431,-0.000891455,0,0,0,0.002959,0,-0.0268626,0,0,0,0.070654,-0.0246,0.584948,0,0,0,0,0,0
0.23181,-5.23652e-05,-1.11135,-1.99511e-05,2.22666,0.000101961,0.603835,-0.000110661,-0.000418161,-0.0276496,-0.000160014,0.0863137,0.000822243,-0.058664,-0.000894488,0,0,0,0.0029632,0,-0.0269843,0,0,0,0.0706571,-0.0246,0.58492,0,0,0,0,0,0
0.232821,-5.27895e-05,-1.11138,-2.01135e-05,2.22675,0.000102795,0.603775,-0.000111569,-0.000419419,-0.0277945,-0.00016051,0.0866837,0.00082486,-0.0588891,-0.000897374,0,0,0,0.00296662,0,-0.0271031,0,0,0,0.0706601,-0.0246,0.584893,0,0,0,0,0,0
0.233821,-5.32103e-05,-1.11141,-2.02745e-05,2.22684,0.000103623,0.603716,-0.000112469,-0.000420663,-0.0279377,-0.000161001,0.0870494,0.000827447,-0.0591117,-0.000900227,0,0,0,0.00297,0,-0.0272205,0,0,0,0.0706631,-0.0246,0.584866,0,0,0,0,0,0
0.234822,-5.36322e-05,-1.11143,-2.0436e-05,2.22693,0.000104453,0.603657,-0.000113372,-0.000421906,-0.0280809,-0.000161491,0.0874151,0.000830033,-0.0593341,-0.000903078,0,0,0,0.00297336,0,-0.027338,0,0,0,0.070666,-0.0246,0.584838,0,0,0,0,0,0
0.235822,-5.40554e-05,-1.11146,-2.0598e-05,2.22701,0.000105285,0.603597,-0.000114278,-0.000423141,-0.0282245,-0.000161979,0.0877807,0.000832606,-0.0595562,-0.000905915,0,0,0,0.00297661,0,-0.0274554,0,0,0,0.070669,-0.0246,0.584811,0,0,0,0,0,0
0.236822,-5.44798e-05,-1.11149,-2.07605e-05,2.2271,0.000106121,0.603538,-0.000115187,-0.00042437,-0.0283683,-0.000162464,0.0881462,0.000835166,-0.0597779,-0.00090874,0,0,0,0.00297973,0,-0.0275729,0,0,0,0.070672,-0.0246,0.584783,0,0,0,0,0,0
0.237822,-5.49055e-05,-1.11152,-2.09235e-05,2.22719,0.000106959,0.603478,-0.000116099,-0.000425592,-0.0285125,-0.000162947,0.0885117,0.000837714,-0.0599991,-0.000911551,0,0,0,0.00298274,0,-0.0276904,0,0,0,0.070675,-0.0246,0.584756,0,0,0,0,0,0
0.238822,-5.53324e-05,-1.11155,-2.10869e-05,2.22728,0.000107799,0.603417,-0.000117014,-0.000426806,-0.028657,-0.000163427,0.0888771,0.000840249,-0.06022,-0.000914349,0,0,0,0.00298562,0,-0.0278079,0,0,0,0.070678,-0.0246,0.584728,0,0,0,0,0,0
0.239822,-5.57605e-05,-1.11158,-2.12509e-05,2.22737,0.000108642,0.603357,-0.000117931,-0.000428013,-0.0288018,-0.000163905,0.0892423,0.000842771,-0.0604404,-0.000917133,0,0,0,0.00298838,0,-0.0279254,0,0,0,0.070681,-0.0246,0.5847,0,0,0,0,0,0
0.240822,-5.61897e-05,-1.11161,-2.14153e-05,2.22746,0.000109487,0.603296,-0.000118851,-0.000429213,-0.0289469,-0.00016438,0.0896074,0.00084528,-0.0606604,-0.000919904,0,0,0,0.00299101,0,-0.0280429,0,0,0,0.0706839,-0.0246,0.584672,0,0,0,0,0,0
0.241823,-5.66202e-05,-1.11164,-2.15801e-05,2.22755,0.000110335,0.603235,-0.000119774,-0.000430405,-0.0290923,-0.000164852,0.0899724,0.000847776,-0.06088,-0.000922661,0,0,0,0.00299353,0,-0.0281604,0,0,0,0.0706869,-0.0246,0.584644,0,0,0,0,0,0
0.242823,-5.70518e-05,-1.11166,-2.17455e-05,2.22764,0.000111186,0.603174,-0.000120699,-0.00043159,-0.0292381,-0.000165322,0.0903374,0.000850259,-0.0610992,-0.000925404,0,0,0,0.00299592,0,-0.0282779,0,0,0,0.0706899,-0.0246,0.584615,0,0,0,0,0,0
0.243823,-5.74847e-05,-1.11169,-2.19113e-05,2.22773,0.000112038,0.603113,-0.000121627,-0.000432768,-0.0293841,-0.00016579,0.0907022,0.000852729,-0.061318,-0.000928133,0,0,0,0.00299818,0,-0.0283954,0,0,0,0.0706929,-0.0246,0.584587,0,0,0,0,0,0
0.244823,-5.79187e-05,-1.11172,-2.20776e-05,2.22782,0.000112894,0.603051,-0.000122558,-0.000433938,-0.0295305,-0.000166254,0.0910669,0.000855187,-0.0615363,-0.000930849,0,0,0,0.00300033,0,-0.028513,0,0,0,0.0706959,-0.0246,0.584558,0,0,0,0,0,0
0.245823,-5.83538e-05,-1.11175,-2.22443e-05,2.22791,0.000113751,0.60299,-0.000123492,-0.000435101,-0.0296772,-0.000166716,0.0914315,0.00085763,-0.0617542,-0.000933551,0,0,0,0.00300234,0,-0.0286305,0,0,0,0.0706989,-0.0246,0.58453,0,0,0,0,0,0
0.246823,-5.87902e-05,-1.11178,-2.24115e-05,2.228,0.000114612,0.602928,-0.000124428,-0.000436256,-0.0298243,-0.000167176,0.0917961,0.000860061,-0.0619717,-0.000936239,0,0,0,0.00300423,0,-0.0287481,0,0,0,0.0707019,-0.0246,0.584501,0,0,0,0,0,0
0.247824,-5.92276e-05,-1.11181,-2.25792e-05,2.2281,0.000115474,0.602865,-0.000125367,-0.000437404,-0.0299716,-0.000167633,0.0921605,0.000862478,-0.0621888,-0.000938913,0,0,0,0.003006,0,-0.0288657,0,0,0,0.0707049,-0.0246,0.584472,0,0,0,0,0,0
0.248912,-5.97051e-05,-1.11185,-2.27622e-05,2.2282,0.000116416,0.602798,-0.000126393,-0.000438699,-0.03013,-0.000168146,0.0925576,0.000865189,-0.0624276,-0.000941906,0,0,0,0.0030087,0,-0.0289936,0,0,0,0.0707082,-0.0246,0.584441,0,0,0,0,0,0
0.249912,-6.01449e-05,-1.11188,-2.29308e-05,2.22829,0.000117284,0.602735,-0.000127337,-0.000439776,-0.0302804,-0.000168578,0.0929211,0.000867482,-0.0626407,-0.000944451,0,0,0,0.00300927,0,-0.0291112,0,0,0,0.0707112,-0.0246,0.584412,0,0,0,0,0,0
0.250912,-6.05859e-05,-1.11191,-2.30998e-05,2.22838,0.000118154,0.602672,-0.000128284,-0.000440901,-0.0304288,-0.000169026,0.0932853,0.000869858,-0.0628564,-0.000947081,0,0,0,0.00301064,0,-0.0292288,0,0,0,0.0707142,-0.0246,0.584382,0,0,0,0,0,0
0.251912,-6.1028e-05,-1.11194,-2.32693e-05,2.22848,0.000119026,0.602609,-0.000129234,-0.000442017,-0.0305775,-0.000169472,0.0936493,0.00087222,-0.0630717,-0.000949697,0,0,0,0.00301188,0,-0.0293465,0,0,0,0.0707173,-0.0246,0.584353,0,0,0,0,0,0
0.252912,-6.14712e-05,-1.11197,-2.34393e-05,2.22857,0.000119901,0.602546,-0.000130187,-0.000443126,-0.0307265,-0.000169915,0.0940131,0.000874569,-0.0632866,-0.000952298,0,0,0,0.00301299,0,-0.0294641,0,0,0,0.0707203,-0.0246,0.584323,0,0,0,0,0,0
0.253913,-6.19155e-05,-1.112,-2.36096e-05,2.22867,0.000120778,0.602482,-0.000131142,-0.000444228,-0.0308759,-0.000170356,0.0943769,0.000876903,-0.063501,-0.000954885,0,0,0,0.00301398,0,-0.0295817,0,0,0,0.0707233,-0.0246,0.584294,0,0,0,0,0,0
0.254913,-6.23609e-05,-1.11203,-2.37805e-05,2.22876,0.000121657,0.602418,-0.000132099,-0.000445321,-0.0310256,-0.000170794,0.0947406,0.000879225,-0.0637149,-0.000957458,0,0,0,0.00301483,0,-0.0296994,0,0,0,0.0707263,-0.0246,0.584264,0,0,0,0,0,0
0.255913,-6.28074e-05,-1.11206,-2.39517e-05,2.22886,0.000122539,0.602354,-0.00013306,-0.000446407,-0.0311756,-0.000171229,0.0951041,0.000881532,-0.0639285,-0.000960016,0,0,0,0.00301555,0,-0.029817,0,0,0,0.0707293,-0.0246,0.584234,0,0,0,0,0,0
0.256913,-6.32549e-05,-1.11209,-2.41234e-05,2.22895,0.000123423,0.60229,-0.000134022,-0.000447485,-0.031326,-0.000171661,0.0954676,0.000883825,-0.0641416,-0.000962559,0,0,0,0.00301615,0,-0.0299347,0,0,0,0.0707323,-0.0246,0.584204,0,0,0,0,0,0
0.257913,-6.37035e-05,-1.11212,-2.42955e-05,2.22905,0.000124309,0.602226,-0.000134988,-0.000448555,-0.0314767,-0.000172091,0.0958309,0.000886104,-0.0643542,-0.000965087,0,0,0,0.00301661,0,-0.0300523,0,0,0,0.0707353,-0.0246,0.584174,0,0,0,0,0,0
0.258913,-6.41532e-05,-1.11216,-2.44681e-05,2.22914,0.000125197,0.602161,-0.000135955,-0.000449618,-0.0316277,-0.000172517,0.0961941,0.00088837,-0.0645663,-0.000967601,0,0,0,0.00301693,0,-0.03017,0,0,0,0.0707384,-0.0246,0.584144,0,0,0,0,0,0
0.259914,-6.46039e-05,-1.11219,-2.4641e-05,2.22924,0.000126088,0.602097,-0.000136925,-0.000450672,-0.0317791,-0.000172941,0.0965572,0.000890621,-0.064778,-0.0009701,0,0,0,0.00301713,0,-0.0302877,0,0,0,0.0707414,-0.0246,0.584114,0,0,0,0,0,0
0.260914,-6.50557e-05,-1.11222,-2.48144e-05,2.22934,0.000126981,0.602032,-0.000137898,-0.000451719,-0.0319308,-0.000173363,0.0969202,0.000892858,-0.0649893,-0.000972584,0,0,0,0.00301719,0,-0.0304054,0,0,0,0.0707444,-0.0246,0.584083,0,0,0,0,0,0
0.261914,-6.55085e-05,-1.11225,-2.49882e-05,2.22943,0.000127876,0.601966,-0.000138873,-0.000452757,-0.0320829,-0.000173781,0.0972831,0.00089508,-0.0652001,-0.000975053,0,0,0,0.00301712,0,-0.0305231,0,0,0,0.0707474,-0.0246,0.584053,0,0,0,0,0,0
0.262914,-6.59623e-05,-1.11228,-2.51624e-05,2.22953,0.000128774,0.601901,-0.000139851,-0.000453788,-0.0322353,-0.000174197,0.0976458,0.000897289,-0.0654104,-0.000977506,0,0,0,0.00301691,0,-0.0306408,0,0,0,0.0707504,-0.0246,0.584022,0,0,0,0,0,0
0.263914,-6.64172e-05,-1.11232,-2.53371e-05,2.22963,0.000129673,0.601835,-0.000140831,-0.00045481,-0.0323881,-0.00017461,0.0980085,0.000899483,-0.0656203,-0.000979945,0,0,0,0.00301657,0,-0.0307585,0,0,0,0.0707534,-0.0246,0.583992,0,0,0,0,0,0
0.264914,-6.68731e-05,-1.11235,-2.55121e-05,2.22973,0.000130575,0.601769,-0.000141813,-0.000455825,-0.0325412,-0.00017502,0.098371,0.000901663,-0.0658297,-0.000982369,0,0,0,0.0030161,0,-0.0308762,0,0,0,0.0707565,-0.0246,0.583961,0,0,0,0,0,0
0.265914,-6.733e-05,-1.11238,-2.56876e-05,2.22983,0.000131479,0.601703,-0.000142798,-0.000456832,-0.0326947,-0.000175427,0.0987334,0.000903828,-0.0660387,-0.000984777,0,0,0,0.00301549,0,-0.030994,0,0,0,0.0707595,-0.0246,0.58393,0,0,0,0,0,0
0.266914,-6.77879e-05,-1.11241,-2.58634e-05,2.22993,0.000132385,0.601637,-0.000143786,-0.00045783,-0.0328485,-0.000175831,0.0990958,0.000905979,-0.0662472,-0.00098717,0,0,0,0.00301474,0,-0.0311117,0,0,0,0.0707625,-0.0246,0.583899,0,0,0,0,0,0
0.267914,-6.82468e-05,-1.11245,-2.60397e-05,2.23003,0.000133293,0.601571,-0.000144775,-0.00045882,-0.0330027,-0.000176233,0.0994579,0.000908115,-0.0664551,-0.000989548,0,0,0,0.00301386,0,-0.0312295,0,0,0,0.0707655,-0.0246,0.583867,0,0,0,0,0,0
0.268915,-6.87066e-05,-1.11248,-2.62163e-05,2.23013,0.000134204,0.601504,-0.000145767,-0.000459802,-0.0331572,-0.000176631,0.09982,0.000910237,-0.0666627,-0.00099191,0,0,0,0.00301284,0,-0.0313472,0,0,0,0.0707685,-0.0246,0.583836,0,0,0,0,0,0
0.269915,-6.91674e-05,-1.11251,-2.63934e-05,2.23023,0.000135116,0.601437,-0.000146762,-0.000460776,-0.0333121,-0.000177027,0.100182,0.000912343,-0.0668697,-0.000994256,0,0,0,0.00301168,0,-0.031465,0,0,0,0.0707715,-0.0246,0.583805,0,0,0,0,0,0
0.270915,-6.96292e-05,-1.11255,-2.65708e-05,2.23033,0.000136031,0.60137,-0.000147758,-0.000461742,-0.0334673,-0.00017742,0.100544,0.000914435,-0.0670763,-0.000996587,0,0,0,0.00301038,0,-0.0315828,0,0,0,0.0707745,-0.0246,0.583773,0,0,0,0,0,0
0.271915,-7.0092e-05,-1.11258,-2.67486e-05,2.23043,0.000136947,0.601303,-0.000148757,-0.000462699,-0.0336229,-0.00017781,0.100905,0.000916513,-0.0672824,-0.000998903,0,0,0,0.00300894,0,-0.0317006,0,0,0,0.0707776,-0.0246,0.583741,0,0,0,0,0,0
0.272915,-7.05556e-05,-1.11261,-2.69268e-05,2.23053,0.000137866,0.601235,-0.000149759,-0.000463648,-0.0337789,-0.000178197,0.101267,0.000918575,-0.067488,-0.0010012,0,0,0,0.00300737,0,-0.0318184,0,0,0,0.0707806,-0.0246,0.583709,0,0,0,0,0,0
0.273915,-7.10203e-05,-1.11265,-2.71054e-05,2.23063,0.000138787,0.601168,-0.000150762,-0.000464589,-0.0339352,-0.000178581,0.101628,0.000920622,-0.0676931,-0.00100349,0,0,0,0.00300565,0,-0.0319362,0,0,0,0.0707836,-0.0246,0.583677,0,0,0,0,0,0
0.274915,-7.14859e-05,-1.11268,-2.72844e-05,2.23073,0.000139709,0.6011,-0.000151768,-0.000465522,-0.0340919,-0.000178962,0.10199,0.000922654,-0.0678978,-0.00100575,0,0,0,0.0030038,0,-0.032054,0,0,0,0.0707866,-0.0246,0.583645,0,0,0,0,0,0
0.275915,-7.19524e-05,-1.11272,-2.74638e-05,2.23083,0.000140634,0.601032,-0.000152776,-0.000466446,-0.0342489,-0.000179341,0.102351,0.000924671,-0.068102,-0.00100801,0,0,0,0.0030018,0,-0.0321718,0,0,0,0.0707896,-0.0246,0.583613,0,0,0,0,0,0
0.276916,-7.24198e-05,-1.11275,-2.76435e-05,2.23094,0.000141561,0.600963,-0.000153787,-0.000467362,-0.0344063,-0.000179716,0.102712,0.000926673,-0.0683056,-0.00101024,0,0,0,0.00299966,0,-0.0322896,0,0,0,0.0707926,-0.0246,0.583581,0,0,0,0,0,0
0.277916,-7.28882e-05,-1.11279,-2.78237e-05,2.23104,0.00014249,0.600895,-0.000154799,-0.000468269,-0.0345641,-0.000180088,0.103073,0.00092866,-0.0685088,-0.00101246,0,0,0,0.00299738,0,-0.0324075,0,0,0,0.0707956,-0.0246,0.583549,0,0,0,0,0,0
0.278916,-7.33574e-05,-1.11282,-2.80041e-05,2.23114,0.00014342,0.600826,-0.000155814,-0.000469168,-0.0347223,-0.000180458,0.103434,0.000930631,-0.0687115,-0.00101466,0,0,0,0.00299495,0,-0.0325253,0,0,0,0.0707986,-0.0246,0.583516,0,0,0,0,0,0
0.279916,-7.38275e-05,-1.11286,-2.8185e-05,2.23125,0.000144353,0.600757,-0.000156831,-0.000470058,-0.0348808,-0.000180824,0.103795,0.000932588,-0.0689137,-0.00101685,0,0,0,0.00299239,0,-0.0326432,0,0,0,0.0708016,-0.0246,0.583483,0,0,0,0,0,0
0.280916,-7.42986e-05,-1.11289,-2.83662e-05,2.23135,0.000145288,0.600688,-0.00015785,-0.00047094,-0.0350397,-0.000181188,0.104155,0.000934528,-0.0691154,-0.00101902,0,0,0,0.00298968,0,-0.032761,0,0,0,0.0708045,-0.0246,0.583451,0,0,0,0,0,0
0.281916,-7.47704e-05,-1.11293,-2.85478e-05,2.23146,0.000146225,0.600619,-0.000158872,-0.000471813,-0.035199,-0.000181548,0.104516,0.000936453,-0.0693166,-0.00102118,0,0,0,0.00298683,0,-0.0328789,0,0,0,0.0708075,-0.0246,0.583418,0,0,0,0,0,0
0.282917,-7.52432e-05,-1.11296,-2.87297e-05,2.23156,0.000147163,0.600549,-0.000159895,-0.000472678,-0.0353586,-0.000181906,0.104876,0.000938363,-0.0695173,-0.00102332,0,0,0,0.00298383,0,-0.0329968,0,0,0,0.0708105,-0.0246,0.583385,0,0,0,0,0,0
0.283917,-7.57168e-05,-1.113,-2.8912e-05,2.23167,0.000148104,0.600479,-0.000160921,-0.000473533,-0.0355186,-0.00018226,0.105236,0.000940257,-0.0697174,-0.00102544,0,0,0,0.00298068,0,-0.0331147,0,0,0,0.0708135,-0.0246,0.583352,0,0,0,0,0,0
0.284917,-7.61913e-05,-1.11303,-2.90947e-05,2.23177,0.000149046,0.600409,-0.000161949,-0.000474381,-0.035679,-0.000182612,0.105596,0.000942135,-0.0699171,-0.00102754,0,0,0,0.00297739,0,-0.0332325,0,0,0,0.0708165,-0.0246,0.583318,0,0,0,0,0,0
0.285917,-7.66666e-05,-1.11307,-2.92777e-05,2.23188,0.00014999,0.600339,-0.000162978,-0.000475219,-0.0358398,-0.00018296,0.105956,0.000943997,-0.0701163,-0.00102963,0,0,0,0.00297396,0,-0.0333505,0,0,0,0.0708194,-0.0246,0.583285,0,0,0,0,0,0
0.286917,-7.71427e-05,-1.1131,-2.9461e-05,2.23198,0.000150936,0.600269,-0.00016401,-0.000476049,-0.0360009,-0.000183306,0.106316,0.000945844,-0.0703149,-0.0010317,0,0,0,0.00297038,0,-0.0334684,0,0,0,0.0708224,-0.0246,0.583251,0,0,0,0,0,0
0.287917,-7.76196e-05,-1.11314,-2.96447e-05,2.23209,0.000151884,0.600198,-0.000165044,-0.00047687,-0.0361625,-0.000183648,0.106676,0.000947674,-0.070513,-0.00103376,0,0,0,0.00296665,0,-0.0335863,0,0,0,0.0708254,-0.0246,0.583218,0,0,0,0,0,0
0.288917,-7.80974e-05,-1.11318,-2.98287e-05,2.2322,0.000152833,0.600128,-0.00016608,-0.000477683,-0.0363244,-0.000183987,0.107035,0.000949489,-0.0707106,-0.0010358,0,0,0,0.00296277,0,-0.0337042,0,0,0,0.0708283,-0.0246,0.583184,0,0,0,0,0,0
0.289918,-7.85759e-05,-1.11321,-3.0013e-05,2.23231,0.000153785,0.600057,-0.000167118,-0.000478486,-0.0364867,-0.000184323,0.107394,0.000951288,-0.0709077,-0.00103782,0,0,0,0.00295875,0,-0.0338221,0,0,0,0.0708313,-0.0246,0.58315,0,0,0,0,0,0
0.290918,-7.90553e-05,-1.11325,-3.01977e-05,2.23241,0.000154738,0.599986,-0.000168158,-0.000479281,-0.0366494,-0.000184656,0.107754,0.00095307,-0.0711043,-0.00103982,0,0,0,0.00295457,0,-0.03394,0,0,0,0.0708343,-0.0246,0.583116,0,0,0,0,0,0
0.291918,-7.95354e-05,-1.11329,-3.03827e-05,2.23252,0.000155693,0.599914,-0.0001692,-0.000480067,-0.0368124,-0.000184986,0.108113,0.000954836,-0.0713003,-0.00104181,0,0,0,0.00295025,0,-0.034058,0,0,0,0.0708372,-0.0246,0.583082,0,0,0,0,0,0
0.292918,-8.00163e-05,-1.11332,-3.0568e-05,2.23263,0.00015665,0.599843,-0.000170244,-0.000480843,-0.0369759,-0.000185313,0.108472,0.000956586,-0.0714958,-0.00104378,0,0,0,0.00294578,0,-0.0341759,0,0,0,0.0708402,-0.0246,0.583048,0,0,0,0,0,0
0.293918,-8.04979e-05,-1.11336,-3.07537e-05,2.23274,0.000157608,0.599771,-0.00017129,-0.000481611,-0.0371397,-0.000185637,0.108831,0.00095832,-0.0716908,-0.00104573,0,0,0,0.00294115,0,-0.0342939,0,0,0,0.0708431,-0.0246,0.583014,0,0,0,0,0,0
0.294918,-8.09804e-05,-1.1134,-3.09397e-05,2.23285,0.000158568,0.599699,-0.000172337,-0.00048237,-0.037304,-0.000185957,0.109189,0.000960038,-0.0718853,-0.00104767,0,0,0,0.00293638,0,-0.0344118,0,0,0,0.070846,-0.0246,0.582979,0,0,0,0,0,0
0.295918,-8.14636e-05,-1.11344,-3.1126e-05,2.23296,0.00015953,0.599627,-0.000173387,-0.00048312,-0.0374686,-0.000186275,0.109548,0.000961739,-0.0720792,-0.00104958,0,0,0,0.00293145,0,-0.0345298,0,0,0,0.070849,-0.0246,0.582945,0,0,0,0,0,0
0.296918,-8.19475e-05,-1.11347,-3.13126e-05,2.23307,0.000160494,0.599555,-0.000174439,-0.000483861,-0.0376336,-0.000186589,0.109906,0.000963423,-0.0722726,-0.00105148,0,0,0,0.00292638,0,-0.0346478,0,0,0,0.0708519,-0.0246,0.58291,0,0,0,0,0,0
0.297919,-8.24322e-05,-1.11351,-3.14995e-05,2.23318,0.000161459,0.599482,-0.000175492,-0.000484593,-0.037799,-0.0001869,0.110265,0.000965091,-0.0724654,-0.00105337,0,0,0,0.00292115,0,-0.0347657,0,0,0,0.0708548,-0.0246,0.582876,0,0,0,0,0,0
0.298919,-8.29176e-05,-1.11355,-3.16868e-05,2.23329,0.000162426,0.59941,-0.000176548,-0.000485316,-0.0379649,-0.000187208,0.110623,0.000966742,-0.0726577,-0.00105523,0,0,0,0.00291576,0,-0.0348837,0,0,0,0.0708577,-0.0246,0.582841,0,0,0,0,0,0
0.299919,-8.34037e-05,-1.11359,-3.18743e-05,2.2334,0.000163394,0.599337,-0.000177605,-0.00048603,-0.0381311,-0.000187513,0.110981,0.000968376,-0.0728495,-0.00105708,0,0,0,0.00291023,0,-0.0350017,0,0,0,0.0708606,-0.0246,0.582806,0,0,0,0,0,0
0.300919,-8.38905e-05,-1.11363,-3.20622e-05,2.23351,0.000164364,0.599264,-0.000178664,-0.000486734,-0.0382977,-0.000187814,0.111339,0.000969994,-0.0730407,-0.00105891,0,0,0,0.00290454,0,-0.0351197,0,0,0,0.0708635,-0.0246,0.58277,0,0,0,0,0,0
0.301919,-8.4378e-05,-1.11366,-3.22503e-05,2.23362,0.000165336,0.599191,-0.000179725,-0.000487429,-0.0384647,-0.000188112,0.111696,0.000971595,-0.0732314,-0.00106072,0,0,0,0.00289869,0,-0.0352377,0,0,0,0.0708664,-0.0246,0.582735,0,0,0,0,0,0
0.302919,-8.48661e-05,-1.1137,-3.24387e-05,2.23373,0.000166309,0.599117,-0.000180788,-0.000488116,-0.0386322,-0.000188408,0.112054,0.000973179,-0.0734215,-0.00106251,0,0,0,0.00289269,0,-0.0353557,0,0,0,0.0708693,-0.0246,0.5827,0,0,0,0,0,0
0.303919,-8.5355e-05,-1.11374,-3.26274e-05,2.23385,0.000167284,0.599044,-0.000181852,-0.000488792,-0.0388,-0.000188699,0.112411,0.000974746,-0.0736111,-0.00106429,0,0,0,0.00288654,0,-0.0354737,0,0,0,0.0708722,-0.0246,0.582664,0,0,0,0,0,0
0.30492,-8.58445e-05,-1.11378,-3.28164e-05,2.23396,0.000168261,0.59897,-0.000182918,-0.00048946,-0.0389682,-0.000188988,0.112768,0.000976296,-0.0738001,-0.00106605,0,0,0,0.00288023,0,-0.0355918,0,0,0,0.0708751,-0.0246,0.582629,0,0,0,0,0,0
0.30592,-8.63347e-05,-1.11382,-3.30057e-05,2.23407,0.000169239,0.598896,-0.000183986,-0.000490118,-0.0391368,-0.000189273,0.113125,0.000977828,-0.0739885,-0.00106779,0,0,0,0.00287376,0,-0.0357098,0,0,0,0.070878,-0.0246,0.582593,0,0,0,0,0,0
0.30692,-8.68255e-05,-1.11386,-3.31953e-05,2.23419,0.000170218,0.598822,-0.000185056,-0.000490767,-0.0393059,-0.000189556,0.113482,0.000979344,-0.0741764,-0.00106951,0,0,0,0.00286714,0,-0.0358278,0,0,0,0.0708808,-0.0246,0.582557,0,0,0,0,0,0
0.30792,-8.73169e-05,-1.1139,-3.33852e-05,2.2343,0.000171199,0.598747,-0.000186127,-0.000491407,-0.0394753,-0.000189834,0.113839,0.000980842,-0.0743637,-0.00107121,0,0,0,0.00286035,0,-0.0359458,0,0,0,0.0708837,-0.0246,0.582521,0,0,0,0,0,0
0.30892,-8.7809e-05,-1.11394,-3.35753e-05,2.23441,0.000172181,0.598673,-0.0001872,-0.000492037,-0.0396452,-0.00019011,0.114196,0.000982323,-0.0745505,-0.0010729,0,0,0,0.00285341,0,-0.0360639,0,0,0,0.0708866,-0.0246,0.582485,0,0,0,0,0,0
0.30992,-8.83017e-05,-1.11398,-3.37657e-05,2.23453,0.000173165,0.598598,-0.000188275,-0.000492657,-0.0398155,-0.000190382,0.114552,0.000983786,-0.0747367,-0.00107456,0,0,0,0.00284631,0,-0.0361819,0,0,0,0.0708894,-0.0246,0.582449,0,0,0,0,0,0
0.31092,-8.8795e-05,-1.11402,-3.39564e-05,2.23464,0.000174151,0.598523,-0.000189351,-0.000493269,-0.0399862,-0.000190651,0.114909,0.000985232,-0.0749223,-0.00107621,0,0,0,0.00283906,0,-0.0363,0,0,0,0.0708922,-0.0246,0.582413,0,0,0,0,0,0
0.31192,-8.9289e-05,-1.11406,-3.41473e-05,2.23476,0.000175137,0.598448,-0.000190429,-0.00049387,-0.0401573,-0.000190917,0.115265,0.000986661,-0.0751074,-0.00107784,0,0,0,0.00283164,0,-0.036418,0,0,0,0.0708951,-0.0246,0.582376,0,0,0,0,0,0
0.31292,-8.97835e-05,-1.1141,-3.43385e-05,2.23487,0.000176126,0.598373,-0.000191508,-0.000494462,-0.0403288,-0.000191179,0.115621,0.000988072,-0.0752919,-0.00107945,0,0,0,0.00282406,0,-0.0365361,0,0,0,0.0708979,-0.0246,0.58234,0,0,0,0,0,0
0.31392,-9.02786e-05,-1.11414,-3.45299e-05,2.23499,0.000177115,0.598297,-0.00019259,-0.000495045,-0.0405008,-0.000191438,0.115977,0.000989465,-0.0754758,-0.00108104,0,0,0,0.00281632,0,-0.0366541,0,0,0,0.0709007,-0.0246,0.582303,0,0,0,0,0,0
0.314921,-9.07743e-05,-1.11418,-3.47217e-05,2.23511,0.000178106,0.598221,-0.000193672,-0.000495618,-0.0406731,-0.000191694,0.116332,0.00099084,-0.0756591,-0.00108261,0,0,0,0.00280842,0,-0.0367722,0,0,0,0.0709035,-0.0246,0.582266,0,0,0,0,0,0
0.315931,-9.12757e-05,-1.11422,-3.49156e-05,2.23522,0.000179109,0.598145,-0.000194768,-0.000496198,-0.0408473,-0.000191953,0.116692,0.00099223,-0.0758444,-0.0010842,0,0,0,0.00280045,0,-0.0368915,0,0,0,0.0709063,-0.0246,0.582229,0,0,0,0,0,0
0.316931,-9.17725e-05,-1.11426,-3.51079e-05,2.23534,0.000180102,0.598069,-0.000195854,-0.000496741,-0.0410209,-0.000192198,0.117047,0.000993551,-0.076026,-0.00108572,0,0,0,0.00279205,0,-0.0370096,0,0,0,0.0709091,-0.0246,0.582192,0,0,0,0,0,0
0.317931,-9.22698e-05,-1.1143,-3.53003e-05,2.23546,0.000181097,0.597993,-0.000196941,-0.000497285,-0.0411946,-0.000192443,0.117402,0.000994873,-0.0762075,-0.00108723,0,0,0,0.00278366,0,-0.0371277,0,0,0,0.0709119,-0.0246,0.582155,0,0,0,0,0,0
0.318932,-9.27677e-05,-1.11434,-3.54931e-05,2.23558,0.000182094,0.597916,-0.00019803,-0.000497819,-0.0413687,-0.000192686,0.117757,0.000996177,-0.0763885,-0.00108873,0,0,0,0.00277511,0,-0.0372458,0,0,0,0.0709147,-0.0246,0.582118,0,0,0,0,0,0
0.319932,-9.32661e-05,-1.11439,-3.5686e-05,2.2357,0.000183091,0.59784,-0.00019912,-0.000498344,-0.0415432,-0.000192924,0.118112,0.000997462,-0.0765689,-0.00109021,0,0,0,0.00276639,0,-0.0373639,0,0,0,0.0709175,-0.0246,0.58208,0,0,0,0,0,0
0.320932,-9.3765e-05,-1.11443,-3.58792e-05,2.23581,0.00018409,0.597763,-0.000200212,-0.000498859,-0.0417181,-0.00019316,0.118467,0.000998729,-0.0767487,-0.00109167,0,0,0,0.00275751,0,-0.0374819,0,0,0,0.0709202,-0.0246,0.582043,0,0,0,0,0,0
0.321932,-9.42644e-05,-1.11447,-3.60726e-05,2.23593,0.00018509,0.597686,-0.000201305,-0.000499363,-0.0418934,-0.000193391,0.118822,0.000999978,-0.076928,-0.0010931,0,0,0,0.00274847,0,-0.0376,0,0,0,0.070923,-0.0246,0.582005,0,0,0,0,0,0
0.322932,-9.47644e-05,-1.11451,-3.62662e-05,2.23605,0.000186092,0.597609,-0.0002024,-0.000499859,-0.0420692,-0.00019362,0.119176,0.00100121,-0.0771066,-0.00109452,0,0,0,0.00273926,0,-0.0377182,0,0,0,0.0709257,-0.0246,0.581967,0,0,0,0,0,0
0.323932,-9.52648e-05,-1.11455,-3.64601e-05,2.23617,0.000187094,0.597531,-0.000203496,-0.000500344,-0.0422455,-0.000193845,0.11953,0.00100242,-0.0772846,-0.00109592,0,0,0,0.00272988,0,-0.0378363,0,0,0,0.0709284,-0.0246,0.58193,0,0,0,0,0,0
0.324932,-9.57657e-05,-1.1146,-3.66542e-05,2.23629,0.000188098,0.597454,-0.000204594,-0.000500819,-0.0424221,-0.000194067,0.119884,0.00100361,-0.077462,-0.0010973,0,0,0,0.00272034,0,-0.0379544,0,0,0,0.0709312,-0.0246,0.581892,0,0,0,0,0,0
0.325932,-9.62671e-05,-1.11464,-3.68485e-05,2.23641,0.000189103,0.597376,-0.000205692,-0.000501285,-0.0425992,-0.000194285,0.120238,0.00100479,-0.0776389,-0.00109867,0,0,0,0.00271063,0,-0.0380725,0,0,0,0.0709339,-0.0246,0.581854,0,0,0,0,0,0
0.326933,-9.67688e-05,-1.11468,-3.7043e-05,2.23653,0.000190109,0.597299,-0.000206793,-0.00050174,-0.0427768,-0.000194499,0.120592,0.00100595,-0.077815,-0.00110001,0,0,0,0.00270075,0,-0.0381906,0,0,0,0.0709366,-0.0246,0.581815,0,0,0,0,0,0
0.327933,-9.72711e-05,-1.11472,-3.72378e-05,2.23665,0.000191116,0.597221,-0.000207894,-0.000502185,-0.0429547,-0.000194711,0.120946,0.00100708,-0.0779906,-0.00110133,0,0,0,0.0026907,0,-0.0383087,0,0,0,0.0709393,-0.0246,0.581777,0,0,0,0,0,0
0.328933,-9.77738e-05,-1.11477,-3.74327e-05,2.23677,0.000192125,0.597142,-0.000208997,-0.000502621,-0.0431332,-0.000194918,0.121299,0.0010082,-0.0781656,-0.00110263,0,0,0,0.00268049,0,-0.0384268,0,0,0,0.0709419,-0.0246,0.581739,0,0,0,0,0,0
0.329933,-9.82769e-05,-1.11481,-3.76279e-05,2.2369,0.000193134,0.597064,-0.000210101,-0.000503046,-0.043312,-0.000195122,0.121652,0.0010093,-0.07834,-0.00110391,0,0,0,0.00267011,0,-0.038545,0,0,0,0.0709446,-0.0246,0.5817,0,0,0,0,0,0
0.330933,-9.87805e-05,-1.11485,-3.78232e-05,2.23702,0.000194145,0.596985,-0.000211206,-0.000503461,-0.0434913,-0.000195323,0.122005,0.00101039,-0.0785138,-0.00110517,0,0,0,0.00265955,0,-0.0386631,0,0,0,0.0709473,-0.0246,0.581661,0,0,0,0,0,0
0.331933,-9.92844e-05,-1.1149,-3.80188e-05,2.23714,0.000195156,0.596907,-0.000212313,-0.000503866,-0.0436711,-0.00019552,0.122358,0.00101145,-0.0786869,-0.00110641,0,0,0,0.00264883,0,-0.0387812,0,0,0,0.0709499,-0.0246,0.581623,0,0,0,0,0,0
0.332933,-9.97887e-05,-1.11494,-3.82145e-05,2.23726,0.000196169,0.596828,-0.000213421,-0.000504261,-0.0438513,-0.000195714,0.122711,0.00101249,-0.0788594,-0.00110763,0,0,0,0.00263793,0,-0.0388994,0,0,0,0.0709526,-0.0246,0.581584,0,0,0,0,0,0
0.333933,-0.000100293,-1.11499,-3.84104e-05,2.23739,0.000197182,0.596749,-0.00021453,-0.000504646,-0.0440319,-0.000195904,0.123063,0.00101352,-0.0790313,-0.00110883,0,0,0,0.00262687,0,-0.0390175,0,0,0,0.0709552,-0.0246,0.581545,0,0,0,0,0,0
0.334934,-0.000100799,-1.11503,-3.86066e-05,2.23751,0.000198197,0.59667,-0.00021564,-0.000505021,-0.044213,-0.00019609,0.123416,0.00101452,-0.0792026,-0.00111001,0,0,0,0.00261563,0,-0.0391357,0,0,0,0.0709578,-0.0246,0.581506,0,0,0,0,0,0
0.335934,-0.000101304,-1.11507,-3.88029e-05,2.23763,0.000199213,0.59659,-0.000216751,-0.000505385,-0.0443946,-0.000196273,0.123768,0.00101551,-0.0793732,-0.00111117,0,0,0,0.00260422,0,-0.0392538,0,0,0,0.0709604,-0.0246,0.581466,0,0,0,0,0,0
0.336934,-0.00010181,-1.11512,-3.89993e-05,2.23776,0.000200229,0.596511,-0.000217864,-0.000505739,-0.0445766,-0.000196452,0.12412,0.00101647,-0.0795432,-0.00111231,0,0,0,0.00259264,0,-0.0393719,0,0,0,0.070963,-0.0246,0.581427,0,0,0,0,0,0
0.337934,-0.000102316,-1.11516,-3.9196e-05,2.23788,0.000201247,0.596431,-0.000218977,-0.000506083,-0.044759,-0.000196628,0.124472,0.00101742,-0.0797125,-0.00111343,0,0,0,0.00258089,0,-0.0394901,0,0,0,0.0709656,-0.0246,0.581387,0,0,0,0,0,0
0.338934,-0.000102822,-1.11521,-3.93928e-05,2.23801,0.000202265,0.596351,-0.000220092,-0.000506416,-0.0449419,-0.0001968,0.124823,0.00101835,-0.0798813,-0.00111452,0,0,0,0.00256896,0,-0.0396082,0,0,0,0.0709681,-0.0246,0.581348,0,0,0,0,0,0
0.339934,-0.000103329,-1.11525,-3.95898e-05,2.23813,0.000203285,0.596271,-0.000221207,-0.000506739,-0.0451253,-0.000196969,0.125175,0.00101926,-0.0800493,-0.0011156,0,0,0,0.00255686,0,-0.0397264,0,0,0,0.0709707,-0.0246,0.581308,0,0,0,0,0,0
0.340934,-0.000103836,-1.1153,-3.97869e-05,2.23826,0.000204305,0.596191,-0.000222324,-0.000507051,-0.0453091,-0.000197134,0.125526,0.00102015,-0.0802168,-0.00111666,0,0,0,0.00254458,0,-0.0398445,0,0,0,0.0709732,-0.0246,0.581268,0,0,0,0,0,0
0.341934,-0.000104344,-1.11534,-3.99843e-05,2.23838,0.000205326,0.59611,-0.000223442,-0.000507354,-0.0454934,-0.000197295,0.125877,0.00102102,-0.0803836,-0.00111769,0,0,0,0.00253213,0,-0.0399627,0,0,0,0.0709758,-0.0246,0.581228,0,0,0,0,0,0
0.342935,-0.000104851,-1.11539,-4.01817e-05,2.23851,0.000206348,0.59603,-0.000224561,-0.000507645,-0.0456782,-0.000197452,0.126228,0.00102186,-0.0805497,-0.00111871,0,0,0,0.0025195,0,-0.0400808,0,0,0,0.0709783,-0.0246,0.581188,0,0,0,0,0,0
0.343935,-0.000105359,-1.11544,-4.03794e-05,2.23864,0.000207371,0.595949,-0.000225681,-0.000507926,-0.0458634,-0.000197606,0.126579,0.00102269,-0.0807152,-0.0011197,0,0,0,0.0025067,0,-0.040199,0,0,0,0.0709808,-0.0246,0.581148,0,0,0,0,0,0
0.344935,-0.000105868,-1.11548,-4.05771e-05,2.23876,0.000208394,0.595868,-0.000226801,-0.000508197,-0.046049,-0.000197756,0.126929,0.0010235,-0.08088,-0.00112067,0,0,0,0.00249371,0,-0.0403171,0,0,0,0.0709833,-0.0246,0.581108,0,0,0,0,0,0
0.345935,-0.000106376,-1.11553,-4.07751e-05,2.23889,0.000209419,0.595787,-0.000227923,-0.000508457,-0.0462352,-0.000197903,0.12728,0.00102429,-0.0810442,-0.00112162,0,0,0,0.00248056,0,-0.0404353,0,0,0,0.0709858,-0.0246,0.581067,0,0,0,0,0,0
0.346935,-0.000106885,-1.11557,-4.09731e-05,2.23902,0.000210444,0.595706,-0.000229046,-0.000508706,-0.0464218,-0.000198046,0.12763,0.00102506,-0.0812078,-0.00112255,0,0,0,0.00246722,0,-0.0405534,0,0,0,0.0709882,-0.0246,0.581027,0,0,0,0,0,0
0.347935,-0.000107394,-1.11562,-4.11713e-05,2.23915,0.00021147,0.595625,-0.000230169,-0.000508945,-0.0466089,-0.000198185,0.12798,0.00102581,-0.0813706,-0.00112346,0,0,0,0.0024537,0,-0.0406716,0,0,0,0.0709907,-0.0246,0.580986,0,0,0,0,0,0
0.349012,-0.000107942,-1.11567,-4.1385e-05,2.23928,0.000212576,0.595537,-0.000231381,-0.000509286,-0.0468068,-0.000198364,0.128358,0.00102677,-0.0815509,-0.00112459,0,0,0,0.00244055,0,-0.0407987,0,0,0,0.0709933,-0.0246,0.580942,0,0,0,0,0,0
0.350012,-0.000108452,-1.11572,-4.15835e-05,2.23941,0.000213603,0.595455,-0.000232506,-0.000509407,-0.0469989,-0.000198462,0.128706,0.0010273,-0.0817068,-0.00112527,0,0,0,0.00242506,0,-0.040917,0,0,0,0.0709957,-0.0246,0.580901,0,0,0,0,0,0
0.351013,-0.000108962,-1.11577,-4.17821e-05,2.23954,0.000214631,0.595373,-0.000233632,-0.000509613,-0.0471875,-0.00019859,0.129055,0.00102799,-0.0818677,-0.00112611,0,0,0,0.00241099,0,-0.0410351,0,0,0,0.0709982,-0.0246,0.58086,0,0,0,0,0,0
0.352013,-0.000109471,-1.11581,-4.19809e-05,2.23967,0.00021566,0.595291,-0.00023476,-0.000509808,-0.0473765,-0.000198714,0.129404,0.00102866,-0.0820278,-0.00112693,0,0,0,0.00239674,0,-0.0411533,0,0,0,0.0710006,-0.0246,0.580819,0,0,0,0,0,0
0.353013,-0.000109982,-1.11586,-4.21797e-05,2.2398,0.00021669,0.595209,-0.000235887,-0.000509993,-0.047566,-0.000198834,0.129753,0.0010293,-0.0821873,-0.00112773,0,0,0,0.00238231,0,-0.0412714,0,0,0,0.0710029,-0.0246,0.580778,0,0,0,0,0,0
0.354013,-0.000110492,-1.11591,-4.23787e-05,2.23993,0.00021772,0.595127,-0.000237016,-0.000510166,-0.0477559,-0.00019895,0.130102,0.00102993,-0.0823461,-0.0011285,0,0,0,0.0023677,0,-0.0413896,0,0,0,0.0710053,-0.0246,0.580736,0,0,0,0,0,0
0.355013,-0.000111002,-1.11596,-4.25778e-05,2.24006,0.00021875,0.595044,-0.000238145,-0.000510329,-0.0479464,-0.000199063,0.130451,0.00103053,-0.0825042,-0.00112926,0,0,0,0.00235291,0,-0.0415077,0,0,0,0.0710077,-0.0246,0.580695,0,0,0,0,0,0
0.356013,-0.000111513,-1.116,-4.2777e-05,2.24019,0.000219782,0.594961,-0.000239275,-0.000510481,-0.0481373,-0.000199172,0.130799,0.00103111,-0.0826617,-0.00112999,0,0,0,0.00233794,0,-0.0416259,0,0,0,0.07101,-0.0246,0.580653,0,0,0,0,0,0
0.357013,-0.000112023,-1.11605,-4.29763e-05,2.24032,0.000220813,0.594879,-0.000240406,-0.000510622,-0.0483287,-0.000199277,0.131147,0.00103168,-0.0828184,-0.0011307,0,0,0,0.00232278,0,-0.0417441,0,0,0,0.0710123,-0.0246,0.580611,0,0,0,0,0,0
0.358013,-0.000112534,-1.1161,-4.31757e-05,2.24046,0.000221846,0.594796,-0.000241538,-0.000510752,-0.0485206,-0.000199378,0.131495,0.00103222,-0.0829745,-0.00113138,0,0,0,0.00230744,0,-0.0418622,0,0,0,0.0710146,-0.0246,0.580569,0,0,0,0,0,0
0.359014,-0.000113045,-1.11615,-4.33752e-05,2.24059,0.000222879,0.594712,-0.00024267,-0.000510871,-0.048713,-0.000199475,0.131843,0.00103274,-0.0831299,-0.00113205,0,0,0,0.00229191,0,-0.0419804,0,0,0,0.0710169,-0.0246,0.580528,0,0,0,0,0,0
0.360014,-0.000113556,-1.1162,-4.35748e-05,2.24072,0.000223912,0.594629,-0.000243803,-0.000510979,-0.0489059,-0.000199569,0.132191,0.00103324,-0.0832846,-0.00113269,0,0,0,0.00227619,0,-0.0420985,0,0,0,0.0710192,-0.0246,0.580485,0,0,0,0,0,0
0.361014,-0.000114067,-1.11625,-4.37745e-05,2.24085,0.000224946,0.594546,-0.000244937,-0.000511076,-0.0490993,-0.000199659,0.132538,0.00103372,-0.0834386,-0.00113331,0,0,0,0.0022603,0,-0.0422167,0,0,0,0.0710215,-0.0246,0.580443,0,0,0,0,0,0
0.362014,-0.000114579,-1.1163,-4.39743e-05,2.24099,0.00022598,0.594462,-0.000246071,-0.000511162,-0.0492931,-0.000199744,0.132885,0.00103418,-0.0835919,-0.00113391,0,0,0,0.00224422,0,-0.0423348,0,0,0,0.0710237,-0.0246,0.580401,0,0,0,0,0,0
0.363014,-0.00011509,-1.11635,-4.41741e-05,2.24112,0.000227015,0.594378,-0.000247205,-0.000511236,-0.0494875,-0.000199826,0.133232,0.00103461,-0.0837445,-0.00113448,0,0,0,0.00222795,0,-0.0424529,0,0,0,0.0710259,-0.0246,0.580358,0,0,0,0,0,0
0.364099,-0.000115645,-1.1164,-4.43909e-05,2.24126,0.000228138,0.594287,-0.000248436,-0.000511419,-0.0496938,-0.000199951,0.13361,0.00103527,-0.0839159,-0.00113529,0,0,0,0.002212,0,-0.042581,0,0,0,0.0710283,-0.0246,0.580312,0,0,0,0,0,0
0.365975,-0.000116606,-1.1165,-4.47671e-05,2.24152,0.000230085,0.594129,-0.000250573,-0.000512584,-0.0500139,-0.000200465,0.134276,0.00103794,-0.0842621,-0.00113833,0,0,0,0.0021987,0,-0.0428017,0,0,0,0.0710324,-0.0246,0.580232,0,0,0,0,0,0
0.36727,-0.000117269,-1.11656,-4.50264e-05,2.24169,0.000231428,0.59402,-0.000252045,-0.000511833,-0.0503023,-0.000200273,0.134712,0.00103696,-0.0844097,-0.00113744,0,0,0,0.00216341,0,-0.0429553,0,0,0,0.0710352,-0.0246,0.580176,0,0,0,0,0,0
0.36827,-0.00011778,-1.11661,-4.52266e-05,2.24182,0.000232464,0.593935,-0.000253182,-0.000511445,-0.0505168,-0.000200193,0.135052,0.00103655,-0.0845348,-0.00113712,0,0,0,0.00213938,0,-0.0430737,0,0,0,0.0710374,-0.0246,0.580133,0,0,0,0,0,0
0.36927,-0.000118292,-1.11666,-4.54269e-05,2.24196,0.000233501,0.593851,-0.00025432,-0.00051145,-0.0507143,-0.00020025,0.135397,0.00103686,-0.084683,-0.00113755,0,0,0,0.00212193,0,-0.0431919,0,0,0,0.0710395,-0.0246,0.58009,0,0,0,0,0,0
0.37027,-0.000118803,-1.11671,-4.56272e-05,2.2421,0.000234539,0.593766,-0.000255458,-0.000511443,-0.0509122,-0.000200303,0.135743,0.00103714,-0.0848305,-0.00113796,0,0,0,0.0021043,0,-0.04331,0,0,0,0.0710416,-0.0246,0.580047,0,0,0,0,0,0
0.37127,-0.000119315,-1.11676,-4.58276e-05,2.24223,0.000235576,0.593681,-0.000256596,-0.000511425,-0.0511107,-0.000200353,0.136088,0.00103739,-0.0849772,-0.00113834,0,0,0,0.00208647,0,-0.0434281,0,0,0,0.0710437,-0.0246,0.580003,0,0,0,0,0,0
0.37227,-0.000119826,-1.11681,-4.6028e-05,2.24237,0.000236614,0.593596,-0.000257735,-0.000511396,-0.0513097,-0.000200398,0.136433,0.00103763,-0.0851232,-0.0011387,0,0,0,0.00206845,0,-0.0435462,0,0,0,0.0710458,-0.0246,0.57996,0,0,0,0,0,0
0.37327,-0.000120338,-1.11687,-4.62284e-05,2.24251,0.000237652,0.59351,-0.000258874,-0.000511355,-0.0515092,-0.00020044,0.136778,0.00103784,-0.0852685,-0.00113904,0,0,0,0.00205025,0,-0.0436643,0,0,0,0.0710478,-0.0246,0.579916,0,0,0,0,0,0
0.37427,-0.000120849,-1.11692,-4.64289e-05,2.24264,0.00023869,0.593425,-0.000260014,-0.000511302,-0.0517091,-0.000200477,0.137122,0.00103803,-0.085413,-0.00113935,0,0,0,0.00203185,0,-0.0437824,0,0,0,0.0710498,-0.0246,0.579872,0,0,0,0,0,0
0.375271,-0.000121361,-1.11697,-4.66295e-05,2.24278,0.000239728,0.593339,-0.000261154,-0.000511238,-0.0519096,-0.000200511,0.137467,0.0010382,-0.0855568,-0.00113964,0,0,0,0.00201325,0,-0.0439005,0,0,0,0.0710519,-0.0246,0.579828,0,0,0,0,0,0
0.376271,-0.000121872,-1.11702,-4.683e-05,2.24292,0.000240767,0.593254,-0.000262294,-0.000511163,-0.0521106,-0.00020054,0.137811,0.00103835,-0.0856999,-0.0011399,0,0,0,0.00199447,0,-0.0440186,0,0,0,0.0710539,-0.0246,0.579784,0,0,0,0,0,0
0.377271,-0.000122383,-1.11707,-4.70306e-05,2.24306,0.000241805,0.593168,-0.000263434,-0.000511076,-0.0523122,-0.000200566,0.138155,0.00103847,-0.0858422,-0.00114014,0,0,0,0.00197549,0,-0.0441367,0,0,0,0.0710558,-0.0246,0.57974,0,0,0,0,0,0
0.378271,-0.000122894,-1.11713,-4.72312e-05,2.24319,0.000242844,0.593082,-0.000264574,-0.000510978,-0.0525142,-0.000200587,0.138498,0.00103858,-0.0859838,-0.00114036,0,0,0,0.00195632,0,-0.0442548,0,0,0,0.0710578,-0.0246,0.579696,0,0,0,0,0,0
0.379271,-0.000123405,-1.11718,-4.74319e-05,2.24333,0.000243883,0.592996,-0.000265715,-0.000510867,-0.0527168,-0.000200604,0.138842,0.00103866,-0.0861247,-0.00114055,0,0,0,0.00193695,0,-0.0443729,0,0,0,0.0710597,-0.0246,0.579652,0,0,0,0,0,0
0.380323,-0.000123942,-1.11724,-4.76429e-05,2.24348,0.000244975,0.592905,-0.000266915,-0.000510815,-0.052927,-0.000200645,0.139204,0.00103885,-0.0862764,-0.00114088,0,0,0,0.00191764,0,-0.044497,0,0,0,0.0710617,-0.0246,0.579605,0,0,0,0,0,0
0.381323,-0.000124453,-1.11729,-4.78435e-05,2.24362,0.000246014,0.592819,-0.000268056,-0.000510605,-0.0531339,-0.000200627,0.139545,0.00103875,-0.0864113,-0.00114087,0,0,0,0.0018966,0,-0.0446151,0,0,0,0.0710636,-0.0246,0.57956,0,0,0,0,0,0
0.382454,-0.00012503,-1.11735,-4.80705e-05,2.24378,0.000247189,0.592721,-0.000269347,-0.000510633,-0.0533563,-0.0002007,0.139936,0.00103911,-0.0865794,-0.00114138,0,0,0,0.00187728,0,-0.0447485,0,0,0,0.0710658,-0.0246,0.57951,0,0,0,0,0,0
0.383454,-0.00012554,-1.1174,-4.82711e-05,2.24392,0.000248228,0.592634,-0.000270488,-0.00051028,-0.0535695,-0.000200632,0.140275,0.00103874,-0.0867056,-0.0011411,0,0,0,0.00185383,0,-0.0448667,0,0,0,0.0710676,-0.0246,0.579465,0,0,0,0,0,0
0.384454,-0.000126051,-1.11746,-4.84718e-05,2.24406,0.000249267,0.592547,-0.000271629,-0.000510109,-0.0537748,-0.000200628,0.140617,0.0010387,-0.0868425,-0.00114116,0,0,0,0.00183344,0,-0.0449848,0,0,0,0.0710694,-0.0246,0.57942,0,0,0,0,0,0
0.385454,-0.000126561,-1.11751,-4.86725e-05,2.2442,0.000250306,0.59246,-0.000272771,-0.000509926,-0.0539806,-0.00020062,0.14096,0.00103864,-0.0869787,-0.0011412,0,0,0,0.00181286,0,-0.0451028,0,0,0,0.0710713,-0.0246,0.579375,0,0,0,0,0,0
0.386454,-0.00012707,-1.11756,-4.88731e-05,2.24434,0.000251345,0.592373,-0.000273912,-0.000509732,-0.0541869,-0.000200608,0.141301,0.00103856,-0.0871142,-0.00114122,0,0,0,0.00179207,0,-0.0452209,0,0,0,0.071073,-0.0246,0.579329,0,0,0,0,0,0
0.387454,-0.00012758,-1.11762,-4.90737e-05,2.24448,0.000252383,0.592286,-0.000275053,-0.000509525,-0.0543937,-0.000200591,0.141643,0.00103845,-0.0872488,-0.00114121,0,0,0,0.00177109,0,-0.0453389,0,0,0,0.0710748,-0.0246,0.579284,0,0,0,0,0,0
0.388454,-0.000128089,-1.11767,-4.92743e-05,2.24462,0.000253422,0.592198,-0.000276195,-0.000509307,-0.0546011,-0.000200571,0.141984,0.00103832,-0.0873827,-0.00114118,0,0,0,0.00174991,0,-0.0454569,0,0,0,0.0710766,-0.0246,0.579238,0,0,0,0,0,0
0.389454,-0.000128599,-1.11773,-4.94748e-05,2.24477,0.00025446,0.592111,-0.000277336,-0.000509076,-0.054809,-0.000200546,0.142325,0.00103816,-0.0875158,-0.00114112,0,0,0,0.00172854,0,-0.0455749,0,0,0,0.0710783,-0.0246,0.579193,0,0,0,0,0,0
0.390454,-0.000129107,-1.11778,-4.96754e-05,2.24491,0.000255498,0.592023,-0.000278477,-0.000508834,-0.0550174,-0.000200517,0.142666,0.00103799,-0.0876482,-0.00114104,0,0,0,0.00170696,0,-0.045693,0,0,0,0.07108,-0.0246,0.579147,0,0,0,0,0,0
0.391455,-0.000129616,-1.11784,-4.98759e-05,2.24505,0.000256536,0.591935,-0.000279618,-0.00050858,-0.0552264,-0.000200484,0.143006,0.00103778,-0.0877797,-0.00114093,0,0,0,0.00168518,0,-0.045811,0,0,0,0.0710817,-0.0246,0.579101,0,0,0,0,0,0
0.392455,-0.000130124,-1.11789,-5.00764e-05,2.2452,0.000257573,0.591847,-0.000280759,-0.000508313,-0.0554359,-0.000200446,0.143347,0.00103756,-0.0879105,-0.0011408,0,0,0,0.00166319,0,-0.045929,0,0,0,0.0710834,-0.0246,0.579055,0,0,0,0,0,0
0.393455,-0.000130633,-1.11795,-5.02768e-05,2.24534,0.000258611,0.591759,-0.0002819,-0.000508035,-0.055646,-0.000200405,0.143687,0.00103731,-0.0880405,-0.00114064,0,0,0,0.00164101,0,-0.046047,0,0,0,0.071085,-0.0246,0.579009,0,0,0,0,0,0
0.394455,-0.00013114,-1.11801,-5.04772e-05,2.24548,0.000259648,0.591671,-0.00028304,-0.000507744,-0.0558566,-0.000200359,0.144026,0.00103704,-0.0881697,-0.00114045,0,0,0,0.00161862,0,-0.0461649,0,0,0,0.0710866,-0.0246,0.578963,0,0,0,0,0,0
0.395455,-0.000131648,-1.11806,-5.06775e-05,2.24563,0.000260685,0.591583,-0.000284181,-0.000507442,-0.0560677,-0.000200309,0.144366,0.00103674,-0.0882981,-0.00114024,0,0,0,0.00159603,0,-0.0462829,0,0,0,0.0710882,-0.0246,0.578917,0,0,0,0,0,0
0.396455,-0.000132155,-1.11812,-5.08778e-05,2.24577,0.000261722,0.591494,-0.000285321,-0.000507127,-0.0562794,-0.000200254,0.144705,0.00103642,-0.0884258,-0.00114001,0,0,0,0.00157324,0,-0.0464009,0,0,0,0.0710898,-0.0246,0.578871,0,0,0,0,0,0
0.397456,-0.000132662,-1.11817,-5.10781e-05,2.24592,0.000262758,0.591406,-0.000286461,-0.0005068,-0.0564917,-0.000200195,0.145044,0.00103608,-0.0885526,-0.00113974,0,0,0,0.00155024,0,-0.0465189,0,0,0,0.0710913,-0.0246,0.578824,0,0,0,0,0,0
0.398456,-0.000133169,-1.11823,-5.12782e-05,2.24606,0.000263794,0.591317,-0.000287601,-0.00050646,-0.0567044,-0.000200132,0.145383,0.00103571,-0.0886786,-0.00113946,0,0,0,0.00152703,0,-0.0466368,0,0,0,0.0710929,-0.0246,0.578777,0,0,0,0,0,0
0.399533,-0.000133714,-1.11829,-5.14937e-05,2.24622,0.000264909,0.591222,-0.000288828,-0.000506206,-0.0569287,-0.000200103,0.14575,0.00103551,-0.088821,-0.00113936,0,0,0,0.00150392,0,-0.0467638,0,0,0,0.0710945,-0.0246,0.578727,0,0,0,0,0,0
0.400533,-0.00013422,-1.11835,-5.16937e-05,2.24637,0.000265944,0.591133,-0.000289967,-0.000505716,-0.0571481,-0.000199987,0.146086,0.00103486,-0.0889379,-0.00113878,0,0,0,0.00147819,0,-0.0468818,0,0,0,0.071096,-0.0246,0.57868,0,0,0,0,0,0
0.401533,-0.000134725,-1.11841,-5.18937e-05,2.24651,0.000266979,0.591044,-0.000291105,-0.000505339,-0.0573626,-0.000199911,0.146424,0.00103442,-0.0890614,-0.00113841,0,0,0,0.00145436,0,-0.0469997,0,0,0,0.0710974,-0.0246,0.578633,0,0,0,0,0,0
0.402533,-0.00013523,-1.11846,-5.20936e-05,2.24666,0.000268013,0.590954,-0.000292244,-0.000504949,-0.0575776,-0.00019983,0.146762,0.00103395,-0.0891842,-0.00113802,0,0,0,0.00143031,0,-0.0471176,0,0,0,0.0710988,-0.0246,0.578586,0,0,0,0,0,0
0.403533,-0.000135735,-1.11852,-5.22933e-05,2.24681,0.000269046,0.590865,-0.000293381,-0.000504547,-0.0577932,-0.000199745,0.147099,0.00103346,-0.0893061,-0.0011376,0,0,0,0.00140606,0,-0.0472355,0,0,0,0.0711002,-0.0246,0.578539,0,0,0,0,0,0
0.404533,-0.000136239,-1.11858,-5.2493e-05,2.24695,0.00027008,0.590776,-0.000294519,-0.000504133,-0.0580093,-0.000199656,0.147437,0.00103294,-0.0894272,-0.00113715,0,0,0,0.00138161,0,-0.0473534,0,0,0,0.0711016,-0.0246,0.578491,0,0,0,0,0,0
0.405534,-0.000136743,-1.11864,-5.26926e-05,2.2471,0.000271112,0.590686,-0.000295655,-0.000503706,-0.058226,-0.000199562,0.147774,0.0010324,-0.0895475,-0.00113668,0,0,0,0.00135695,0,-0.0474713,0,0,0,0.071103,-0.0246,0.578444,0,0,0,0,0,0
0.406534,-0.000137246,-1.1187,-5.28921e-05,2.24725,0.000272144,0.590596,-0.000296792,-0.000503266,-0.0584432,-0.000199463,0.14811,0.00103184,-0.089667,-0.00113618,0,0,0,0.00133207,0,-0.0475892,0,0,0,0.0711043,-0.0246,0.578396,0,0,0,0,0,0
0.407534,-0.000137749,-1.11876,-5.30915e-05,2.2474,0.000273175,0.590507,-0.000297927,-0.000502815,-0.058661,-0.000199361,0.148447,0.00103124,-0.0897857,-0.00113565,0,0,0,0.00130699,0,-0.047707,0,0,0,0.0711056,-0.0246,0.578349,0,0,0,0,0,0
0.408534,-0.000138251,-1.11881,-5.32907e-05,2.24755,0.000274206,0.590417,-0.000299063,-0.00050235,-0.0588794,-0.000199254,0.148783,0.00103063,-0.0899035,-0.0011351,0,0,0,0.0012817,0,-0.0478249,0,0,0,0.0711069,-0.0246,0.578301,0,0,0,0,0,0
0.409534,-0.000138753,-1.11887,-5.34899e-05,2.2477,0.000275236,0.590327,-0.000300197,-0.000501873,-0.0590983,-0.000199142,0.149119,0.00102999,-0.0900205,-0.00113452,0,0,0,0.0012562,0,-0.0479427,0,0,0,0.0711082,-0.0246,0.578253,0,0,0,0,0,0
0.410534,-0.000139254,-1.11893,-5.36889e-05,2.24785,0.000276266,0.590236,-0.000301331,-0.000501383,-0.0593178,-0.000199026,0.149455,0.00102932,-0.0901366,-0.00113391,0,0,0,0.00123049,0,-0.0480605,0,0,0,0.0711094,-0.0246,0.578205,0,0,0,0,0,0
0.411596,-0.000139786,-1.119,-5.39002e-05,2.248,0.000277358,0.590141,-0.000302535,-0.000500956,-0.0595468,-0.000198935,0.149813,0.00102878,-0.0902655,-0.00113345,0,0,0,0.00120475,0,-0.0481856,0,0,0,0.0711107,-0.0246,0.578154,0,0,0,0,0,0
0.412596,-0.000140287,-1.11906,-5.4099e-05,2.24815,0.000278386,0.59005,-0.000303668,-0.000500333,-0.0597722,-0.000198773,0.150146,0.00102787,-0.0903735,-0.00113257,0,0,0,0.00117681,0,-0.0483034,0,0,0,0.0711118,-0.0246,0.578105,0,0,0,0,0,0
0.413596,-0.000140787,-1.11912,-5.42977e-05,2.24831,0.000279413,0.58996,-0.0003048,-0.000499805,-0.0599934,-0.000198643,0.150481,0.00102712,-0.0904871,-0.00113188,0,0,0,0.00115045,0,-0.0484212,0,0,0,0.071113,-0.0246,0.578057,0,0,0,0,0,0
0.414596,-0.000141286,-1.11918,-5.44962e-05,2.24846,0.00028044,0.589869,-0.000305931,-0.000499263,-0.0602152,-0.000198509,0.150815,0.00102635,-0.0905998,-0.00113116,0,0,0,0.00112387,0,-0.048539,0,0,0,0.0711141,-0.0246,0.578008,0,0,0,0,0,0
0.415597,-0.000141785,-1.11924,-5.46946e-05,2.24861,0.000281466,0.589778,-0.000307062,-0.000498709,-0.0604376,-0.00019837,0.15115,0.00102556,-0.0907117,-0.00113042,0,0,0,0.00109709,0,-0.0486568,0,0,0,0.0711152,-0.0246,0.57796,0,0,0,0,0,0
0.416597,-0.000142283,-1.1193,-5.48928e-05,2.24876,0.00028249,0.589688,-0.000308191,-0.000498142,-0.0606606,-0.000198227,0.151484,0.00102474,-0.0908228,-0.00112965,0,0,0,0.00107009,0,-0.0487745,0,0,0,0.0711163,-0.0246,0.577911,0,0,0,0,0,0
0.417597,-0.000142781,-1.11936,-5.50909e-05,2.24891,0.000283514,0.589597,-0.00030932,-0.000497562,-0.0608841,-0.000198079,0.151817,0.00102389,-0.090933,-0.00112885,0,0,0,0.00104287,0,-0.0488922,0,0,0,0.0711173,-0.0246,0.577862,0,0,0,0,0,0
0.418597,-0.000143278,-1.11942,-5.52889e-05,2.24906,0.000284537,0.589506,-0.000310448,-0.00049697,-0.0611082,-0.000197926,0.152151,0.00102302,-0.0910423,-0.00112802,0,0,0,0.00101544,0,-0.04901,0,0,0,0.0711183,-0.0246,0.577813,0,0,0,0,0,0
0.419597,-0.000143774,-1.11948,-5.54867e-05,2.24922,0.00028556,0.589414,-0.000311576,-0.000496364,-0.0613329,-0.000197769,0.152484,0.00102212,-0.0911508,-0.00112716,0,0,0,0.0009878,0,-0.0491277,0,0,0,0.0711193,-0.0246,0.577764,0,0,0,0,0,0
0.420597,-0.00014427,-1.11954,-5.56843e-05,2.24937,0.000286581,0.589323,-0.000312702,-0.000495745,-0.0615582,-0.000197608,0.152817,0.0010212,-0.0912584,-0.00112628,0,0,0,0.00095994,0,-0.0492454,0,0,0,0.0711203,-0.0246,0.577715,0,0,0,0,0,0
0.421597,-0.000144765,-1.1196,-5.58818e-05,2.24952,0.000287601,0.589232,-0.000313828,-0.000495114,-0.061784,-0.000197441,0.153149,0.00102025,-0.0913651,-0.00112537,0,0,0,0.000931864,0,-0.049363,0,0,0,0.0711212,-0.0246,0.577665,0,0,0,0,0,0
0.422597,-0.00014526,-1.11967,-5.60791e-05,2.24967,0.000288621,0.58914,-0.000314952,-0.000494469,-0.0620104,-0.000197271,0.153482,0.00101927,-0.091471,-0.00112443,0,0,0,0.000903571,0,-0.0494807,0,0,0,0.0711221,-0.0246,0.577616,0,0,0,0,0,0
0.423597,-0.000145753,-1.11973,-5.62762e-05,2.24983,0.000289639,0.589049,-0.000316076,-0.000493811,-0.0622375,-0.000197095,0.153814,0.00101827,-0.091576,-0.00112346,0,0,0,0.000875061,0,-0.0495984,0,0,0,0.071123,-0.0246,0.577566,0,0,0,0,0,0
0.424598,-0.000146247,-1.11979,-5.64731e-05,2.24998,0.000290656,0.588957,-0.000317198,-0.00049314,-0.0624651,-0.000196915,0.154145,0.00101724,-0.0916801,-0.00112246,0,0,0,0.000846332,0,-0.049716,0,0,0,0.0711238,-0.0246,0.577516,0,0,0,0,0,0
0.425598,-0.000146739,-1.11985,-5.66699e-05,2.25014,0.000291673,0.588865,-0.00031832,-0.000492456,-0.0626933,-0.00019673,0.154477,0.00101619,-0.0917833,-0.00112143,0,0,0,0.000817386,0,-0.0498336,0,0,0,0.0711247,-0.0246,0.577467,0,0,0,0,0,0
0.426598,-0.000147231,-1.11992,-5.68664e-05,2.25029,0.000292688,0.588773,-0.00031944,-0.000491759,-0.0629221,-0.000196541,0.154808,0.00101511,-0.0918857,-0.00112038,0,0,0,0.00078822,0,-0.0499512,0,0,0,0.0711254,-0.0246,0.577417,0,0,0,0,0,0
0.42769,-0.000147768,-1.11999,-5.7081e-05,2.25046,0.000293796,0.588673,-0.000320664,-0.000491155,-0.0631651,-0.000196389,0.155172,0.00101422,-0.0920071,-0.00111954,0,0,0,0.000759,0,-0.0500796,0,0,0,0.0711263,-0.0246,0.577362,0,0,0,0,0,0
0.428691,-0.000148258,-1.12005,-5.72772e-05,2.25062,0.000294809,0.588581,-0.000321782,-0.000490258,-0.0634028,-0.000196129,0.1555,0.00101276,-0.092097,-0.00111808,0,0,0,0.000726479,0,-0.0501973,0,0,0,0.071127,-0.0246,0.577312,0,0,0,0,0,0
0.429691,-0.000148748,-1.12011,-5.74731e-05,2.25077,0.000295821,0.588488,-0.000322899,-0.00048952,-0.0636334,-0.000195925,0.15583,0.00101159,-0.0921966,-0.00111694,0,0,0,0.00069663,0,-0.0503148,0,0,0,0.0711277,-0.0246,0.577261,0,0,0,0,0,0
0.430691,-0.000149236,-1.12018,-5.76689e-05,2.25093,0.000296831,0.588396,-0.000324015,-0.000488768,-0.0638646,-0.000195717,0.15616,0.0010104,-0.0922953,-0.00111577,0,0,0,0.000666564,0,-0.0504324,0,0,0,0.0711284,-0.0246,0.577211,0,0,0,0,0,0
0.431691,-0.000149724,-1.12024,-5.78644e-05,2.25109,0.000297841,0.588304,-0.00032513,-0.000488004,-0.0640965,-0.000195503,0.15649,0.00100919,-0.0923932,-0.00111457,0,0,0,0.000636276,0,-0.0505499,0,0,0,0.071129,-0.0246,0.57716,0,0,0,0,0,0
0.432691,-0.000150212,-1.1203,-5.80597e-05,2.25124,0.000298849,0.588211,-0.000326243,-0.000487225,-0.0643289,-0.000195285,0.156819,0.00100794,-0.0924901,-0.00111334,0,0,0,0.000605763,0,-0.0506674,0,0,0,0.0711296,-0.0246,0.57711,0,0,0,0,0,0
0.433691,-0.000150698,-1.12037,-5.82548e-05,2.2514,0.000299856,0.588119,-0.000327355,-0.000486434,-0.0645619,-0.000195062,0.157148,0.00100667,-0.0925861,-0.00111208,0,0,0,0.000575031,0,-0.0507849,0,0,0,0.0711302,-0.0246,0.577059,0,0,0,0,0,0
0.434692,-0.000151184,-1.12043,-5.84497e-05,2.25156,0.000300861,0.588026,-0.000328466,-0.000485629,-0.0647956,-0.000194834,0.157477,0.00100537,-0.0926812,-0.00111079,0,0,0,0.000544072,0,-0.0509024,0,0,0,0.0711307,-0.0246,0.577008,0,0,0,0,0,0
0.435692,-0.000151669,-1.1205,-5.86443e-05,2.25172,0.000301865,0.587933,-0.000329576,-0.000484811,-0.0650298,-0.000194602,0.157805,0.00100404,-0.0927754,-0.00110947,0,0,0,0.00051289,0,-0.0510198,0,0,0,0.0711312,-0.0246,0.576957,0,0,0,0,0,0
0.436692,-0.000152153,-1.12056,-5.88387e-05,2.25187,0.000302868,0.58784,-0.000330684,-0.000483979,-0.0652647,-0.000194364,0.158134,0.00100269,-0.0928687,-0.00110812,0,0,0,0.000481488,0,-0.0511372,0,0,0,0.0711317,-0.0246,0.576906,0,0,0,0,0,0
0.437692,-0.000152636,-1.12063,-5.90328e-05,2.25203,0.00030387,0.587747,-0.000331791,-0.000483134,-0.0655001,-0.000194122,0.158461,0.00100131,-0.092961,-0.00110675,0,0,0,0.00044986,0,-0.0512547,0,0,0,0.0711322,-0.0246,0.576854,0,0,0,0,0,0
0.438692,-0.000153118,-1.1207,-5.92267e-05,2.25219,0.00030487,0.587654,-0.000332897,-0.000482275,-0.0657362,-0.000193875,0.158789,0.000999901,-0.0930525,-0.00110534,0,0,0,0.000418008,0,-0.0513721,0,0,0,0.0711326,-0.0246,0.576803,0,0,0,0,0,0
0.439692,-0.0001536,-1.12076,-5.94204e-05,2.25235,0.000305868,0.587561,-0.000334001,-0.000481402,-0.0659729,-0.000193623,0.159116,0.000998464,-0.093143,-0.0011039,0,0,0,0.000385927,0,-0.0514894,0,0,0,0.071133,-0.0246,0.576752,0,0,0,0,0,0
0.440692,-0.00015408,-1.12083,-5.96138e-05,2.25251,0.000306865,0.587468,-0.000335103,-0.000480516,-0.0662102,-0.000193366,0.159443,0.000997,-0.0932326,-0.00110243,0,0,0,0.000353624,0,-0.0516068,0,0,0,0.0711333,-0.0246,0.5767,0,0,0,0,0,0
0.441692,-0.00015456,-1.12089,-5.98069e-05,2.25267,0.000307861,0.587375,-0.000336204,-0.000479616,-0.0664481,-0.000193105,0.15977,0.000995509,-0.0933213,-0.00110094,0,0,0,0.000321094,0,-0.0517241,0,0,0,0.0711336,-0.0246,0.576648,0,0,0,0,0,0
