Kcygt/SemiCircleKinovaTest_Cpp/x64/Debug/data.csv
t,q1,q2,q3,q4,q5,q6,q7,qp1,qp2,qp3,qp4,qp5,qp6,qp7,xd,yd,zd,vxd,vyd,vzd,wxd,wyd,wzd,x,y,z,vx,vy,vz,wx,wy,wz
3e-07,6.01567e-16,-1.10828,2.28419e-16,2.21657,-1.16034e-15,0.610865,1.25665e-15,2.00522e-09,-9.34011e-08,7.61396e-10,-3.16798e-08,-3.86781e-09,1.25081e-07,4.18885e-09,0,0,0,-3.5132e-08,0,0,0,0,0,0.0702507,-0.0246,0.588057,0,0,0,0,0,0
0.0019828,-8.15254e-09,-1.10828,-3.09557e-09,2.21657,1.57252e-08,0.610864,-1.70304e-08,-4.11225e-06,-0.000213827,-1.56145e-06,0.000744056,7.93198e-06,-0.000530229,-8.59035e-06,0,0,0,3.43212e-05,0,-0.000229649,0,0,0,0.0702508,-0.0246,0.588056,0,0,0,0,0,0
0.0032257,-1.64674e-08,-1.10828,-6.25279e-09,2.21657,3.17635e-08,0.610863,-3.44e-08,-6.68991e-06,-0.000347865,-2.5402e-06,0.00121046,1.2904e-05,-0.000862595,-1.3975e-05,0,0,0,5.58341e-05,0,-0.000373602,0,0,0,0.0702509,-0.0246,0.588056,0,0,0,0,0,0
0.004226,-2.52344e-08,-1.10829,-9.58167e-09,2.21657,4.86739e-08,0.610862,-5.2714e-08,-8.76434e-06,-0.000455745,-3.32788e-06,0.00158583,1.69053e-05,-0.00113008,-1.83085e-05,0,0,0,7.31461e-05,0,-0.000489457,0,0,0,0.070251,-0.0246,0.588055,0,0,0,0,0,0
0.0052261,-3.60737e-08,-1.10829,-1.36974e-08,2.21657,6.95817e-08,0.610861,-7.53572e-08,-1.08383e-05,-0.000563607,-4.11536e-06,0.00196112,2.09057e-05,-0.00139751,-2.2641e-05,0,0,0,9.04531e-05,0,-0.00060529,0,0,0,0.070251,-0.0246,0.588055,0,0,0,0,0,0
0.0062262,-4.89871e-08,-1.10829,-1.86007e-08,2.21658,9.44901e-08,0.610859,-1.02333e-07,-1.2912e-05,-0.000671474,-4.9028e-06,0.00233641,2.49059e-05,-0.00166493,-2.69732e-05,0,0,0,0.000107758,0,-0.000721123,0,0,0,0.0702512,-0.0246,0.588054,0,0,0,0,0,0
0.0072263,-6.39742e-08,-1.10829,-2.42915e-08,2.21658,1.23399e-07,0.610857,-1.33641e-07,-1.49856e-05,-0.000779349,-5.69017e-06,0.00271169,2.89058e-05,-0.00193234,-3.13051e-05,0,0,0,0.00012506,0,-0.000836956,0,0,0,0.0702513,-0.0246,0.588053,0,0,0,0,0,0
0.0082265,-8.10369e-08,-1.10829,-3.07703e-08,2.21658,1.56311e-07,0.610855,-1.69286e-07,-1.70593e-05,-0.000887243,-6.47755e-06,0.00308702,3.29057e-05,-0.00219977,-3.56371e-05,0,0,0,0.00014236,0,-0.000952802,0,0,0,0.0702514,-0.0246,0.588052,0,0,0,0,0,0
0.0092268,-1.00175e-07,-1.10829,-3.80374e-08,2.21659,1.93228e-07,0.610852,-2.09267e-07,-1.91328e-05,-0.000995157,-7.26492e-06,0.00346237,3.69057e-05,-0.00246722,-3.99692e-05,0,0,0,0.000159658,0,-0.00106866,0,0,0,0.0702516,-0.0246,0.588051,0,0,0,0,0,0
0.0103137,-1.2342e-07,-1.10829,-4.68634e-08,2.21659,2.38064e-07,0.610849,-2.57825e-07,-2.13857e-05,-0.00111242,-8.12038e-06,0.00387023,4.12516e-05,-0.0027578,-4.4676e-05,0,0,0,0.00017845,0,-0.00119455,0,0,0,0.0702518,-0.0246,0.58805,0,0,0,0,0,0
0.0113138,-1.4688e-07,-1.10829,-5.57717e-08,2.21659,2.83318e-07,0.610846,-3.06836e-07,-2.34583e-05,-0.00122034,-8.90736e-06,0.0042455,4.52497e-05,-0.00302516,-4.9006e-05,0,0,0,0.000195734,0,-0.00131038,0,0,0,0.070252,-0.0246,0.588049,0,0,0,0,0,0
0.0123139,-1.72413e-07,-1.10829,-6.54669e-08,2.2166,3.32571e-07,0.610843,-3.60177e-07,-2.55305e-05,-0.00132827,-9.69424e-06,0.00462078,4.92474e-05,-0.0032925,-5.33357e-05,0,0,0,0.000213013,0,-0.00142622,0,0,0,0.0702522,-0.0246,0.588047,0,0,0,0,0,0
0.0133141,-2.00021e-07,-1.10829,-7.59501e-08,2.2166,3.85826e-07,0.610839,-4.17854e-07,-2.76027e-05,-0.00143623,-1.04811e-05,0.00499608,5.3245e-05,-0.00355985,-5.76652e-05,0,0,0,0.000230289,0,-0.00154207,0,0,0,0.0702524,-0.0246,0.588046,0,0,0,0,0,0
0.0143143,-2.29702e-07,-1.1083,-8.72201e-08,2.21661,4.4308e-07,0.610836,-4.7986e-07,-2.96744e-05,-0.0015442,-1.12678e-05,0.00537139,5.72419e-05,-0.00382719,-6.1994e-05,0,0,0,0.000247558,0,-0.00165792,0,0,0,0.0702527,-0.0246,0.588044,0,0,0,0,0,0
0.0153144,-2.6145e-07,-1.1083,-9.92756e-08,2.21662,5.04324e-07,0.610832,-5.46188e-07,-3.17455e-05,-0.00165218,-1.20542e-05,0.00574665,6.12377e-05,-0.00409447,-6.63217e-05,0,0,0,0.000264818,0,-0.00177376,0,0,0,0.0702529,-0.0246,0.588042,0,0,0,0,0,0
0.0163145,-2.9527e-07,-1.1083,-1.12117e-07,2.21662,5.69563e-07,0.610827,-6.16844e-07,-3.38162e-05,-0.00176018,-1.28405e-05,0.00612191,6.52328e-05,-0.00436173,-7.06486e-05,0,0,0,0.000282071,0,-0.0018896,0,0,0,0.0702532,-0.0246,0.58804,0,0,0,0,0,0
0.0173146,-3.3116e-07,-1.1083,-1.25745e-07,2.21663,6.38797e-07,0.610823,-6.91826e-07,-3.58864e-05,-0.0018682,-1.36267e-05,0.00649716,6.92271e-05,-0.00462897,-7.49747e-05,0,0,0,0.000299316,0,-0.00200544,0,0,0,0.0702535,-0.0246,0.588038,0,0,0,0,0,0
0.0183147,-3.6912e-07,-1.1083,-1.4016e-07,2.21663,7.12025e-07,0.610818,-7.71134e-07,-3.79561e-05,-0.00197623,-1.44126e-05,0.00687241,7.32205e-05,-0.00489618,-7.93e-05,0,0,0,0.000316552,0,-0.00212128,0,0,0,0.0702538,-0.0246,0.588036,0,0,0,0,0,0
0.0193148,-4.09149e-07,-1.10831,-1.55359e-07,2.21664,7.89245e-07,0.610812,-8.54767e-07,-4.00252e-05,-0.0020843,-1.51984e-05,0.00724766,7.72131e-05,-0.00516336,-8.36243e-05,0,0,0,0.00033378,0,-0.00223713,0,0,0,0.0702542,-0.0246,0.588034,0,0,0,0,0,0
0.0203149,-4.51247e-07,-1.10831,-1.71345e-07,2.21665,8.70458e-07,0.610807,-9.42723e-07,-4.20938e-05,-0.00219238,-1.59839e-05,0.0076229,8.12048e-05,-0.00543052,-8.79477e-05,0,0,0,0.000350998,0,-0.00235297,0,0,0,0.0702545,-0.0246,0.588032,0,0,0,0,0,0
0.0213151,-4.95418e-07,-1.10831,-1.88118e-07,2.21666,9.55671e-07,0.610801,-1.03501e-06,-4.4162e-05,-0.0023005,-1.67693e-05,0.00799817,8.51958e-05,-0.00569766,-9.22704e-05,0,0,0,0.000368207,0,-0.00246883,0,0,0,0.0702549,-0.0246,0.588029,0,0,0,0,0,0
0.0223152,-5.41652e-07,-1.10831,-2.05674e-07,2.21667,1.04487e-06,0.610795,-1.13161e-06,-4.62294e-05,-0.00240864,-1.75544e-05,0.00837339,8.91855e-05,-0.00596475,-9.65917e-05,0,0,0,0.000385405,0,-0.00258468,0,0,0,0.0702553,-0.0246,0.588026,0,0,0,0,0,0
0.0233153,-5.89953e-07,-1.10831,-2.24015e-07,2.21667,1.13805e-06,0.610789,-1.23254e-06,-4.82961e-05,-0.0025168,-1.83393e-05,0.00874861,9.3174e-05,-0.00623181,-0.000100912,0,0,0,0.000402591,0,-0.00270053,0,0,0,0.0702557,-0.0246,0.588024,0,0,0,0,0,0
0.0243154,-6.4032e-07,-1.10832,-2.43141e-07,2.21668,1.23522e-06,0.610783,-1.33778e-06,-5.03621e-05,-0.002625,-1.91239e-05,0.00912383,9.71614e-05,-0.00649883,-0.000105231,0,0,0,0.000419766,0,-0.00281639,0,0,0,0.0702561,-0.0246,0.588021,0,0,0,0,0,0
0.0253155,-6.92753e-07,-1.10832,-2.63051e-07,2.21669,1.33638e-06,0.610776,-1.44734e-06,-5.24274e-05,-0.00273322,-1.99083e-05,0.00949903,0.000101148,-0.00676581,-0.000109548,0,0,0,0.000436929,0,-0.00293224,0,0,0,0.0702565,-0.0246,0.588018,0,0,0,0,0,0
0.0263157,-7.47256e-07,-1.10832,-2.83748e-07,2.2167,1.44153e-06,0.610769,-1.56122e-06,-5.44921e-05,-0.00284148,-2.06924e-05,0.00987427,0.000105133,-0.00703279,-0.000113865,0,0,0,0.000454081,0,-0.00304811,0,0,0,0.070257,-0.0246,0.588015,0,0,0,0,0,0
0.0273158,-8.03817e-07,-1.10833,-3.05226e-07,2.21671,1.55066e-06,0.610762,-1.67942e-06,-5.65559e-05,-0.00294977,-2.14762e-05,0.0102495,0.000109117,-0.00729969,-0.00011818,0,0,0,0.000471218,0,-0.00316396,0,0,0,0.0702574,-0.0246,0.588012,0,0,0,0,0,0
0.0283159,-8.62442e-07,-1.10833,-3.27488e-07,2.21672,1.66377e-06,0.610754,-1.80192e-06,-5.86188e-05,-0.00305809,-2.22597e-05,0.0106246,0.000113099,-0.00756655,-0.000122494,0,0,0,0.000488342,0,-0.00327982,0,0,0,0.0702579,-0.0246,0.588009,0,0,0,0,0,0
0.029316,-9.23129e-07,-1.10833,-3.50533e-07,2.21674,1.78086e-06,0.610746,-1.92874e-06,-6.0681e-05,-0.00316645,-2.30429e-05,0.0109998,0.00011708,-0.00783337,-0.000126806,0,0,0,0.000505452,0,-0.00339569,0,0,0,0.0702584,-0.0246,0.588005,0,0,0,0,0,0
0.0303161,-9.85877e-07,-1.10834,-3.74361e-07,2.21675,1.90193e-06,0.610738,-2.05987e-06,-6.27422e-05,-0.00327484,-2.38258e-05,0.011375,0.00012106,-0.00810014,-0.000131117,0,0,0,0.000522547,0,-0.00351155,0,0,0,0.070259,-0.0246,0.588002,0,0,0,0,0,0
0.0313162,-1.05069e-06,-1.10834,-3.98972e-07,2.21676,2.02698e-06,0.61073,-2.19531e-06,-6.48025e-05,-0.00338327,-2.46083e-05,0.0117501,0.000125038,-0.00836687,-0.000135426,0,0,0,0.000539627,0,-0.00362742,0,0,0,0.0702595,-0.0246,0.587998,0,0,0,0,0,0
0.0323163,-1.11756e-06,-1.10834,-4.24365e-07,2.21677,2.15601e-06,0.610721,-2.33506e-06,-6.68619e-05,-0.00349174,-2.53905e-05,0.0121253,0.000129014,-0.00863355,-0.000139734,0,0,0,0.000556691,0,-0.00374329,0,0,0,0.0702601,-0.0246,0.587994,0,0,0,0,0,0
0.0333164,-1.18648e-06,-1.10835,-4.5054e-07,2.21678,2.28901e-06,0.610712,-2.47911e-06,-6.89204e-05,-0.00360026,-2.61724e-05,0.0125004,0.000132989,-0.00890018,-0.00014404,0,0,0,0.000573739,0,-0.00385916,0,0,0,0.0702606,-0.0246,0.58799,0,0,0,0,0,0
0.0343165,-1.25747e-06,-1.10835,-4.77497e-07,2.2168,2.42599e-06,0.610703,-2.62747e-06,-7.09778e-05,-0.00370881,-2.69539e-05,0.0128756,0.000136963,-0.00916675,-0.000148344,0,0,0,0.000590771,0,-0.00397503,0,0,0,0.0702612,-0.0246,0.587986,0,0,0,0,0,0
0.0353166,-1.33051e-06,-1.10835,-5.05234e-07,2.21681,2.56694e-06,0.610694,-2.78014e-06,-7.30343e-05,-0.0038174,-2.7735e-05,0.0132507,0.000140934,-0.00943328,-0.000152647,0,0,0,0.000607786,0,-0.00409091,0,0,0,0.0702618,-0.0246,0.587982,0,0,0,0,0,0
0.0363304,-1.40666e-06,-1.10836,-5.34155e-07,2.21682,2.7139e-06,0.610684,-2.93931e-06,-7.5118e-05,-0.00392752,-2.85265e-05,0.0136309,0.000144959,-0.00970341,-0.000157007,0,0,0,0.000625018,0,-0.00420837,0,0,0,0.0702625,-0.0246,0.587978,0,0,0,0,0,0
0.0374282,-1.4916e-06,-1.10836,-5.66412e-07,2.21684,2.87782e-06,0.610673,-3.11685e-06,-7.7374e-05,-0.00404678,-2.93835e-05,0.0140427,0.000149317,-0.0099959,-0.000161727,0,0,0,0.000643674,0,-0.00433557,0,0,0,0.0702632,-0.0246,0.587973,0,0,0,0,0,0
0.0384283,-1.57104e-06,-1.10837,-5.96578e-07,2.21685,3.03111e-06,0.610662,-3.28289e-06,-7.94257e-05,-0.00415558,-3.01629e-05,0.0144178,0.00015328,-0.0102622,-0.000166022,0,0,0,0.00066061,0,-0.00445146,0,0,0,0.0702638,-0.0246,0.587969,0,0,0,0,0,0
0.0394284,-1.65252e-06,-1.10837,-6.27523e-07,2.21687,3.18837e-06,0.610652,-3.45323e-06,-8.14776e-05,-0.00426436,-3.09424e-05,0.0147928,0.000157245,-0.0105285,-0.000170317,0,0,0,0.000677548,0,-0.00456735,0,0,0,0.0702645,-0.0246,0.587964,0,0,0,0,0,0
0.0404285,-1.73606e-06,-1.10837,-6.59248e-07,2.21688,3.3496e-06,0.610641,-3.62785e-06,-8.35284e-05,-0.0043732,-3.17214e-05,0.0151679,0.000161207,-0.0107947,-0.000174609,0,0,0,0.000694467,0,-0.00468324,0,0,0,0.0702652,-0.0246,0.58796,0,0,0,0,0,0
0.0414286,-1.82165e-06,-1.10838,-6.91751e-07,2.2169,3.51478e-06,0.61063,-3.80677e-06,-8.55779e-05,-0.00448208,-3.25001e-05,0.015543,0.000165167,-0.0110609,-0.0001789,0,0,0,0.000711366,0,-0.00479913,0,0,0,0.0702659,-0.0246,0.587955,0,0,0,0,0,0
0.0424288,-1.90929e-06,-1.10838,-7.25036e-07,2.21691,3.68394e-06,0.610619,-3.99e-06,-8.76264e-05,-0.00459103,-3.32783e-05,0.015918,0.000169126,-0.011327,-0.000183189,0,0,0,0.000728246,0,-0.00491504,0,0,0,0.0702666,-0.0246,0.58795,0,0,0,0,0,0
0.0434289,-1.99897e-06,-1.10839,-7.59096e-07,2.21693,3.85704e-06,0.610607,-4.17749e-06,-8.96734e-05,-0.00470002,-3.4056e-05,0.0162931,0.000173082,-0.011593,-0.000187475,0,0,0,0.000745103,0,-0.00503094,0,0,0,0.0702674,-0.0246,0.587945,0,0,0,0,0,0
0.044429,-2.0907e-06,-1.10839,-7.93932e-07,2.21695,4.03409e-06,0.610595,-4.36927e-06,-9.17191e-05,-0.00480907,-3.48332e-05,0.0166681,0.000177036,-0.011859,-0.000191759,0,0,0,0.000761938,0,-0.00514684,0,0,0,0.0702682,-0.0246,0.58794,0,0,0,0,0,0
0.0454292,-2.18448e-06,-1.1084,-8.29549e-07,2.21696,4.21512e-06,0.610583,-4.56535e-06,-9.37636e-05,-0.00491818,-3.56101e-05,0.0170431,0.000180988,-0.0121249,-0.000196042,0,0,0,0.000778753,0,-0.00526276,0,0,0,0.0702689,-0.0246,0.587934,0,0,0,0,0,0
0.0464293,-2.2803e-06,-1.1084,-8.65939e-07,2.21698,4.40007e-06,0.610571,-4.76569e-06,-9.58067e-05,-0.00502734,-3.63863e-05,0.0174181,0.000184938,-0.0123908,-0.000200321,0,0,0,0.000795543,0,-0.00537867,0,0,0,0.0702697,-0.0246,0.587929,0,0,0,0,0,0
0.0474294,-2.37816e-06,-1.10841,-9.03105e-07,2.217,4.58898e-06,0.610558,-4.97031e-06,-9.78483e-05,-0.00513656,-3.71621e-05,0.0177931,0.000188885,-0.0126565,-0.000204598,0,0,0,0.000812309,0,-0.00549458,0,0,0,0.0702705,-0.0246,0.587924,0,0,0,0,0,0
0.0484295,-2.47806e-06,-1.10841,-9.41046e-07,2.21702,4.78183e-06,0.610545,-5.1792e-06,-9.98885e-05,-0.00524584,-3.79373e-05,0.018168,0.00019283,-0.0129222,-0.000208873,0,0,0,0.000829052,0,-0.00561049,0,0,0,0.0702714,-0.0246,0.587918,0,0,0,0,0,0
0.0494296,-2.57999e-06,-1.10842,-9.79762e-07,2.21704,4.97862e-06,0.610532,-5.39237e-06,-0.000101927,-0.00535518,-3.8712e-05,0.018543,0.000196772,-0.0131878,-0.000213145,0,0,0,0.000845771,0,-0.00572641,0,0,0,0.0702722,-0.0246,0.587912,0,0,0,0,0,0
0.0504297,-2.68397e-06,-1.10842,-1.01925e-06,2.21706,5.17935e-06,0.610519,-5.60981e-06,-0.000103964,-0.00546458,-3.94861e-05,0.0189179,0.000200712,-0.0134533,-0.000217415,0,0,0,0.000862465,0,-0.00584234,0,0,0,0.0702731,-0.0246,0.587906,0,0,0,0,0,0
0.0514298,-2.78998e-06,-1.10843,-1.05952e-06,2.21707,5.38402e-06,0.610505,-5.83151e-06,-0.000106,-0.00557405,-4.02598e-05,0.0192928,0.00020465,-0.0137188,-0.000221682,0,0,0,0.000879133,0,-0.00595826,0,0,0,0.070274,-0.0246,0.5879,0,0,0,0,0,0
0.0524299,-2.89803e-06,-1.10844,-1.10055e-06,2.21709,5.59263e-06,0.610491,-6.05748e-06,-0.000108034,-0.00568358,-4.10328e-05,0.0196677,0.000208585,-0.0139842,-0.000225946,0,0,0,0.000895776,0,-0.00607419,0,0,0,0.0702749,-0.0246,0.587894,0,0,0,0,0,0
0.0534301,-3.00811e-06,-1.10844,-1.14237e-06,2.21711,5.80519e-06,0.610477,-6.28773e-06,-0.000110067,-0.00579318,-4.18054e-05,0.0200427,0.000212518,-0.0142495,-0.000230208,0,0,0,0.000912394,0,-0.00619014,0,0,0,0.0702758,-0.0246,0.587888,0,0,0,0,0,0
0.0544302,-3.12022e-06,-1.10845,-1.18495e-06,2.21713,6.02166e-06,0.610462,-6.52222e-06,-0.000112098,-0.00590285,-4.25773e-05,0.0204175,0.000216448,-0.0145147,-0.000234467,0,0,0,0.000928984,0,-0.00630608,0,0,0,0.0702767,-0.0246,0.587882,0,0,0,0,0,0
0.0554304,-3.23438e-06,-1.10845,-1.22831e-06,2.21716,6.24208e-06,0.610447,-6.76099e-06,-0.000114128,-0.00601259,-4.33487e-05,0.0207924,0.000220375,-0.0147798,-0.000238723,0,0,0,0.000945547,0,-0.00642203,0,0,0,0.0702776,-0.0246,0.587875,0,0,0,0,0,0
0.0564306,-3.35055e-06,-1.10846,-1.27243e-06,2.21718,6.46642e-06,0.610432,-7.00402e-06,-0.000116156,-0.0061224,-4.41194e-05,0.0211673,0.0002243,-0.0150449,-0.000242977,0,0,0,0.000962083,0,-0.00653799,0,0,0,0.0702786,-0.0246,0.587869,0,0,0,0,0,0
0.057431,-3.46878e-06,-1.10847,-1.31734e-06,2.2172,6.69474e-06,0.610417,-7.25135e-06,-0.000118182,-0.00623231,-4.48898e-05,0.0215422,0.000228223,-0.0153099,-0.000247228,0,0,0,0.000978594,0,-0.00665398,0,0,0,0.0702796,-0.0246,0.587862,0,0,0,0,0,0
0.0584312,-3.58901e-06,-1.10847,-1.36301e-06,2.21722,6.92692e-06,0.610401,-7.50287e-06,-0.000120207,-0.00634227,-4.56593e-05,0.0219171,0.000232142,-0.0155748,-0.000251476,0,0,0,0.000995073,0,-0.00676994,0,0,0,0.0702806,-0.0246,0.587855,0,0,0,0,0,0
0.0594431,-3.71272e-06,-1.10848,-1.41e-06,2.21724,7.16584e-06,0.610385,-7.76169e-06,-0.000122254,-0.00645357,-4.64373e-05,0.0222963,0.000236104,-0.0158427,-0.000255771,0,0,0,0.00101172,0,-0.00688727,0,0,0,0.0702816,-0.0246,0.587848,0,0,0,0,0,0
0.0604432,-3.83701e-06,-1.10849,-1.45721e-06,2.21727,7.40588e-06,0.610369,-8.02172e-06,-0.000124274,-0.00656369,-4.72053e-05,0.022671,0.000240016,-0.0161074,-0.000260012,0,0,0,0.00102813,0,-0.00700324,0,0,0,0.0702826,-0.0246,0.587841,0,0,0,0,0,0
0.0614433,-3.96332e-06,-1.10849,-1.50519e-06,2.21729,7.64983e-06,0.610353,-8.286e-06,-0.000126293,-0.00667386,-4.79728e-05,0.0230458,0.000243926,-0.0163719,-0.00026425,0,0,0,0.00104452,0,-0.0071192,0,0,0,0.0702837,-0.0246,0.587834,0,0,0,0,0,0
0.0624434,-4.09164e-06,-1.1085,-1.55393e-06,2.21731,7.89769e-06,0.610336,-8.55451e-06,-0.00012831,-0.00678411,-4.87397e-05,0.0234205,0.000247833,-0.0166364,-0.000268485,0,0,0,0.00106087,0,-0.00723518,0,0,0,0.0702847,-0.0246,0.587827,0,0,0,0,0,0
0.0634436,-4.22199e-06,-1.10851,-1.60345e-06,2.21734,8.14947e-06,0.610319,-8.82728e-06,-0.000130326,-0.00689445,-4.95059e-05,0.0237953,0.000251737,-0.0169008,-0.000272717,0,0,0,0.0010772,0,-0.00735116,0,0,0,0.0702858,-0.0246,0.58782,0,0,0,0,0,0
0.0644438,-4.35436e-06,-1.10851,-1.65373e-06,2.21736,8.40516e-06,0.610302,-9.10428e-06,-0.000132339,-0.00700487,-5.02715e-05,0.02417,0.000255638,-0.0171651,-0.000276945,0,0,0,0.00109349,0,-0.00746716,0,0,0,0.0702869,-0.0246,0.587812,0,0,0,0,0,0
0.0654439,-4.48872e-06,-1.10852,-1.70477e-06,2.21738,8.66472e-06,0.610285,-9.38548e-06,-0.00013435,-0.00711537,-5.10362e-05,0.0245447,0.000259535,-0.0174293,-0.00028117,0,0,0,0.00110975,0,-0.00758314,0,0,0,0.070288,-0.0246,0.587805,0,0,0,0,0,0
0.066444,-4.62509e-06,-1.10853,-1.75658e-06,2.21741,8.92818e-06,0.610267,-9.6709e-06,-0.00013636,-0.00722594,-5.18003e-05,0.0249193,0.000263429,-0.0176934,-0.000285392,0,0,0,0.00112598,0,-0.00769913,0,0,0,0.0702891,-0.0246,0.587797,0,0,0,0,0,0
0.0674441,-4.76347e-06,-1.10853,-1.80914e-06,2.21743,9.19553e-06,0.610249,-9.96054e-06,-0.000138367,-0.0073366,-5.25636e-05,0.025294,0.00026732,-0.0179574,-0.00028961,0,0,0,0.00114217,0,-0.00781513,0,0,0,0.0702903,-0.0246,0.587789,0,0,0,0,0,0
0.0684442,-4.90386e-06,-1.10854,-1.86248e-06,2.21746,9.46676e-06,0.610231,-1.02544e-05,-0.000140372,-0.00744735,-5.33262e-05,0.0256686,0.000271207,-0.0182213,-0.000293825,0,0,0,0.00115833,0,-0.00793113,0,0,0,0.0702914,-0.0246,0.587781,0,0,0,0,0,0
0.0694443,-5.04625e-06,-1.10855,-1.91657e-06,2.21749,9.74188e-06,0.610212,-1.05525e-05,-0.000142376,-0.00755818,-5.4088e-05,0.0260432,0.000275091,-0.018485,-0.000298036,0,0,0,0.00117446,0,-0.00804714,0,0,0,0.0702926,-0.0246,0.587773,0,0,0,0,0,0
0.0704444,-5.19064e-06,-1.10856,-1.97142e-06,2.21751,1.00209e-05,0.610194,-1.08547e-05,-0.000144377,-0.0076691,-5.48491e-05,0.0264178,0.000278972,-0.0187487,-0.000302243,0,0,0,0.00119055,0,-0.00816315,0,0,0,0.0702938,-0.0246,0.587765,0,0,0,0,0,0
0.0714445,-5.33703e-06,-1.10856,-2.02704e-06,2.21754,1.03038e-05,0.610175,-1.11612e-05,-0.000146376,-0.00778011,-5.56094e-05,0.0267923,0.000282849,-0.0190122,-0.000306447,0,0,0,0.0012066,0,-0.00827916,0,0,0,0.070295,-0.0246,0.587757,0,0,0,0,0,0
0.0724446,-5.48542e-06,-1.10857,-2.08341e-06,2.21757,1.05905e-05,0.610155,-1.14719e-05,-0.000148373,-0.00789121,-5.63689e-05,0.0271669,0.000286722,-0.0192756,-0.000310647,0,0,0,0.00122262,0,-0.00839519,0,0,0,0.0702962,-0.0246,0.587748,0,0,0,0,0,0
0.0734447,-5.6358e-06,-1.10858,-2.14055e-06,2.21759,1.08811e-05,0.610136,-1.17868e-05,-0.000150368,-0.0080024,-5.71276e-05,0.0275414,0.000290592,-0.019539,-0.000314843,0,0,0,0.0012386,0,-0.00851121,0,0,0,0.0702975,-0.0246,0.58774,0,0,0,0,0,0
0.0744448,-5.78818e-06,-1.10859,-2.19844e-06,2.21762,1.11756e-05,0.610116,-1.21058e-05,-0.00015236,-0.00811369,-5.78856e-05,0.0279159,0.000294458,-0.0198022,-0.000319036,0,0,0,0.00125455,0,-0.00862724,0,0,0,0.0702987,-0.0246,0.587731,0,0,0,0,0,0
0.0754694,-5.94638e-06,-1.1086,-2.25854e-06,2.21765,1.14814e-05,0.610095,-1.24371e-05,-0.000154401,-0.00822774,-5.86617e-05,0.0282995,0.000298417,-0.0200718,-0.000323329,0,0,0,0.00127087,0,-0.00874612,0,0,0,0.0703,-0.0246,0.587722,0,0,0,0,0,0
0.0764695,-6.10278e-06,-1.10861,-2.31797e-06,2.21768,1.17837e-05,0.610075,-1.27647e-05,-0.000156387,-0.00833927,-5.94175e-05,0.0286739,0.000302273,-0.0203347,-0.000327511,0,0,0,0.00128671,0,-0.00886217,0,0,0,0.0703013,-0.0246,0.587713,0,0,0,0,0,0
0.0774696,-6.26117e-06,-1.10861,-2.37815e-06,2.21771,1.20898e-05,0.610054,-1.30964e-05,-0.000158373,-0.00845085,-6.01729e-05,0.0290483,0.000306128,-0.0205975,-0.000331692,0,0,0,0.00130254,0,-0.00897821,0,0,0,0.0703026,-0.0246,0.587704,0,0,0,0,0,0
0.0784697,-6.42154e-06,-1.10862,-2.43908e-06,2.21774,1.23998e-05,0.610034,-1.34323e-05,-0.000160356,-0.00856252,-6.09275e-05,0.0294227,0.000309979,-0.0208602,-0.000335869,0,0,0,0.00131833,0,-0.00909427,0,0,0,0.0703039,-0.0246,0.587695,0,0,0,0,0,0
0.0794698,-6.58389e-06,-1.10863,-2.50077e-06,2.21777,1.27137e-05,0.610012,-1.37724e-05,-0.000162337,-0.0086743,-6.16813e-05,0.0297971,0.000313826,-0.0211228,-0.000340041,0,0,0,0.00133408,0,-0.00921033,0,0,0,0.0703053,-0.0246,0.587686,0,0,0,0,0,0
0.08047,-6.74824e-06,-1.10864,-2.56321e-06,2.2178,1.30314e-05,0.609991,-1.41166e-05,-0.000164316,-0.00878618,-6.24342e-05,0.0301715,0.000317669,-0.0213853,-0.00034421,0,0,0,0.0013498,0,-0.0093264,0,0,0,0.0703066,-0.0246,0.587677,0,0,0,0,0,0
0.0814701,-6.91455e-06,-1.10865,-2.62641e-06,2.21783,1.3353e-05,0.609969,-1.4465e-05,-0.000166292,-0.00889816,-6.31862e-05,0.0305458,0.000321508,-0.0216477,-0.000348374,0,0,0,0.00136547,0,-0.00944247,0,0,0,0.070308,-0.0246,0.587667,0,0,0,0,0,0
0.0824702,-7.08283e-06,-1.10866,-2.69035e-06,2.21786,1.36784e-05,0.609947,-1.48176e-05,-0.000168266,-0.00901024,-6.39373e-05,0.0309201,0.000325343,-0.0219099,-0.000352534,0,0,0,0.0013811,0,-0.00955855,0,0,0,0.0703094,-0.0246,0.587658,0,0,0,0,0,0
0.0834703,-7.25309e-06,-1.10867,-2.75504e-06,2.21789,1.40076e-05,0.609925,-1.51743e-05,-0.000170237,-0.00912243,-6.46875e-05,0.0312944,0.000329174,-0.022172,-0.000356689,0,0,0,0.00139668,0,-0.00967463,0,0,0,0.0703108,-0.0246,0.587648,0,0,0,0,0,0
0.0844704,-7.42531e-06,-1.10868,-2.82049e-06,2.21792,1.43406e-05,0.609903,-1.55352e-05,-0.000172205,-0.00923472,-6.54368e-05,0.0316686,0.000333,-0.0224339,-0.00036084,0,0,0,0.00141223,0,-0.00979072,0,0,0,0.0703122,-0.0246,0.587638,0,0,0,0,0,0
0.0854705,-7.5995e-06,-1.10869,-2.88668e-06,2.21795,1.46774e-05,0.60988,-1.59002e-05,-0.000174172,-0.00934712,-6.61851e-05,0.0320429,0.000336823,-0.0226957,-0.000364987,0,0,0,0.00142773,0,-0.00990681,0,0,0,0.0703136,-0.0246,0.587628,0,0,0,0,0,0
0.0864706,-7.77565e-06,-1.10869,-2.95362e-06,2.21799,1.50181e-05,0.609857,-1.62694e-05,-0.000176135,-0.00945963,-6.69326e-05,0.0324171,0.000340641,-0.0229574,-0.00036913,0,0,0,0.00144319,0,-0.0100229,0,0,0,0.0703151,-0.0246,0.587618,0,0,0,0,0,0
0.0874707,-7.95377e-06,-1.1087,-3.0213e-06,2.21802,1.53626e-05,0.609834,-1.66427e-05,-0.000178096,-0.00957225,-6.76791e-05,0.0327912,0.000344454,-0.023219,-0.000373267,0,0,0,0.00145861,0,-0.010139,0,0,0,0.0703165,-0.0246,0.587608,0,0,0,0,0,0
0.0884708,-8.13384e-06,-1.10871,-3.08974e-06,2.21805,1.57109e-05,0.609811,-1.70202e-05,-0.000180054,-0.00968498,-6.84246e-05,0.0331654,0.000348264,-0.0234804,-0.000377401,0,0,0,0.00147398,0,-0.0102551,0,0,0,0.070318,-0.0246,0.587598,0,0,0,0,0,0
0.0894709,-8.31587e-06,-1.10872,-3.15891e-06,2.21809,1.6063e-05,0.609787,-1.74017e-05,-0.00018201,-0.00979782,-6.91692e-05,0.0335395,0.000352068,-0.0237417,-0.000381529,0,0,0,0.0014893,0,-0.0103713,0,0,0,0.0703195,-0.0246,0.587588,0,0,0,0,0,0
0.090471,-8.49985e-06,-1.10873,-3.22883e-06,2.21812,1.64189e-05,0.609763,-1.77874e-05,-0.000183963,-0.00991078,-6.99128e-05,0.0339136,0.000355869,-0.0240028,-0.000385653,0,0,0,0.00150459,0,-0.0104874,0,0,0,0.070321,-0.0246,0.587577,0,0,0,0,0,0
0.0914721,-8.68597e-06,-1.10874,-3.29956e-06,2.21815,1.6779e-05,0.609738,-1.81776e-05,-0.000185915,-0.010024,-7.06561e-05,0.034288,0.000359669,-0.024264,-0.000389776,0,0,0,0.00151984,0,-0.0106036,0,0,0,0.0703225,-0.0246,0.587567,0,0,0,0,0,0
0.0924784,-8.87503e-06,-1.10875,-3.37142e-06,2.21819,1.71448e-05,0.609714,-1.8574e-05,-0.000187875,-0.0101378,-7.14025e-05,0.0346643,0.000363484,-0.0245265,-0.000393917,0,0,0,0.00153513,0,-0.0107205,0,0,0,0.070324,-0.0246,0.587556,0,0,0,0,0,0
0.0934785,-9.06486e-06,-1.10876,-3.44357e-06,2.21822,1.75121e-05,0.609689,-1.89721e-05,-0.000189819,-0.0102512,-7.21429e-05,0.0350383,0.00036727,-0.0247872,-0.000398026,0,0,0,0.00155026,0,-0.0108366,0,0,0,0.0703256,-0.0246,0.587545,0,0,0,0,0,0
0.0944786,-9.25664e-06,-1.10877,-3.51646e-06,2.21826,1.78831e-05,0.609664,-1.93743e-05,-0.000191761,-0.0103646,-7.28824e-05,0.0354123,0.000371052,-0.0250477,-0.00040213,0,0,0,0.00156536,0,-0.0109528,0,0,0,0.0703272,-0.0246,0.587534,0,0,0,0,0,0
0.0954787,-9.45036e-06,-1.10879,-3.59009e-06,2.2183,1.8258e-05,0.609639,-1.97805e-05,-0.0001937,-0.0104781,-7.3621e-05,0.0357863,0.000374829,-0.0253081,-0.00040623,0,0,0,0.0015804,0,-0.0110689,0,0,0,0.0703287,-0.0246,0.587523,0,0,0,0,0,0
0.0964788,-9.64602e-06,-1.1088,-3.66445e-06,2.21833,1.86367e-05,0.609613,-2.01909e-05,-0.000195636,-0.0105918,-7.43585e-05,0.0361602,0.000378601,-0.0255684,-0.000410324,0,0,0,0.0015954,0,-0.0111851,0,0,0,0.0703303,-0.0246,0.587512,0,0,0,0,0,0
0.0974789,-9.84361e-06,-1.10881,-3.73955e-06,2.21837,1.90191e-05,0.609587,-2.06053e-05,-0.000197569,-0.0107056,-7.50949e-05,0.0365341,0.000382369,-0.0258285,-0.000414414,0,0,0,0.00161035,0,-0.0113013,0,0,0,0.0703319,-0.0246,0.5875,0,0,0,0,0,0
0.098479,-1.00431e-05,-1.10882,-3.81539e-06,2.21841,1.94052e-05,0.609561,-2.10239e-05,-0.000199499,-0.0108195,-7.58303e-05,0.0369079,0.000386131,-0.0260884,-0.000418498,0,0,0,0.00162525,0,-0.0114175,0,0,0,0.0703336,-0.0246,0.587489,0,0,0,0,0,0
0.0994791,-1.02446e-05,-1.10883,-3.89196e-06,2.21844,1.97952e-05,0.609535,-2.14465e-05,-0.000201426,-0.0109335,-7.65646e-05,0.0372817,0.000389889,-0.0263482,-0.000422578,0,0,0,0.0016401,0,-0.0115336,0,0,0,0.0703352,-0.0246,0.587477,0,0,0,0,0,0
0.100479,-1.0448e-05,-1.10884,-3.96928e-06,2.21848,2.01889e-05,0.609508,-2.18732e-05,-0.000203351,-0.0110477,-7.72978e-05,0.0376556,0.000393642,-0.0266078,-0.000426652,0,0,0,0.00165491,0,-0.0116498,0,0,0,0.0703369,-0.0246,0.587466,0,0,0,0,0,0
0.10148,-1.06533e-05,-1.10885,-4.04732e-06,2.21852,2.05863e-05,0.609481,-2.2304e-05,-0.000205272,-0.011162,-7.803e-05,0.0380294,0.00039739,-0.0268673,-0.000430721,0,0,0,0.00166966,0,-0.0117661,0,0,0,0.0703385,-0.0246,0.587454,0,0,0,0,0,0
0.10248,-1.08605e-05,-1.10886,-4.12609e-06,2.21856,2.09875e-05,0.609454,-2.27389e-05,-0.00020719,-0.0112765,-7.8761e-05,0.0384031,0.000401132,-0.0271266,-0.000434785,0,0,0,0.00168436,0,-0.0118823,0,0,0,0.0703402,-0.0246,0.587442,0,0,0,0,0,0
0.10348,-1.10696e-05,-1.10887,-4.20559e-06,2.2186,2.13924e-05,0.609427,-2.31778e-05,-0.000209105,-0.011391,-7.94909e-05,0.0387768,0.000404869,-0.0273858,-0.000438843,0,0,0,0.001699,0,-0.0119985,0,0,0,0.0703419,-0.0246,0.58743,0,0,0,0,0,0
0.10448,-1.12807e-05,-1.10888,-4.28582e-06,2.21863,2.18011e-05,0.609399,-2.36207e-05,-0.000211017,-0.0115057,-8.02197e-05,0.0391504,0.000408602,-0.0276447,-0.000442895,0,0,0,0.0017136,0,-0.0121147,0,0,0,0.0703436,-0.0246,0.587418,0,0,0,0,0,0
0.10548,-1.14936e-05,-1.1089,-4.36677e-06,2.21867,2.22134e-05,0.609371,-2.40677e-05,-0.000212926,-0.0116205,-8.09473e-05,0.0395241,0.000412328,-0.0279035,-0.000446942,0,0,0,0.00172814,0,-0.0122309,0,0,0,0.0703454,-0.0246,0.587406,0,0,0,0,0,0
0.10649,-1.17107e-05,-1.10891,-4.44931e-06,2.21871,2.26339e-05,0.609343,-2.45235e-05,-0.000214852,-0.0117366,-8.16817e-05,0.0399016,0.00041609,-0.0281649,-0.000451028,0,0,0,0.00174279,0,-0.0123484,0,0,0,0.0703471,-0.0246,0.587393,0,0,0,0,0,0
0.107491,-1.19275e-05,-1.10892,-4.53173e-06,2.21876,2.30537e-05,0.609314,-2.49786e-05,-0.000216754,-0.0118518,-8.24066e-05,0.0402751,0.000419805,-0.0284233,-0.000455062,0,0,0,0.00175721,0,-0.0124646,0,0,0,0.0703489,-0.0246,0.587381,0,0,0,0,0,0
0.108492,-1.21464e-05,-1.10893,-4.61497e-06,2.2188,2.34778e-05,0.609286,-2.54383e-05,-0.000218655,-0.0119671,-8.31316e-05,0.0406491,0.00042352,-0.0286819,-0.000459097,0,0,0,0.00177161,0,-0.012581,0,0,0,0.0703507,-0.0246,0.587368,0,0,0,0,0,0
0.109492,-1.2367e-05,-1.10894,-4.69883e-06,2.21884,2.39051e-05,0.609257,-2.59014e-05,-0.000220551,-0.0120825,-8.38545e-05,0.0410226,0.000427225,-0.0289401,-0.000463121,0,0,0,0.00178593,0,-0.0126972,0,0,0,0.0703524,-0.0246,0.587356,0,0,0,0,0,0
0.110492,-1.25895e-05,-1.10896,-4.78342e-06,2.21888,2.43361e-05,0.609228,-2.63687e-05,-0.000222443,-0.012198,-8.45763e-05,0.0413961,0.000430925,-0.029198,-0.00046714,0,0,0,0.0018002,0,-0.0128135,0,0,0,0.0703542,-0.0246,0.587343,0,0,0,0,0,0
0.111492,-1.28138e-05,-1.10897,-4.86873e-06,2.21892,2.47708e-05,0.609198,-2.68399e-05,-0.000224332,-0.0123137,-8.52969e-05,0.0417695,0.000434619,-0.0294558,-0.000471153,0,0,0,0.00181441,0,-0.0129298,0,0,0,0.0703561,-0.0246,0.58733,0,0,0,0,0,0
0.112492,-1.30401e-05,-1.10898,-4.95475e-06,2.21896,2.52091e-05,0.609168,-2.73151e-05,-0.000226218,-0.0124295,-8.60162e-05,0.0421429,0.000438307,-0.0297134,-0.00047516,0,0,0,0.00182856,0,-0.0130461,0,0,0,0.0703579,-0.0246,0.587317,0,0,0,0,0,0
0.113492,-1.32682e-05,-1.10899,-5.0415e-06,2.219,2.56511e-05,0.609138,-2.77943e-05,-0.0002281,-0.0125454,-8.67343e-05,0.0425163,0.00044199,-0.0299708,-0.000479161,0,0,0,0.00184266,0,-0.0131624,0,0,0,0.0703597,-0.0246,0.587304,0,0,0,0,0,0
0.114493,-1.34982e-05,-1.10901,-5.12896e-06,2.21905,2.60969e-05,0.609108,-2.82775e-05,-0.000229979,-0.0126615,-8.74511e-05,0.0428896,0.000445667,-0.030228,-0.000483156,0,0,0,0.0018567,0,-0.0132787,0,0,0,0.0703616,-0.0246,0.58729,0,0,0,0,0,0
0.115493,-1.37301e-05,-1.10902,-5.21713e-06,2.21909,2.65462e-05,0.609078,-2.87647e-05,-0.000231855,-0.0127777,-8.81667e-05,0.0432629,0.000449338,-0.0304851,-0.000487145,0,0,0,0.00187069,0,-0.013395,0,0,0,0.0703635,-0.0246,0.587277,0,0,0,0,0,0
0.116493,-1.39638e-05,-1.10903,-5.30602e-06,2.21913,2.69993e-05,0.609047,-2.92558e-05,-0.000233727,-0.0128941,-8.88811e-05,0.0436361,0.000453003,-0.030742,-0.000491128,0,0,0,0.00188461,0,-0.0135113,0,0,0,0.0703653,-0.0246,0.587263,0,0,0,0,0,0
0.117493,-1.41995e-05,-1.10904,-5.39563e-06,2.21918,2.7456e-05,0.609016,-2.9751e-05,-0.000235595,-0.0130107,-8.95942e-05,0.0440093,0.000456663,-0.0309986,-0.000495105,0,0,0,0.00189848,0,-0.0136276,0,0,0,0.0703672,-0.0246,0.58725,0,0,0,0,0,0
0.118493,-1.44369e-05,-1.10906,-5.48594e-06,2.21922,2.79164e-05,0.608985,-3.02501e-05,-0.00023746,-0.0131273,-9.0306e-05,0.0443825,0.000460316,-0.0312551,-0.000499076,0,0,0,0.00191228,0,-0.0137439,0,0,0,0.0703692,-0.0246,0.587236,0,0,0,0,0,0
0.119493,-1.46763e-05,-1.10907,-5.57697e-06,2.21927,2.83804e-05,0.608953,-3.07532e-05,-0.000239321,-0.0132442,-9.10165e-05,0.0447556,0.000463964,-0.0315114,-0.00050304,0,0,0,0.00192603,0,-0.0138602,0,0,0,0.0703711,-0.0246,0.587222,0,0,0,0,0,0
0.120493,-1.49175e-05,-1.10908,-5.6687e-06,2.21931,2.8848e-05,0.608921,-3.12603e-05,-0.000241179,-0.0133611,-9.17257e-05,0.0451287,0.000467605,-0.0317675,-0.000506998,0,0,0,0.00193971,0,-0.0139766,0,0,0,0.070373,-0.0246,0.587208,0,0,0,0,0,0
0.121493,-1.51605e-05,-1.1091,-5.76114e-06,2.21936,2.93193e-05,0.608889,-3.17713e-05,-0.000243033,-0.0134783,-9.24336e-05,0.0455018,0.000471241,-0.0320235,-0.000510949,0,0,0,0.00195334,0,-0.0140929,0,0,0,0.070375,-0.0246,0.587194,0,0,0,0,0,0
0.122493,-1.54054e-05,-1.10911,-5.85429e-06,2.2194,2.97942e-05,0.608857,-3.22862e-05,-0.000244883,-0.0135956,-9.31401e-05,0.0458748,0.00047487,-0.0322792,-0.000514894,0,0,0,0.0019669,0,-0.0142093,0,0,0,0.0703769,-0.0246,0.58718,0,0,0,0,0,0
0.123493,-1.56522e-05,-1.10913,-5.94815e-06,2.21945,3.02728e-05,0.608824,-3.28051e-05,-0.00024673,-0.013713,-9.38453e-05,0.0462477,0.000478493,-0.0325347,-0.000518833,0,0,0,0.0019804,0,-0.0143257,0,0,0,0.0703789,-0.0246,0.587166,0,0,0,0,0,0
0.124493,-1.59008e-05,-1.10914,-6.04271e-06,2.2195,3.07549e-05,0.608792,-3.33279e-05,-0.000248573,-0.0138306,-9.45492e-05,0.0466207,0.000482109,-0.03279,-0.000522765,0,0,0,0.00199384,0,-0.014442,0,0,0,0.0703809,-0.0246,0.587151,0,0,0,0,0,0
0.125494,-1.61513e-05,-1.10915,-6.13799e-06,2.21954,3.12408e-05,0.608759,-3.38548e-05,-0.000250412,-0.0139484,-9.52519e-05,0.0469937,0.00048572,-0.0330452,-0.000526691,0,0,0,0.00200722,0,-0.0145584,0,0,0,0.0703829,-0.0246,0.587137,0,0,0,0,0,0
0.126494,-1.64036e-05,-1.10917,-6.23395e-06,2.21959,3.17302e-05,0.608725,-3.43854e-05,-0.000252248,-0.0140664,-9.59531e-05,0.0473665,0.000489324,-0.0333001,-0.00053061,0,0,0,0.00202053,0,-0.0146748,0,0,0,0.0703849,-0.0246,0.587122,0,0,0,0,0,0
0.127494,-1.66577e-05,-1.10918,-6.33061e-06,2.21964,3.22231e-05,0.608692,-3.492e-05,-0.000254079,-0.0141844,-9.66528e-05,0.0477393,0.000492922,-0.0335549,-0.000534522,0,0,0,0.00203377,0,-0.0147912,0,0,0,0.070387,-0.0246,0.587107,0,0,0,0,0,0
0.128494,-1.69136e-05,-1.1092,-6.42797e-06,2.21969,3.27197e-05,0.608658,-3.54585e-05,-0.000255907,-0.0143027,-9.73512e-05,0.0481121,0.000496513,-0.0338094,-0.000538427,0,0,0,0.00204696,0,-0.0149076,0,0,0,0.070389,-0.0246,0.587092,0,0,0,0,0,0
0.129494,-1.71714e-05,-1.10921,-6.52603e-06,2.21974,3.32198e-05,0.608624,-3.60009e-05,-0.00025773,-0.0144211,-9.80482e-05,0.0484848,0.000500098,-0.0340637,-0.000542326,0,0,0,0.00206007,0,-0.0150241,0,0,0,0.0703911,-0.0246,0.587077,0,0,0,0,0,0
0.130497,-1.74317e-05,-1.10922,-6.62507e-06,2.21978,3.3725e-05,0.608589,-3.65487e-05,-0.000259556,-0.01454,-9.8746e-05,0.0488586,0.000503687,-0.0343186,-0.00054623,0,0,0,0.00207317,0,-0.0151408,0,0,0,0.0703932,-0.0246,0.587062,0,0,0,0,0,0
0.131497,-1.76931e-05,-1.10924,-6.72452e-06,2.21983,3.42324e-05,0.608555,-3.70989e-05,-0.000261371,-0.0146588,-9.944e-05,0.0492312,0.000507257,-0.0345724,-0.000550113,0,0,0,0.00208615,0,-0.0152573,0,0,0,0.0703952,-0.0246,0.587047,0,0,0,0,0,0
0.132497,-1.79563e-05,-1.10925,-6.82467e-06,2.21988,3.47432e-05,0.60852,-3.76529e-05,-0.000263183,-0.0147777,-0.000100133,0.0496038,0.000510822,-0.0348261,-0.000553991,0,0,0,0.00209906,0,-0.0153737,0,0,0,0.0703973,-0.0246,0.587031,0,0,0,0,0,0
0.133498,-1.82213e-05,-1.10927,-6.92551e-06,2.21993,3.52577e-05,0.608485,-3.82109e-05,-0.000264991,-0.0148968,-0.000100824,0.0499764,0.00051438,-0.0350796,-0.000557862,0,0,0,0.00211192,0,-0.0154902,0,0,0,0.0703995,-0.0246,0.587016,0,0,0,0,0,0
0.134498,-1.84882e-05,-1.10928,-7.02703e-06,2.21998,3.57757e-05,0.60845,-3.87727e-05,-0.000266795,-0.0150161,-0.000101514,0.0503489,0.000517931,-0.0353328,-0.000561725,0,0,0,0.0021247,0,-0.0156066,0,0,0,0.0704016,-0.0246,0.587,0,0,0,0,0,0
0.135498,-1.87568e-05,-1.1093,-7.12925e-06,2.22003,3.62972e-05,0.608414,-3.93383e-05,-0.000268595,-0.0151355,-0.000102202,0.0507214,0.000521475,-0.0355859,-0.000565582,0,0,0,0.00213741,0,-0.0157231,0,0,0,0.0704037,-0.0246,0.586984,0,0,0,0,0,0
0.136498,-1.90272e-05,-1.10931,-7.23215e-06,2.22009,3.68223e-05,0.608378,-3.99078e-05,-0.000270391,-0.0152551,-0.000102889,0.0510938,0.000525012,-0.0358387,-0.000569431,0,0,0,0.00215006,0,-0.0158396,0,0,0,0.0704059,-0.0246,0.586969,0,0,0,0,0,0
0.137498,-1.92994e-05,-1.10933,-7.33573e-06,2.22014,3.73509e-05,0.608342,-4.04812e-05,-0.000272182,-0.0153749,-0.000103575,0.0514662,0.000528543,-0.0360913,-0.000573273,0,0,0,0.00216264,0,-0.015956,0,0,0,0.070408,-0.0246,0.586953,0,0,0,0,0,0
0.138498,-1.95734e-05,-1.10935,-7.44001e-06,2.22019,3.7883e-05,0.608306,-4.10584e-05,-0.00027397,-0.0154949,-0.000104259,0.0518386,0.000532066,-0.0363437,-0.000577107,0,0,0,0.00217514,0,-0.0160725,0,0,0,0.0704102,-0.0246,0.586937,0,0,0,0,0,0
0.139498,-1.98492e-05,-1.10936,-7.54496e-06,2.22024,3.84187e-05,0.608269,-4.16394e-05,-0.000275753,-0.015615,-0.000104941,0.0522109,0.000535583,-0.0365958,-0.000580934,0,0,0,0.00218758,0,-0.016189,0,0,0,0.0704124,-0.0246,0.58692,0,0,0,0,0,0
0.140498,-2.01268e-05,-1.10938,-7.65061e-06,2.22029,3.89579e-05,0.608232,-4.22242e-05,-0.000277532,-0.0157354,-0.000105622,0.0525832,0.000539092,-0.0368478,-0.000584755,0,0,0,0.00219995,0,-0.0163056,0,0,0,0.0704146,-0.0246,0.586904,0,0,0,0,0,0
0.141509,-2.0409e-05,-1.10939,-7.75802e-06,2.22035,3.95062e-05,0.608195,-4.2819e-05,-0.000279327,-0.015857,-0.000106309,0.0529592,0.000542633,-0.0371022,-0.000588609,0,0,0,0.0022124,0,-0.0164233,0,0,0,0.0704168,-0.0246,0.586888,0,0,0,0,0,0
0.142509,-2.06902e-05,-1.10941,-7.86502e-06,2.2204,4.00523e-05,0.608157,-4.34114e-05,-0.000281095,-0.0159778,-0.000106986,0.0533313,0.000546125,-0.0373535,-0.00059241,0,0,0,0.00222459,0,-0.0165398,0,0,0,0.0704191,-0.0246,0.586871,0,0,0,0,0,0
0.143509,-2.09731e-05,-1.10942,-7.9727e-06,2.22045,4.06021e-05,0.60812,-4.40078e-05,-0.000282861,-0.0160987,-0.000107662,0.0537035,0.000549612,-0.0376048,-0.000596208,0,0,0,0.00223674,0,-0.0166564,0,0,0,0.0704213,-0.0246,0.586854,0,0,0,0,0,0
0.144509,-2.12577e-05,-1.10944,-8.08105e-06,2.22051,4.11552e-05,0.608082,-4.46078e-05,-0.000284623,-0.0162197,-0.000108337,0.0540755,0.000553092,-0.0378558,-0.000599997,0,0,0,0.00224881,0,-0.0167729,0,0,0,0.0704235,-0.0246,0.586838,0,0,0,0,0,0
0.145509,-2.15441e-05,-1.10946,-8.19007e-06,2.22056,4.17118e-05,0.608044,-4.52117e-05,-0.00028638,-0.016341,-0.00010901,0.0544475,0.000556565,-0.0381065,-0.000603778,0,0,0,0.00226082,0,-0.0168895,0,0,0,0.0704258,-0.0246,0.586821,0,0,0,0,0,0
0.14651,-2.18323e-05,-1.10947,-8.29976e-06,2.22062,4.22719e-05,0.608006,-4.58193e-05,-0.000288133,-0.0164624,-0.000109682,0.0548195,0.00056003,-0.0383571,-0.000607552,0,0,0,0.00227274,0,-0.017006,0,0,0,0.0704281,-0.0246,0.586804,0,0,0,0,0,0
0.14751,-2.21222e-05,-1.10949,-8.41012e-06,2.22067,4.28355e-05,0.607967,-4.64307e-05,-0.000289882,-0.016584,-0.000110352,0.0551914,0.000563488,-0.0386074,-0.000611318,0,0,0,0.0022846,0,-0.0171226,0,0,0,0.0704304,-0.0246,0.586787,0,0,0,0,0,0
0.14851,-2.24139e-05,-1.10951,-8.52116e-06,2.22073,4.34025e-05,0.607928,-4.70458e-05,-0.000291626,-0.0167058,-0.00011102,0.0555632,0.000566938,-0.0388574,-0.000615076,0,0,0,0.00229638,0,-0.0172392,0,0,0,0.0704327,-0.0246,0.586769,0,0,0,0,0,0
0.14951,-2.27073e-05,-1.10952,-8.63285e-06,2.22078,4.39729e-05,0.607889,-4.76647e-05,-0.000293365,-0.0168278,-0.000111687,0.055935,0.00057038,-0.0391072,-0.000618825,0,0,0,0.00230808,0,-0.0173558,0,0,0,0.070435,-0.0246,0.586752,0,0,0,0,0,0
0.15051,-2.30024e-05,-1.10954,-8.74522e-06,2.22084,4.45468e-05,0.60785,-4.82873e-05,-0.0002951,-0.01695,-0.000112352,0.0563068,0.000573815,-0.0393568,-0.000622567,0,0,0,0.00231971,0,-0.0174724,0,0,0,0.0704373,-0.0246,0.586734,0,0,0,0,0,0
0.15151,-2.32992e-05,-1.10956,-8.85824e-06,2.2209,4.51241e-05,0.60781,-4.89137e-05,-0.000296831,-0.0170724,-0.000113015,0.0566785,0.000577242,-0.0396061,-0.000626301,0,0,0,0.00233126,0,-0.017589,0,0,0,0.0704396,-0.0246,0.586717,0,0,0,0,0,0
0.15251,-2.35979e-05,-1.10958,-8.97194e-06,2.22095,4.57048e-05,0.60777,-4.95438e-05,-0.000298557,-0.017195,-0.000113677,0.0570502,0.000580662,-0.0398552,-0.000630027,0,0,0,0.00234274,0,-0.0177056,0,0,0,0.070442,-0.0246,0.586699,0,0,0,0,0,0
0.15351,-2.38982e-05,-1.10959,-9.08629e-06,2.22101,4.6289e-05,0.60773,-5.01776e-05,-0.000300278,-0.0173177,-0.000114337,0.0574218,0.000584073,-0.040104,-0.000633745,0,0,0,0.00235413,0,-0.0178223,0,0,0,0.0704443,-0.0246,0.586681,0,0,0,0,0,0
0.15451,-2.42002e-05,-1.10961,-9.2013e-06,2.22107,4.68765e-05,0.60769,-5.08152e-05,-0.000301994,-0.0174407,-0.000114996,0.0577933,0.000587477,-0.0403526,-0.000637454,0,0,0,0.00236545,0,-0.0179389,0,0,0,0.0704467,-0.0246,0.586663,0,0,0,0,0,0
0.155511,-2.45039e-05,-1.10963,-9.31696e-06,2.22113,4.74674e-05,0.607649,-5.14564e-05,-0.000303706,-0.0175639,-0.000115653,0.0581648,0.000590873,-0.0406009,-0.000641155,0,0,0,0.00237669,0,-0.0180556,0,0,0,0.0704491,-0.0246,0.586645,0,0,0,0,0,0
0.156521,-2.48127e-05,-1.10965,-9.43455e-06,2.22119,4.80682e-05,0.607608,-5.21083e-05,-0.000305434,-0.0176885,-0.000116316,0.0585403,0.000594301,-0.0408518,-0.000644892,0,0,0,0.00238802,0,-0.0181735,0,0,0,0.0704515,-0.0246,0.586627,0,0,0,0,0,0
0.157522,-2.51199e-05,-1.10966,-9.55153e-06,2.22125,4.8666e-05,0.607567,-5.27569e-05,-0.000307134,-0.0178121,-0.000116968,0.0589117,0.000597676,-0.0410995,-0.000648571,0,0,0,0.00239905,0,-0.0182902,0,0,0,0.0704539,-0.0246,0.586609,0,0,0,0,0,0
0.158522,-2.54287e-05,-1.10968,-9.66916e-06,2.22131,4.92671e-05,0.607525,-5.34092e-05,-0.000308832,-0.0179359,-0.00011762,0.059283,0.000601048,-0.0413471,-0.000652247,0,0,0,0.00241005,0,-0.0184068,0,0,0,0.0704563,-0.0246,0.58659,0,0,0,0,0,0
0.159522,-2.57393e-05,-1.1097,-9.78744e-06,2.22136,4.98715e-05,0.607484,-5.40652e-05,-0.000310524,-0.0180599,-0.00011827,0.0596543,0.000604411,-0.0415943,-0.000655914,0,0,0,0.00242097,0,-0.0185235,0,0,0,0.0704587,-0.0246,0.586572,0,0,0,0,0,0
0.160522,-2.60515e-05,-1.10972,-9.90637e-06,2.22142,5.04794e-05,0.607442,-5.47249e-05,-0.000312212,-0.0181841,-0.000118918,0.0600255,0.000607766,-0.0418414,-0.000659573,0,0,0,0.00243181,0,-0.0186402,0,0,0,0.0704611,-0.0246,0.586553,0,0,0,0,0,0
0.161522,-2.63655e-05,-1.10974,-1.00259e-05,2.22149,5.10905e-05,0.6074,-5.53882e-05,-0.000313895,-0.0183085,-0.000119565,0.0603967,0.000611113,-0.0420882,-0.000663222,0,0,0,0.00244257,0,-0.0187569,0,0,0,0.0704636,-0.0246,0.586534,0,0,0,0,0,0
0.162522,-2.66811e-05,-1.10975,-1.01462e-05,2.22155,5.17051e-05,0.607357,-5.60551e-05,-0.000315574,-0.0184331,-0.00012021,0.0607678,0.000614451,-0.0423347,-0.000666863,0,0,0,0.00245324,0,-0.0188736,0,0,0,0.070466,-0.0246,0.586515,0,0,0,0,0,0
0.163522,-2.69983e-05,-1.10977,-1.0267e-05,2.22161,5.23229e-05,0.607315,-5.67256e-05,-0.000317247,-0.0185579,-0.000120853,0.0611388,0.000617781,-0.0425809,-0.000670496,0,0,0,0.00246383,0,-0.0189904,0,0,0,0.0704685,-0.0246,0.586496,0,0,0,0,0,0
0.164522,-2.73173e-05,-1.10979,-1.03885e-05,2.22167,5.29441e-05,0.607272,-5.73998e-05,-0.000318915,-0.0186829,-0.000121494,0.0615098,0.000621103,-0.0428269,-0.000674119,0,0,0,0.00247434,0,-0.0191071,0,0,0,0.070471,-0.0246,0.586477,0,0,0,0,0,0
0.165522,-2.76379e-05,-1.10981,-1.05107e-05,2.22173,5.35685e-05,0.607229,-5.80776e-05,-0.000320578,-0.0188082,-0.000122133,0.0618808,0.000624416,-0.0430726,-0.000677734,0,0,0,0.00248477,0,-0.0192238,0,0,0,0.0704735,-0.0246,0.586458,0,0,0,0,0,0
0.166522,-2.79602e-05,-1.10983,-1.06335e-05,2.22179,5.41963e-05,0.607186,-5.8759e-05,-0.000322237,-0.0189336,-0.000122771,0.0622516,0.000627721,-0.043318,-0.000681339,0,0,0,0.00249511,0,-0.0193406,0,0,0,0.0704759,-0.0246,0.586439,0,0,0,0,0,0
0.167523,-2.82841e-05,-1.10985,-1.07569e-05,2.22186,5.48274e-05,0.607142,-5.9444e-05,-0.00032389,-0.0190593,-0.000123407,0.0626225,0.000631017,-0.0435632,-0.000684936,0,0,0,0.00250536,0,-0.0194574,0,0,0,0.0704785,-0.0246,0.586419,0,0,0,0,0,0
0.168523,-2.86097e-05,-1.10987,-1.08809e-05,2.22192,5.54618e-05,0.607098,-6.01326e-05,-0.000325538,-0.0191852,-0.000124041,0.0629932,0.000634304,-0.0438081,-0.000688523,0,0,0,0.00251554,0,-0.0195741,0,0,0,0.070481,-0.0246,0.5864,0,0,0,0,0,0
0.169523,-2.89369e-05,-1.10989,-1.10056e-05,2.22198,5.60994e-05,0.607054,-6.08248e-05,-0.000327181,-0.0193113,-0.000124673,0.0633639,0.000637582,-0.0440527,-0.000692102,0,0,0,0.00252562,0,-0.0196909,0,0,0,0.0704835,-0.0246,0.58638,0,0,0,0,0,0
0.170523,-2.92657e-05,-1.10991,-1.11309e-05,2.22205,5.67403e-05,0.60701,-6.15205e-05,-0.000328819,-0.0194376,-0.000125304,0.0637346,0.000640852,-0.044297,-0.000695671,0,0,0,0.00253562,0,-0.0198077,0,0,0,0.070486,-0.0246,0.58636,0,0,0,0,0,0
0.171523,-2.95962e-05,-1.10993,-1.12569e-05,2.22211,5.73845e-05,0.606965,-6.22199e-05,-0.000330452,-0.0195641,-0.000125932,0.0641052,0.000644113,-0.044541,-0.000699231,0,0,0,0.00254553,0,-0.0199245,0,0,0,0.0704886,-0.0246,0.58634,0,0,0,0,0,0
0.172523,-2.99283e-05,-1.10995,-1.13835e-05,2.22217,5.80319e-05,0.606921,-6.29227e-05,-0.000332079,-0.0196909,-0.000126559,0.0644757,0.000647365,-0.0447848,-0.000702782,0,0,0,0.00255536,0,-0.0200413,0,0,0,0.0704911,-0.0246,0.58632,0,0,0,0,0,0
0.173523,-3.02621e-05,-1.10997,-1.15107e-05,2.22224,5.86827e-05,0.606875,-6.36292e-05,-0.000333702,-0.0198179,-0.000127184,0.0648462,0.000650609,-0.0450283,-0.000706324,0,0,0,0.00256509,0,-0.0201582,0,0,0,0.0704937,-0.0246,0.5863,0,0,0,0,0,0
0.174523,-3.05975e-05,-1.10999,-1.16385e-05,2.2223,5.93367e-05,0.60683,-6.43392e-05,-0.000335319,-0.0199451,-0.000127807,0.0652166,0.000653844,-0.0452715,-0.000709856,0,0,0,0.00257474,0,-0.020275,0,0,0,0.0704963,-0.0246,0.58628,0,0,0,0,0,0
0.175524,-3.09344e-05,-1.11001,-1.17669e-05,2.22237,5.99938e-05,0.606785,-6.50526e-05,-0.00033693,-0.0200725,-0.000128428,0.065587,0.000657069,-0.0455144,-0.000713378,0,0,0,0.0025843,0,-0.0203919,0,0,0,0.0704989,-0.0246,0.586259,0,0,0,0,0,0
0.176524,-3.1273e-05,-1.11003,-1.1896e-05,2.22244,6.06541e-05,0.606739,-6.57696e-05,-0.000338537,-0.0202002,-0.000129047,0.0659573,0.000660285,-0.0457571,-0.000716891,0,0,0,0.00259377,0,-0.0205087,0,0,0,0.0705014,-0.0246,0.586239,0,0,0,0,0,0
0.177524,-3.16132e-05,-1.11005,-1.20257e-05,2.2225,6.13177e-05,0.606693,-6.649e-05,-0.000340138,-0.0203281,-0.000129664,0.0663275,0.000663492,-0.0459994,-0.000720394,0,0,0,0.00260315,0,-0.0206256,0,0,0,0.0705041,-0.0246,0.586218,0,0,0,0,0,0
0.178605,-3.19828e-05,-1.11007,-1.21666e-05,2.22257,6.20388e-05,0.606643,-6.7273e-05,-0.000341888,-0.0204655,-0.000130339,0.0667279,0.000666992,-0.0462624,-0.000724216,0,0,0,0.00261363,0,-0.0207519,0,0,0,0.0705069,-0.0246,0.586196,0,0,0,0,0,0
0.179605,-3.23263e-05,-1.11009,-1.22975e-05,2.22264,6.2709e-05,0.606596,-6.80007e-05,-0.000343452,-0.0205949,-0.000130942,0.0670977,0.000670135,-0.0465027,-0.000727654,0,0,0,0.00262238,0,-0.0208688,0,0,0,0.0705095,-0.0246,0.586175,0,0,0,0,0,0
0.180617,-3.26757e-05,-1.11011,-1.24308e-05,2.22271,6.33908e-05,0.606549,-6.8741e-05,-0.00034506,-0.020725,-0.000131563,0.0674723,0.00067336,-0.0467473,-0.000731177,0,0,0,0.00263166,0,-0.0209871,0,0,0,0.0705122,-0.0246,0.586154,0,0,0,0,0,0
0.181618,-3.30223e-05,-1.11013,-1.25629e-05,2.22278,6.40673e-05,0.606502,-6.94757e-05,-0.000346635,-0.020854,-0.000132171,0.0678422,0.000676522,-0.0469882,-0.000734633,0,0,0,0.0026406,0,-0.0211041,0,0,0,0.0705148,-0.0246,0.586133,0,0,0,0,0,0
0.182618,-3.33706e-05,-1.11015,-1.26957e-05,2.22285,6.47471e-05,0.606455,-7.02139e-05,-0.000348208,-0.0209831,-0.000132778,0.0682121,0.000679681,-0.047229,-0.000738087,0,0,0,0.00264951,0,-0.021221,0,0,0,0.0705175,-0.0246,0.586111,0,0,0,0,0,0
0.183618,-3.37204e-05,-1.11017,-1.28291e-05,2.22291,6.543e-05,0.606407,-7.09555e-05,-0.000349776,-0.0211124,-0.000133383,0.0685819,0.000682831,-0.0474696,-0.00074153,0,0,0,0.00265834,0,-0.0213379,0,0,0,0.0705201,-0.0246,0.58609,0,0,0,0,0,0
0.184618,-3.40717e-05,-1.11019,-1.29631e-05,2.22298,6.6116e-05,0.60636,-7.17005e-05,-0.000351338,-0.0212419,-0.000133987,0.0689517,0.000685971,-0.0477098,-0.000744964,0,0,0,0.00266706,0,-0.0214548,0,0,0,0.0705228,-0.0246,0.586069,0,0,0,0,0,0
0.185618,-3.44247e-05,-1.11022,-1.30977e-05,2.22305,6.68052e-05,0.606312,-7.2449e-05,-0.000352895,-0.0213717,-0.000134588,0.0693214,0.000689102,-0.0479497,-0.000748387,0,0,0,0.0026757,0,-0.0215718,0,0,0,0.0705255,-0.0246,0.586047,0,0,0,0,0,0
0.186618,-3.47792e-05,-1.11024,-1.32329e-05,2.22312,6.74975e-05,0.606264,-7.32009e-05,-0.000354446,-0.0215017,-0.000135187,0.069691,0.000692223,-0.0481892,-0.0007518,0,0,0,0.00268423,0,-0.0216887,0,0,0,0.0705281,-0.0246,0.586025,0,0,0,0,0,0
0.187618,-3.51352e-05,-1.11026,-1.33687e-05,2.22319,6.81929e-05,0.606215,-7.39562e-05,-0.000355991,-0.021632,-0.000135785,0.0700606,0.000695334,-0.0484285,-0.000755204,0,0,0,0.00269268,0,-0.0218057,0,0,0,0.0705308,-0.0246,0.586004,0,0,0,0,0,0
0.188618,-3.54928e-05,-1.11028,-1.35051e-05,2.22326,6.88914e-05,0.606166,-7.47148e-05,-0.00035753,-0.0217625,-0.00013638,0.07043,0.000698435,-0.0486675,-0.000758596,0,0,0,0.00270103,0,-0.0219227,0,0,0,0.0705335,-0.0246,0.585982,0,0,0,0,0,0
0.189618,-3.58519e-05,-1.1103,-1.36421e-05,2.22333,6.9593e-05,0.606117,-7.54769e-05,-0.000359064,-0.0218933,-0.000136973,0.0707994,0.000701527,-0.0489061,-0.000761979,0,0,0,0.00270928,0,-0.0220397,0,0,0,0.0705362,-0.0246,0.58596,0,0,0,0,0,0
0.190618,-3.62125e-05,-1.11032,-1.37797e-05,2.2234,7.02977e-05,0.606068,-7.62423e-05,-0.000360592,-0.0220243,-0.000137565,0.0711688,0.000704609,-0.0491445,-0.000765351,0,0,0,0.00271743,0,-0.0221567,0,0,0,0.070539,-0.0246,0.585937,0,0,0,0,0,0
0.191619,-3.65746e-05,-1.11035,-1.39179e-05,2.22348,7.10054e-05,0.606019,-7.70111e-05,-0.000362115,-0.0221555,-0.000138154,0.0715381,0.00070768,-0.0493825,-0.000768712,0,0,0,0.00272549,0,-0.0222737,0,0,0,0.0705417,-0.0246,0.585915,0,0,0,0,0,0
0.192619,-3.69383e-05,-1.11037,-1.40566e-05,2.22355,7.17162e-05,0.605969,-7.77833e-05,-0.000363631,-0.022287,-0.000138741,0.0719073,0.000710742,-0.0496202,-0.000772064,0,0,0,0.00273345,0,-0.0223907,0,0,0,0.0705444,-0.0246,0.585893,0,0,0,0,0,0
0.193619,-3.73035e-05,-1.11039,-1.41959e-05,2.22362,7.24301e-05,0.605919,-7.85587e-05,-0.000365142,-0.0224188,-0.000139326,0.0722764,0.000713794,-0.0498576,-0.000775404,0,0,0,0.00274131,0,-0.0225077,0,0,0,0.0705472,-0.0246,0.58587,0,0,0,0,0,0
0.194619,-3.76702e-05,-1.11041,-1.43359e-05,2.22369,7.3147e-05,0.605869,-7.93375e-05,-0.000366646,-0.0225508,-0.000139909,0.0726455,0.000716835,-0.0500946,-0.000778734,0,0,0,0.00274908,0,-0.0226248,0,0,0,0.0705499,-0.0246,0.585848,0,0,0,0,0,0
0.195619,-3.80383e-05,-1.11044,-1.44764e-05,2.22377,7.3867e-05,0.605819,-8.01197e-05,-0.000368145,-0.022683,-0.00014049,0.0730144,0.000719867,-0.0503314,-0.000782053,0,0,0,0.00275674,0,-0.0227418,0,0,0,0.0705527,-0.0246,0.585825,0,0,0,0,0,0
0.196619,-3.8408e-05,-1.11046,-1.46175e-05,2.22384,7.45899e-05,0.605768,-8.09051e-05,-0.000369638,-0.0228155,-0.000141069,0.0733834,0.000722888,-0.0505678,-0.000785362,0,0,0,0.00276431,0,-0.0228589,0,0,0,0.0705554,-0.0246,0.585802,0,0,0,0,0,0
0.197619,-3.87792e-05,-1.11048,-1.47591e-05,2.22391,7.5316e-05,0.605718,-8.16939e-05,-0.000371125,-0.0229483,-0.000141645,0.0737522,0.000725899,-0.0508039,-0.00078866,0,0,0,0.00277177,0,-0.0229759,0,0,0,0.0705582,-0.0246,0.585779,0,0,0,0,0,0
0.198619,-3.91519e-05,-1.1105,-1.49014e-05,2.22399,7.60449e-05,0.605667,-8.2486e-05,-0.000372606,-0.0230813,-0.00014222,0.074121,0.000728899,-0.0510396,-0.000791946,0,0,0,0.00277913,0,-0.023093,0,0,0,0.070561,-0.0246,0.585756,0,0,0,0,0,0
0.19962,-3.9526e-05,-1.11053,-1.50442e-05,2.22406,7.6777e-05,0.605615,-8.32813e-05,-0.000374081,-0.0232146,-0.000142792,0.0744897,0.000731889,-0.051275,-0.000795223,0,0,0,0.0027864,0,-0.0232101,0,0,0,0.0705638,-0.0246,0.585733,0,0,0,0,0,0
0.20062,-3.99016e-05,-1.11055,-1.51876e-05,2.22414,7.75119e-05,0.605564,-8.40799e-05,-0.00037555,-0.0233482,-0.000143362,0.0748583,0.000734869,-0.0515101,-0.000798487,0,0,0,0.00279356,0,-0.0233272,0,0,0,0.0705666,-0.0246,0.585709,0,0,0,0,0,0
0.20162,-4.02787e-05,-1.11058,-1.53315e-05,2.22421,7.82498e-05,0.605512,-8.48817e-05,-0.000377013,-0.023482,-0.00014393,0.0752269,0.000737838,-0.0517449,-0.000801741,0,0,0,0.00280061,0,-0.0234443,0,0,0,0.0705694,-0.0246,0.585686,0,0,0,0,0,0
0.20262,-4.06572e-05,-1.1106,-1.5476e-05,2.22429,7.89907e-05,0.60546,-8.56868e-05,-0.000378469,-0.023616,-0.000144496,0.0755953,0.000740796,-0.0519793,-0.000804984,0,0,0,0.00280757,0,-0.0235614,0,0,0,0.0705722,-0.0246,0.585662,0,0,0,0,0,0
0.20362,-4.10371e-05,-1.11062,-1.56211e-05,2.22436,7.97345e-05,0.605408,-8.64951e-05,-0.00037992,-0.0237504,-0.00014506,0.0759637,0.000743744,-0.0522133,-0.000808215,0,0,0,0.00281442,0,-0.0236786,0,0,0,0.070575,-0.0246,0.585639,0,0,0,0,0,0
0.20462,-4.14185e-05,-1.11065,-1.57667e-05,2.22444,8.04813e-05,0.605355,-8.73066e-05,-0.000381364,-0.023885,-0.000145622,0.076332,0.00074668,-0.052447,-0.000811436,0,0,0,0.00282117,0,-0.0237957,0,0,0,0.0705778,-0.0246,0.585615,0,0,0,0,0,0
0.20562,-4.18014e-05,-1.11067,-1.59129e-05,2.22452,8.12309e-05,0.605303,-8.81213e-05,-0.000382802,-0.0240198,-0.000146181,0.0767003,0.000749607,-0.0526804,-0.000814645,0,0,0,0.00282781,0,-0.0239129,0,0,0,0.0705806,-0.0246,0.585591,0,0,0,0,0,0
0.20662,-4.21856e-05,-1.11069,-1.60597e-05,2.22459,8.19835e-05,0.60525,-8.89393e-05,-0.000384234,-0.0241549,-0.000146738,0.0770684,0.000752522,-0.0529134,-0.000817842,0,0,0,0.00283435,0,-0.02403,0,0,0,0.0705835,-0.0246,0.585567,0,0,0,0,0,0
0.20762,-4.25713e-05,-1.11072,-1.6207e-05,2.22467,8.2739e-05,0.605197,-8.97604e-05,-0.000385659,-0.0242903,-0.000147293,0.0774365,0.000755426,-0.0531461,-0.000821028,0,0,0,0.00284078,0,-0.0241472,0,0,0,0.0705863,-0.0246,0.585543,0,0,0,0,0,0
0.20862,-4.29584e-05,-1.11074,-1.63548e-05,2.22475,8.34974e-05,0.605143,-9.05847e-05,-0.000387078,-0.024426,-0.000147845,0.0778045,0.00075832,-0.0533785,-0.000824203,0,0,0,0.00284711,0,-0.0242644,0,0,0,0.0705892,-0.0246,0.585519,0,0,0,0,0,0
0.20962,-4.3347e-05,-1.11077,-1.65033e-05,2.22483,8.42587e-05,0.60509,-9.14121e-05,-0.000388491,-0.0245619,-0.000148396,0.0781724,0.000761202,-0.0536104,-0.000827366,0,0,0,0.00285333,0,-0.0243816,0,0,0,0.070592,-0.0246,0.585494,0,0,0,0,0,0
0.210621,-4.37369e-05,-1.11079,-1.66522e-05,2.22491,8.50229e-05,0.605036,-9.22427e-05,-0.000389898,-0.0246982,-0.000148944,0.0785403,0.000764074,-0.0538421,-0.000830517,0,0,0,0.00285944,0,-0.0244988,0,0,0,0.0705949,-0.0246,0.58547,0,0,0,0,0,0
0.211621,-4.41283e-05,-1.11082,-1.68017e-05,2.22498,8.57899e-05,0.604982,-9.30764e-05,-0.000391298,-0.0248346,-0.00014949,0.078908,0.000766934,-0.0540733,-0.000833657,0,0,0,0.00286545,0,-0.024616,0,0,0,0.0705977,-0.0246,0.585445,0,0,0,0,0,0
0.212621,-4.4521e-05,-1.11084,-1.69518e-05,2.22506,8.65597e-05,0.604927,-9.39133e-05,-0.000392692,-0.0249714,-0.000150033,0.0792757,0.000769783,-0.0543042,-0.000836785,0,0,0,0.00287134,0,-0.0247332,0,0,0,0.0706006,-0.0246,0.58542,0,0,0,0,0,0
0.213621,-4.49151e-05,-1.11087,-1.71024e-05,2.22514,8.73324e-05,0.604873,-9.47533e-05,-0.000394079,-0.0251084,-0.000150574,0.0796433,0.000772621,-0.0545348,-0.000839901,0,0,0,0.00287713,0,-0.0248504,0,0,0,0.0706035,-0.0246,0.585395,0,0,0,0,0,0
0.214621,-4.53106e-05,-1.11089,-1.72535e-05,2.22522,8.8108e-05,0.604818,-9.55964e-05,-0.000395459,-0.0252458,-0.000151113,0.0800108,0.000775448,-0.054765,-0.000843006,0,0,0,0.00288281,0,-0.0249677,0,0,0,0.0706064,-0.0246,0.58537,0,0,0,0,0,0
0.215621,-4.57075e-05,-1.11092,-1.74052e-05,2.2253,8.88863e-05,0.604763,-9.64426e-05,-0.000396834,-0.0253834,-0.00015165,0.0803782,0.000778263,-0.0549948,-0.000846098,0,0,0,0.00288838,0,-0.0250849,0,0,0,0.0706093,-0.0246,0.585345,0,0,0,0,0,0
0.216621,-4.61057e-05,-1.11094,-1.75573e-05,2.22538,8.96675e-05,0.604708,-9.72918e-05,-0.000398201,-0.0255212,-0.000152184,0.0807455,0.000781067,-0.0552243,-0.000849178,0,0,0,0.00289384,0,-0.0252022,0,0,0,0.0706121,-0.0246,0.58532,0,0,0,0,0,0
0.217621,-4.65053e-05,-1.11097,-1.77101e-05,2.22547,9.04514e-05,0.604652,-9.81442e-05,-0.000399562,-0.0256594,-0.000152716,0.0811128,0.000783859,-0.0554534,-0.000852247,0,0,0,0.00289919,0,-0.0253195,0,0,0,0.070615,-0.0246,0.585295,0,0,0,0,0,0
0.218621,-4.69063e-05,-1.11099,-1.78633e-05,2.22555,9.12381e-05,0.604597,-9.89996e-05,-0.000400917,-0.0257978,-0.000153246,0.08148,0.00078664,-0.0556821,-0.000855303,0,0,0,0.00290443,0,-0.0254367,0,0,0,0.0706179,-0.0246,0.585269,0,0,0,0,0,0
0.219621,-4.73086e-05,-1.11102,-1.80171e-05,2.22563,9.20276e-05,0.604541,-9.9858e-05,-0.000402265,-0.0259366,-0.000153773,0.0818471,0.000789409,-0.0559104,-0.000858347,0,0,0,0.00290956,0,-0.025554,0,0,0,0.0706209,-0.0246,0.585244,0,0,0,0,0,0
0.220622,-4.77122e-05,-1.11105,-1.81714e-05,2.22571,9.28198e-05,0.604485,-0.000100719,-0.000403606,-0.0260756,-0.000154298,0.0822141,0.000792166,-0.0561384,-0.000861379,0,0,0,0.00291457,0,-0.0256713,0,0,0,0.0706238,-0.0246,0.585218,0,0,0,0,0,0
0.221622,-4.81172e-05,-1.11107,-1.83263e-05,2.22579,9.36148e-05,0.604428,-0.000101584,-0.00040494,-0.0262149,-0.000154821,0.082581,0.000794912,-0.056366,-0.000864398,0,0,0,0.00291947,0,-0.0257887,0,0,0,0.0706267,-0.0246,0.585192,0,0,0,0,0,0
0.222622,-4.85235e-05,-1.1111,-1.84816e-05,2.22588,9.44126e-05,0.604372,-0.000102451,-0.000406268,-0.0263545,-0.000155341,0.0829478,0.000797646,-0.0565932,-0.000867405,0,0,0,0.00292426,0,-0.025906,0,0,0,0.0706296,-0.0246,0.585166,0,0,0,0,0,0
0.223622,-4.89311e-05,-1.11113,-1.86375e-05,2.22596,9.5213e-05,0.604315,-0.000103322,-0.000407589,-0.0264944,-0.000155859,0.0833145,0.000800368,-0.0568201,-0.0008704,0,0,0,0.00292894,0,-0.0260233,0,0,0,0.0706325,-0.0246,0.58514,0,0,0,0,0,0
0.224622,-4.93401e-05,-1.11115,-1.87939e-05,2.22604,9.60162e-05,0.604258,-0.000104195,-0.000408903,-0.0266346,-0.000156374,0.0836812,0.000803078,-0.0570466,-0.000873382,0,0,0,0.0029335,0,-0.0261407,0,0,0,0.0706355,-0.0246,0.585114,0,0,0,0,0,0
0.225622,-4.97503e-05,-1.11118,-1.89508e-05,2.22613,9.6822e-05,0.604201,-0.000105072,-0.00041021,-0.026775,-0.000156887,0.0840477,0.000805777,-0.0572726,-0.000876352,0,0,0,0.00293794,0,-0.026258,0,0,0,0.0706384,-0.0246,0.585088,0,0,0,0,0,0
0.226622,-5.01619e-05,-1.11121,-1.91082e-05,2.22621,9.76306e-05,0.604143,-0.000105951,-0.00041151,-0.0269158,-0.000157398,0.0844142,0.000808463,-0.0574983,-0.000879308,0,0,0,0.00294227,0,-0.0263754,0,0,0,0.0706414,-0.0246,0.585062,0,0,0,0,0,0
0.227622,-5.05747e-05,-1.11123,-1.92661e-05,2.2263,9.84418e-05,0.604085,-0.000106834,-0.000412804,-0.0270569,-0.000157906,0.0847806,0.000811137,-0.0577236,-0.000882253,0,0,0,0.00294649,0,-0.0264927,0,0,0,0.0706443,-0.0246,0.585035,0,0,0,0,0,0
0.228622,-5.09889e-05,-1.11126,-1.94246e-05,2.22638,9.92557e-05,0.604027,-0.000107719,-0.000414091,-0.0271982,-0.000158412,0.0851469,0.000813799,-0.0579486,-0.000885184,0,0,0,0.00295059,0,-0.0266101,0,0,0,0.0706473,-0.0246,0.585009,0,0,0,0,0,0
0.229623,-5.14043e-05,-1.11129,-1.95835e-05,2.22647,0.000100072,0.603969,-0.000108607,-0.00041537,-0.0273399,-0.000158915,0.085513,0.000816449,-0.0581731,-0.000888103,0,0,0,0.00295457,0,-0.0267275,0,0,0,0.0706502,-0.0246,0.584982,0,0,0,0,0,0
0.230632,-5.18249e-05,-1.11132,-1.97445e-05,2.22655,0.000100899,0.60391,-0.000109507,-0.00041666,-0.027483,-0.000159422,0.0858827,0.00081912,-0.0583996,-0.000891045,0,0,0,0.00295855,0,-0.026846,0,0,0,0.0706532,-0.0246,0.584955,0,0,0,0,0,0
0.231632,-5.22429e-05,-1.11134,-1.99044e-05,2.22664,0.000101721,0.603852,-0.000110401,-0.00041792,-0.0276255,-0.000159919,0.0862486,0.000821737,-0.0586231,-0.000893929,0,0,0,0.00296221,0,-0.0269634,0,0,0,0.0706562,-0.0246,0.584928,0,0,0,0,0,0
0.232632,-5.26621e-05,-1.11137,-2.00648e-05,2.22673,0.000102545,0.603793,-0.000111298,-0.000419179,-0.027768,-0.000160415,0.0866145,0.000824349,-0.0588464,-0.000896808,0,0,0,0.00296584,0,-0.0270809,0,0,0,0.0706591,-0.0246,0.584901,0,0,0,0,0,0
0.233632,-5.30826e-05,-1.1114,-2.02257e-05,2.22681,0.000103372,0.603734,-0.000112197,-0.00042043,-0.0279109,-0.000160908,0.0869804,0.00082695,-0.0590694,-0.000899675,0,0,0,0.00296935,0,-0.0271983,0,0,0,0.0706621,-0.0246,0.584873,0,0,0,0,0,0
0.234632,-5.35043e-05,-1.11143,-2.03872e-05,2.2269,0.000104202,0.603674,-0.0001131,-0.000421675,-0.0280541,-0.000161399,0.0873461,0.000829538,-0.0592919,-0.000902528,0,0,0,0.00297273,0,-0.0273157,0,0,0,0.0706651,-0.0246,0.584846,0,0,0,0,0,0
0.235633,-5.39273e-05,-1.11146,-2.05491e-05,2.22699,0.000105034,0.603615,-0.000114005,-0.000422912,-0.0281976,-0.000161887,0.0877117,0.000832113,-0.0595141,-0.000905368,0,0,0,0.002976,0,-0.0274332,0,0,0,0.070668,-0.0246,0.584819,0,0,0,0,0,0
0.236633,-5.43514e-05,-1.11148,-2.07115e-05,2.22708,0.000105869,0.603555,-0.000114914,-0.000424142,-0.0283414,-0.000162373,0.0880772,0.000834675,-0.0597358,-0.000908195,0,0,0,0.00297915,0,-0.0275507,0,0,0,0.070671,-0.0246,0.584791,0,0,0,0,0,0
0.237633,-5.47769e-05,-1.11151,-2.08743e-05,2.22717,0.000106706,0.603495,-0.000115825,-0.000425365,-0.0284855,-0.000162856,0.0884427,0.000837225,-0.0599571,-0.000911009,0,0,0,0.00298218,0,-0.0276681,0,0,0,0.070674,-0.0246,0.584763,0,0,0,0,0,0
0.238633,-5.52035e-05,-1.11154,-2.10377e-05,2.22726,0.000107546,0.603435,-0.000116739,-0.00042658,-0.0286299,-0.000163337,0.088808,0.000839762,-0.060178,-0.000913809,0,0,0,0.00298508,0,-0.0277856,0,0,0,0.070677,-0.0246,0.584736,0,0,0,0,0,0
0.239633,-5.56313e-05,-1.11157,-2.12015e-05,2.22734,0.000108389,0.603375,-0.000117655,-0.000427789,-0.0287747,-0.000163815,0.0891732,0.000842287,-0.0603985,-0.000916595,0,0,0,0.00298786,0,-0.0279031,0,0,0,0.07068,-0.0246,0.584708,0,0,0,0,0,0
0.240633,-5.60603e-05,-1.1116,-2.13658e-05,2.22743,0.000109233,0.603314,-0.000118575,-0.00042899,-0.0289197,-0.00016429,0.0895384,0.000844798,-0.0606186,-0.000919368,0,0,0,0.00299052,0,-0.0280206,0,0,0,0.070683,-0.0246,0.58468,0,0,0,0,0,0
0.241633,-5.64906e-05,-1.11163,-2.15306e-05,2.22752,0.000110081,0.603253,-0.000119497,-0.000430184,-0.0290651,-0.000164763,0.0899034,0.000847297,-0.0608383,-0.000922128,0,0,0,0.00299306,0,-0.0281381,0,0,0,0.070686,-0.0246,0.584652,0,0,0,0,0,0
0.242633,-5.6922e-05,-1.11166,-2.16958e-05,2.22761,0.000110931,0.603192,-0.000120422,-0.00043137,-0.0292107,-0.000165234,0.0902683,0.000849782,-0.0610575,-0.000924874,0,0,0,0.00299548,0,-0.0282556,0,0,0,0.070689,-0.0246,0.584623,0,0,0,0,0,0
0.243633,-5.73546e-05,-1.11169,-2.18616e-05,2.2277,0.000111783,0.603131,-0.00012135,-0.000432549,-0.0293567,-0.000165702,0.0906332,0.000852255,-0.0612764,-0.000927606,0,0,0,0.00299776,0,-0.0283732,0,0,0,0.070692,-0.0246,0.584595,0,0,0,0,0,0
0.244634,-5.77883e-05,-1.11172,-2.20277e-05,2.2278,0.000112638,0.603069,-0.00012228,-0.000433721,-0.0295031,-0.000166167,0.0909979,0.000854714,-0.0614948,-0.000930324,0,0,0,0.00299993,0,-0.0284907,0,0,0,0.070695,-0.0246,0.584566,0,0,0,0,0,0
0.245634,-5.82233e-05,-1.11175,-2.21944e-05,2.22789,0.000113495,0.603008,-0.000123213,-0.000434885,-0.0296497,-0.000166629,0.0913626,0.00085716,-0.0617128,-0.000933028,0,0,0,0.00300197,0,-0.0286083,0,0,0,0.070698,-0.0246,0.584538,0,0,0,0,0,0
0.246634,-5.86594e-05,-1.11178,-2.23615e-05,2.22798,0.000114355,0.602946,-0.000124149,-0.000436041,-0.0297967,-0.000167089,0.0917271,0.000859594,-0.0619304,-0.000935719,0,0,0,0.00300388,0,-0.0287258,0,0,0,0.070701,-0.0246,0.584509,0,0,0,0,0,0
0.247634,-5.90966e-05,-1.11181,-2.25291e-05,2.22807,0.000115217,0.602883,-0.000125088,-0.000437191,-0.029944,-0.000167547,0.0920915,0.000862013,-0.0621475,-0.000938395,0,0,0,0.00300567,0,-0.0288434,0,0,0,0.070704,-0.0246,0.58448,0,0,0,0,0,0
0.248634,-5.9535e-05,-1.11184,-2.26971e-05,2.22816,0.000116081,0.602821,-0.000126029,-0.000438332,-0.0300916,-0.000168001,0.0924559,0.000864419,-0.0623642,-0.000941057,0,0,0,0.00300733,0,-0.028961,0,0,0,0.070707,-0.0246,0.584451,0,0,0,0,0,0
0.249634,-5.99746e-05,-1.11187,-2.28656e-05,2.22826,0.000116948,0.602758,-0.000126973,-0.000439466,-0.0302396,-0.000168453,0.0928201,0.000866812,-0.0625805,-0.000943706,0,0,0,0.00300887,0,-0.0290786,0,0,0,0.07071,-0.0246,0.584422,0,0,0,0,0,0
0.250634,-6.04152e-05,-1.1119,-2.30345e-05,2.22835,0.000117818,0.602696,-0.000127919,-0.000440593,-0.0303878,-0.000168902,0.0931842,0.000869192,-0.0627963,-0.000946339,0,0,0,0.00301027,0,-0.0291962,0,0,0,0.070713,-0.0246,0.584393,0,0,0,0,0,0
0.251634,-6.0857e-05,-1.11193,-2.32039e-05,2.22844,0.000118689,0.602633,-0.000128868,-0.000441712,-0.0305364,-0.000169349,0.0935482,0.000871557,-0.0630117,-0.000948959,0,0,0,0.00301155,0,-0.0293138,0,0,0,0.070716,-0.0246,0.584364,0,0,0,0,0,0
0.252634,-6.12998e-05,-1.11196,-2.33737e-05,2.22854,0.000119563,0.602569,-0.00012982,-0.000442823,-0.0306854,-0.000169793,0.0939121,0.00087391,-0.0632267,-0.000951564,0,0,0,0.0030127,0,-0.0294314,0,0,0,0.070719,-0.0246,0.584334,0,0,0,0,0,0
0.253635,-6.17438e-05,-1.11199,-2.35439e-05,2.22863,0.00012044,0.602506,-0.000130774,-0.000443926,-0.0308346,-0.000170234,0.0942759,0.000876248,-0.0634412,-0.000954155,0,0,0,0.00301372,0,-0.029549,0,0,0,0.070722,-0.0246,0.584305,0,0,0,0,0,0
0.254635,-6.21889e-05,-1.11202,-2.37146e-05,2.22873,0.000121318,0.602442,-0.000131731,-0.000445022,-0.0309842,-0.000170673,0.0946396,0.000878573,-0.0636553,-0.000956731,0,0,0,0.00301461,0,-0.0296666,0,0,0,0.070725,-0.0246,0.584275,0,0,0,0,0,0
0.255635,-6.2635e-05,-1.11205,-2.38857e-05,2.22882,0.000122199,0.602378,-0.00013269,-0.00044611,-0.0311342,-0.000171108,0.0950032,0.000880884,-0.0638689,-0.000959293,0,0,0,0.00301537,0,-0.0297843,0,0,0,0.0707281,-0.0246,0.584245,0,0,0,0,0,0
0.256635,-6.30822e-05,-1.11208,-2.40573e-05,2.22892,0.000123083,0.602314,-0.000133652,-0.00044719,-0.0312844,-0.000171541,0.0953666,0.000883181,-0.0640821,-0.00096184,0,0,0,0.00301599,0,-0.0299019,0,0,0,0.0707311,-0.0246,0.584215,0,0,0,0,0,0
0.257635,-6.35306e-05,-1.11211,-2.42293e-05,2.22901,0.000123968,0.60225,-0.000134617,-0.000448262,-0.031435,-0.000171972,0.09573,0.000885464,-0.0642949,-0.000964373,0,0,0,0.00301649,0,-0.0300196,0,0,0,0.0707341,-0.0246,0.584185,0,0,0,0,0,0
0.258843,-6.40737e-05,-1.11215,-2.44377e-05,2.22913,0.000125041,0.602172,-0.000135785,-0.000449688,-0.0316114,-0.000172538,0.0961704,0.000888446,-0.064559,-0.000967667,0,0,0,0.00301928,0,-0.0301615,0,0,0,0.0707377,-0.0246,0.584149,0,0,0,0,0,0
0.259843,-6.45243e-05,-1.11218,-2.46106e-05,2.22922,0.000125932,0.602107,-0.000136755,-0.000450602,-0.0317687,-0.000172912,0.0965317,0.000890454,-0.0647629,-0.000969912,0,0,0,0.00301712,0,-0.0302794,0,0,0,0.0707408,-0.0246,0.584119,0,0,0,0,0,0
0.260843,-6.4976e-05,-1.11221,-2.4784e-05,2.22932,0.000126825,0.602042,-0.000137728,-0.000451649,-0.0319204,-0.000173333,0.0968947,0.000892692,-0.0649742,-0.000972396,0,0,0,0.00301719,0,-0.0303971,0,0,0,0.0707438,-0.0246,0.584088,0,0,0,0,0,0
0.261843,-6.54288e-05,-1.11225,-2.49577e-05,2.22942,0.00012772,0.601977,-0.000138703,-0.000452688,-0.0320725,-0.000173752,0.0972576,0.000894916,-0.065185,-0.000974866,0,0,0,0.00301713,0,-0.0305148,0,0,0,0.0707468,-0.0246,0.584058,0,0,0,0,0,0
0.262843,-6.58825e-05,-1.11228,-2.51319e-05,2.22952,0.000128617,0.601912,-0.00013968,-0.000453719,-0.0322249,-0.000174168,0.0976204,0.000897125,-0.0653954,-0.000977321,0,0,0,0.00301693,0,-0.0306325,0,0,0,0.0707498,-0.0246,0.584027,0,0,0,0,0,0
0.263845,-6.63379e-05,-1.11231,-2.53067e-05,2.22961,0.000129517,0.601846,-0.000140661,-0.000454745,-0.0323778,-0.000174582,0.0979835,0.000899325,-0.0656056,-0.000979766,0,0,0,0.00301662,0,-0.0307504,0,0,0,0.0707528,-0.0246,0.583996,0,0,0,0,0,0
0.264845,-6.67937e-05,-1.11234,-2.54818e-05,2.22971,0.000130419,0.60178,-0.000141644,-0.000455759,-0.0325309,-0.000174992,0.098346,0.000901504,-0.065815,-0.000982189,0,0,0,0.00301614,0,-0.0308681,0,0,0,0.0707558,-0.0246,0.583965,0,0,0,0,0,0
0.265845,-6.72505e-05,-1.11238,-2.56572e-05,2.22981,0.000131323,0.601714,-0.000142628,-0.000456766,-0.0326844,-0.000175399,0.0987084,0.00090367,-0.066024,-0.000984598,0,0,0,0.00301553,0,-0.0309858,0,0,0,0.0707589,-0.0246,0.583934,0,0,0,0,0,0
0.266845,-6.77083e-05,-1.11241,-2.5833e-05,2.22991,0.000132229,0.601648,-0.000143616,-0.000457765,-0.0328382,-0.000175803,0.0990707,0.000905822,-0.0662325,-0.000986992,0,0,0,0.0030148,0,-0.0311035,0,0,0,0.0707619,-0.0246,0.583903,0,0,0,0,0,0
0.267845,-6.81671e-05,-1.11244,-2.60092e-05,2.23001,0.000133137,0.601581,-0.000144605,-0.000458756,-0.0329923,-0.000176205,0.0994329,0.000907959,-0.0664405,-0.000989371,0,0,0,0.00301392,0,-0.0312213,0,0,0,0.0707649,-0.0246,0.583872,0,0,0,0,0,0
0.268845,-6.86269e-05,-1.11248,-2.61858e-05,2.23011,0.000134047,0.601515,-0.000145597,-0.000459739,-0.0331468,-0.000176604,0.099795,0.000910082,-0.0666481,-0.000991734,0,0,0,0.00301291,0,-0.0313391,0,0,0,0.0707679,-0.0246,0.583841,0,0,0,0,0,0
0.269845,-6.90877e-05,-1.11251,-2.63629e-05,2.23021,0.000134959,0.601448,-0.000146591,-0.000460713,-0.0333016,-0.000177,0.100157,0.000912189,-0.0668552,-0.000994081,0,0,0,0.00301176,0,-0.0314568,0,0,0,0.0707709,-0.0246,0.583809,0,0,0,0,0,0
0.270845,-6.95494e-05,-1.11254,-2.65403e-05,2.23031,0.000135873,0.601381,-0.000147588,-0.000461679,-0.0334569,-0.000177393,0.100519,0.000914282,-0.0670618,-0.000996413,0,0,0,0.00301047,0,-0.0315746,0,0,0,0.0707739,-0.0246,0.583778,0,0,0,0,0,0
0.271845,-7.00121e-05,-1.11258,-2.67181e-05,2.23041,0.00013679,0.601314,-0.000148586,-0.000462637,-0.0336124,-0.000177783,0.10088,0.000916361,-0.0672679,-0.000998729,0,0,0,0.00300905,0,-0.0316924,0,0,0,0.0707769,-0.0246,0.583746,0,0,0,0,0,0
0.272846,-7.04757e-05,-1.11261,-2.68963e-05,2.23051,0.000137708,0.601246,-0.000149587,-0.000463587,-0.0337684,-0.00017817,0.101242,0.000918424,-0.0674736,-0.00100103,0,0,0,0.00300748,0,-0.0318102,0,0,0,0.0707799,-0.0246,0.583714,0,0,0,0,0,0
0.273858,-7.0946e-05,-1.11264,-2.7077e-05,2.23062,0.00013864,0.601178,-0.000150603,-0.000464549,-0.0339262,-0.000178563,0.101608,0.000920513,-0.0676818,-0.00100336,0,0,0,0.00300591,0,-0.0319294,0,0,0,0.070783,-0.0246,0.583682,0,0,0,0,0,0
0.275217,-7.15796e-05,-1.11269,-2.73206e-05,2.23075,0.000139896,0.601085,-0.000151972,-0.000466081,-0.0341278,-0.000179175,0.102102,0.000923736,-0.0679746,-0.00100693,0,0,0,0.00300783,0,-0.0320891,0,0,0,0.0707871,-0.0246,0.583638,0,0,0,0,0,0
0.276343,-7.21051e-05,-1.11273,-2.75226e-05,2.23087,0.000140938,0.601008,-0.000153108,-0.000466939,-0.0343123,-0.000179536,0.102507,0.000925689,-0.0681942,-0.00100913,0,0,0,0.00300253,0,-0.032222,0,0,0,0.0707904,-0.0246,0.583602,0,0,0,0,0,0
0.277343,-7.25729e-05,-1.11276,-2.77025e-05,2.23097,0.000141865,0.60094,-0.000154119,-0.000467754,-0.034474,-0.000179876,0.102866,0.000927516,-0.0683923,-0.00101118,0,0,0,0.0029987,0,-0.03234,0,0,0,0.0707934,-0.0246,0.58357,0,0,0,0,0,0
0.278343,-7.30416e-05,-1.1128,-2.78828e-05,2.23108,0.000142795,0.600871,-0.000155132,-0.000468658,-0.0346319,-0.000180247,0.103227,0.000929496,-0.0685952,-0.00101339,0,0,0,0.00299636,0,-0.0324578,0,0,0,0.0707964,-0.0246,0.583537,0,0,0,0,0,0
0.279343,-7.35112e-05,-1.11283,-2.80634e-05,2.23118,0.000143727,0.600803,-0.000156148,-0.000469553,-0.0347902,-0.000180615,0.103588,0.00093146,-0.0687977,-0.00101559,0,0,0,0.00299388,0,-0.0325756,0,0,0,0.0707994,-0.0246,0.583505,0,0,0,0,0,0
0.280343,-7.39817e-05,-1.11287,-2.82444e-05,2.23128,0.00014466,0.600734,-0.000157166,-0.00047044,-0.0349489,-0.00018098,0.103949,0.00093341,-0.0689997,-0.00101777,0,0,0,0.00299125,0,-0.0326935,0,0,0,0.0708024,-0.0246,0.583472,0,0,0,0,0,0
0.281343,-7.44531e-05,-1.1129,-2.84258e-05,2.23139,0.000145596,0.600664,-0.000158186,-0.000471318,-0.035108,-0.000181342,0.104309,0.000935344,-0.0692011,-0.00101993,0,0,0,0.00298848,0,-0.0328113,0,0,0,0.0708054,-0.0246,0.583439,0,0,0,0,0,0
0.282343,-7.49253e-05,-1.11294,-2.86075e-05,2.23149,0.000146533,0.600595,-0.000159208,-0.000472187,-0.0352674,-0.000181702,0.10467,0.000937262,-0.0694021,-0.00102208,0,0,0,0.00298556,0,-0.0329292,0,0,0,0.0708084,-0.0246,0.583406,0,0,0,0,0,0
0.283343,-7.53984e-05,-1.11297,-2.87896e-05,2.2316,0.000147472,0.600525,-0.000160233,-0.000473048,-0.0354272,-0.000182058,0.10503,0.000939165,-0.0696026,-0.00102421,0,0,0,0.0029825,0,-0.0330471,0,0,0,0.0708114,-0.0246,0.583373,0,0,0,0,0,0
0.284344,-7.58724e-05,-1.11301,-2.8972e-05,2.2317,0.000148413,0.600456,-0.000161259,-0.0004739,-0.0355874,-0.000182411,0.10539,0.000941052,-0.0698025,-0.00102633,0,0,0,0.0029793,0,-0.033165,0,0,0,0.0708144,-0.0246,0.58334,0,0,0,0,0,0
0.285344,-7.63472e-05,-1.11305,-2.91548e-05,2.23181,0.000149356,0.600386,-0.000162288,-0.000474744,-0.0357479,-0.000182761,0.10575,0.000942924,-0.070002,-0.00102842,0,0,0,0.00297595,0,-0.0332829,0,0,0,0.0708173,-0.0246,0.583307,0,0,0,0,0,0
0.286344,-7.68228e-05,-1.11308,-2.9338e-05,2.23191,0.000150301,0.600315,-0.000163318,-0.000475579,-0.0359088,-0.000183108,0.10611,0.000944779,-0.0702009,-0.00103051,0,0,0,0.00297245,0,-0.0334008,0,0,0,0.0708203,-0.0246,0.583273,0,0,0,0,0,0
0.287344,-7.72993e-05,-1.11312,-2.95214e-05,2.23202,0.000151248,0.600245,-0.000164351,-0.000476405,-0.0360702,-0.000183452,0.10647,0.000946619,-0.0703993,-0.00103257,0,0,0,0.0029688,0,-0.0335187,0,0,0,0.0708233,-0.0246,0.58324,0,0,0,0,0,0
0.288344,-7.77765e-05,-1.11315,-2.97052e-05,2.23213,0.000152197,0.600174,-0.000165386,-0.000477222,-0.0362318,-0.000183793,0.106829,0.000948442,-0.0705972,-0.00103462,0,0,0,0.00296501,0,-0.0336366,0,0,0,0.0708262,-0.0246,0.583206,0,0,0,0,0,0
0.289344,-7.82546e-05,-1.11319,-2.98894e-05,2.23224,0.000153147,0.600104,-0.000166422,-0.000478031,-0.0363939,-0.000184131,0.107189,0.00095025,-0.0707946,-0.00103665,0,0,0,0.00296107,0,-0.0337545,0,0,0,0.0708292,-0.0246,0.583172,0,0,0,0,0,0
0.290344,-7.87335e-05,-1.11323,-3.00739e-05,2.23234,0.000154099,0.600033,-0.000167461,-0.000478831,-0.0365564,-0.000184466,0.107548,0.000952042,-0.0709914,-0.00103866,0,0,0,0.00295698,0,-0.0338724,0,0,0,0.0708322,-0.0246,0.583138,0,0,0,0,0,0
0.291344,-7.92132e-05,-1.11326,-3.02587e-05,2.23245,0.000155053,0.599961,-0.000168502,-0.000479621,-0.0367192,-0.000184798,0.107907,0.000953817,-0.0711878,-0.00104066,0,0,0,0.00295275,0,-0.0339903,0,0,0,0.0708351,-0.0246,0.583104,0,0,0,0,0,0
0.292344,-7.96936e-05,-1.1133,-3.04438e-05,2.23256,0.000156009,0.59989,-0.000169545,-0.000480403,-0.0368824,-0.000185126,0.108266,0.000955577,-0.0713836,-0.00104264,0,0,0,0.00294836,0,-0.0341083,0,0,0,0.0708381,-0.0246,0.58307,0,0,0,0,0,0
0.293345,-8.01748e-05,-1.11334,-3.06293e-05,2.23267,0.000156966,0.599818,-0.000170589,-0.000481177,-0.0370461,-0.000185452,0.108625,0.00095732,-0.0715789,-0.0010446,0,0,0,0.00294382,0,-0.0342262,0,0,0,0.070841,-0.0246,0.583036,0,0,0,0,0,0
0.294345,-8.06568e-05,-1.11337,-3.08151e-05,2.23278,0.000157925,0.599747,-0.000171636,-0.000481941,-0.0372101,-0.000185774,0.108984,0.000959046,-0.0717736,-0.00104654,0,0,0,0.00293913,0,-0.0343442,0,0,0,0.0708439,-0.0246,0.583002,0,0,0,0,0,0
0.295345,-8.11396e-05,-1.11341,-3.10012e-05,2.23289,0.000158886,0.599675,-0.000172685,-0.000482696,-0.0373745,-0.000186093,0.109342,0.000960757,-0.0719678,-0.00104847,0,0,0,0.0029343,0,-0.0344621,0,0,0,0.0708469,-0.0246,0.582967,0,0,0,0,0,0
0.296345,-8.16231e-05,-1.11345,-3.11876e-05,2.233,0.000159849,0.599602,-0.000173735,-0.000483442,-0.0375393,-0.000186409,0.109701,0.00096245,-0.0721615,-0.00105038,0,0,0,0.00292931,0,-0.0345801,0,0,0,0.0708498,-0.0246,0.582933,0,0,0,0,0,0
0.297345,-8.21073e-05,-1.11349,-3.13744e-05,2.23311,0.000160813,0.59953,-0.000174788,-0.000484179,-0.0377045,-0.000186722,0.110059,0.000964128,-0.0723547,-0.00105227,0,0,0,0.00292416,0,-0.0346981,0,0,0,0.0708527,-0.0246,0.582898,0,0,0,0,0,0
0.298345,-8.25922e-05,-1.11352,-3.15614e-05,2.23322,0.000161779,0.599458,-0.000175842,-0.000484907,-0.03787,-0.000187032,0.110417,0.000965788,-0.0725473,-0.00105415,0,0,0,0.00291887,0,-0.034816,0,0,0,0.0708557,-0.0246,0.582863,0,0,0,0,0,0
0.299345,-8.30779e-05,-1.11356,-3.17488e-05,2.23333,0.000162746,0.599385,-0.000176898,-0.000485626,-0.038036,-0.000187338,0.110775,0.000967432,-0.0727393,-0.00105601,0,0,0,0.00291342,0,-0.034934,0,0,0,0.0708586,-0.0246,0.582828,0,0,0,0,0,0
0.300345,-8.35643e-05,-1.1136,-3.19364e-05,2.23344,0.000163715,0.599312,-0.000177956,-0.000486336,-0.0382024,-0.000187642,0.111133,0.00096906,-0.0729309,-0.00105785,0,0,0,0.00290782,0,-0.035052,0,0,0,0.0708615,-0.0246,0.582793,0,0,0,0,0,0
0.301345,-8.40514e-05,-1.11364,-3.21244e-05,2.23355,0.000164686,0.599239,-0.000179016,-0.000487036,-0.0383692,-0.000187942,0.111491,0.00097067,-0.0731218,-0.00105967,0,0,0,0.00290206,0,-0.03517,0,0,0,0.0708644,-0.0246,0.582758,0,0,0,0,0,0
0.302345,-8.45392e-05,-1.11368,-3.23127e-05,2.23366,0.000165659,0.599165,-0.000180077,-0.000487728,-0.0385364,-0.000188239,0.111849,0.000972264,-0.0733123,-0.00106147,0,0,0,0.00289615,0,-0.035288,0,0,0,0.0708673,-0.0246,0.582723,0,0,0,0,0,0
0.303346,-8.50276e-05,-1.11372,-3.25012e-05,2.23377,0.000166632,0.599092,-0.000181141,-0.00048841,-0.038704,-0.000188533,0.112206,0.00097384,-0.0735021,-0.00106326,0,0,0,0.00289009,0,-0.035406,0,0,0,0.0708702,-0.0246,0.582687,0,0,0,0,0,0
0.304346,-8.55168e-05,-1.11376,-3.269e-05,2.23389,0.000167608,0.599018,-0.000182206,-0.000489083,-0.038872,-0.000188823,0.112564,0.0009754,-0.0736915,-0.00106503,0,0,0,0.00288387,0,-0.035524,0,0,0,0.070873,-0.0246,0.582652,0,0,0,0,0,0
0.305346,-8.60066e-05,-1.11379,-3.28792e-05,2.234,0.000168585,0.598944,-0.000183273,-0.000489746,-0.0390404,-0.00018911,0.112921,0.000976942,-0.0738802,-0.00106678,0,0,0,0.00287749,0,-0.0356421,0,0,0,0.0708759,-0.0246,0.582616,0,0,0,0,0,0
0.306346,-8.64971e-05,-1.11383,-3.30686e-05,2.23411,0.000169564,0.59887,-0.000184341,-0.000490401,-0.0392092,-0.000189394,0.113278,0.000978468,-0.0740685,-0.00106851,0,0,0,0.00287096,0,-0.0357601,0,0,0,0.0708788,-0.0246,0.58258,0,0,0,0,0,0
0.307346,-8.69881e-05,-1.11387,-3.32583e-05,2.23423,0.000170544,0.598796,-0.000185412,-0.000491045,-0.0393784,-0.000189675,0.113635,0.000979976,-0.0742561,-0.00107022,0,0,0,0.00286426,0,-0.0358781,0,0,0,0.0708817,-0.0246,0.582545,0,0,0,0,0,0
0.308346,-8.748e-05,-1.11391,-3.34483e-05,2.23434,0.000171525,0.598722,-0.000186484,-0.000491681,-0.0395481,-0.000189953,0.113991,0.000981467,-0.0744433,-0.00107192,0,0,0,0.00285742,0,-0.0359962,0,0,0,0.0708845,-0.0246,0.582509,0,0,0,0,0,0
0.309346,-8.79723e-05,-1.11395,-3.36386e-05,2.23445,0.000172509,0.598647,-0.000187558,-0.000492307,-0.0397181,-0.000190227,0.114348,0.00098294,-0.0746298,-0.00107359,0,0,0,0.0028504,0,-0.0361142,0,0,0,0.0708874,-0.0246,0.582472,0,0,0,0,0,0
0.310347,-8.84653e-05,-1.11399,-3.38291e-05,2.23457,0.000173493,0.598572,-0.000188633,-0.000492924,-0.0398886,-0.000190498,0.114704,0.000984396,-0.0748157,-0.00107525,0,0,0,0.00284324,0,-0.0362323,0,0,0,0.0708902,-0.0246,0.582436,0,0,0,0,0,0
0.311347,-8.89589e-05,-1.11403,-3.40199e-05,2.23468,0.000174479,0.598497,-0.00018971,-0.000493531,-0.0400594,-0.000190765,0.115061,0.000985835,-0.0750011,-0.00107689,0,0,0,0.00283591,0,-0.0363503,0,0,0,0.070893,-0.0246,0.5824,0,0,0,0,0,0
0.312347,-8.94531e-05,-1.11407,-3.42109e-05,2.2348,0.000175466,0.598422,-0.000190789,-0.000494129,-0.0402307,-0.000191029,0.115417,0.000987256,-0.0751859,-0.00107851,0,0,0,0.00282843,0,-0.0364684,0,0,0,0.0708959,-0.0246,0.582363,0,0,0,0,0,0
0.313347,-8.99478e-05,-1.11411,-3.44022e-05,2.23492,0.000176455,0.598346,-0.000191869,-0.000494717,-0.0404024,-0.00019129,0.115773,0.000988659,-0.0753702,-0.00108012,0,0,0,0.00282078,0,-0.0365864,0,0,0,0.0708987,-0.0246,0.582327,0,0,0,0,0,0
0.314347,-9.04432e-05,-1.11415,-3.45938e-05,2.23503,0.000177445,0.598271,-0.000192951,-0.000495295,-0.0405746,-0.000191548,0.116129,0.000990045,-0.0755538,-0.0010817,0,0,0,0.00281297,0,-0.0367045,0,0,0,0.0709015,-0.0246,0.58229,0,0,0,0,0,0
0.315347,-9.09391e-05,-1.11419,-3.47856e-05,2.23515,0.000178437,0.598195,-0.000194034,-0.000495864,-0.0407471,-0.000191802,0.116484,0.000991412,-0.0757369,-0.00108326,0,0,0,0.002805,0,-0.0368226,0,0,0,0.0709043,-0.0246,0.582253,0,0,0,0,0,0
0.316347,-9.14356e-05,-1.11424,-3.49777e-05,2.23527,0.00017943,0.598119,-0.000195119,-0.000496424,-0.0409201,-0.000192053,0.11684,0.000992763,-0.0759195,-0.00108481,0,0,0,0.00279687,0,-0.0369406,0,0,0,0.0709071,-0.0246,0.582216,0,0,0,0,0,0
0.317347,-9.19326e-05,-1.11428,-3.517e-05,2.23538,0.000180424,0.598043,-0.000196205,-0.000496973,-0.0410935,-0.000192301,0.117195,0.000994095,-0.0761014,-0.00108634,0,0,0,0.00278858,0,-0.0370587,0,0,0,0.0709099,-0.0246,0.582179,0,0,0,0,0,0
0.318347,-9.24302e-05,-1.11432,-3.53626e-05,2.2355,0.000181419,0.597967,-0.000197293,-0.000497513,-0.0412673,-0.000192545,0.11755,0.000995409,-0.0762827,-0.00108785,0,0,0,0.00278012,0,-0.0371768,0,0,0,0.0709127,-0.0246,0.582142,0,0,0,0,0,0
0.319348,-9.29283e-05,-1.11436,-3.55554e-05,2.23562,0.000182416,0.59789,-0.000198383,-0.000498043,-0.0414416,-0.000192785,0.117905,0.000996705,-0.0764635,-0.00108933,0,0,0,0.0027715,0,-0.0372949,0,0,0,0.0709154,-0.0246,0.582105,0,0,0,0,0,0
0.320348,-9.34269e-05,-1.1144,-3.57484e-05,2.23574,0.000183414,0.597814,-0.000199474,-0.000498564,-0.0416162,-0.000193023,0.11826,0.000997982,-0.0766436,-0.0010908,0,0,0,0.00276272,0,-0.037413,0,0,0,0.0709182,-0.0246,0.582067,0,0,0,0,0,0
0.321348,-9.3926e-05,-1.11444,-3.59417e-05,2.23585,0.000184414,0.597737,-0.000200566,-0.000499075,-0.0417913,-0.000193257,0.118615,0.000999242,-0.0768232,-0.00109225,0,0,0,0.00275377,0,-0.0375311,0,0,0,0.070921,-0.0246,0.58203,0,0,0,0,0,0
0.322348,-9.44257e-05,-1.11448,-3.61352e-05,2.23597,0.000185414,0.59766,-0.00020166,-0.000499575,-0.0419669,-0.000193487,0.118969,0.00100048,-0.0770021,-0.00109368,0,0,0,0.00274466,0,-0.0376492,0,0,0,0.0709237,-0.0246,0.581992,0,0,0,0,0,0
0.323348,-9.49258e-05,-1.11453,-3.63289e-05,2.23609,0.000186416,0.597583,-0.000202755,-0.000500066,-0.0421428,-0.000193714,0.119323,0.00100171,-0.0771805,-0.00109509,0,0,0,0.00273538,0,-0.0377673,0,0,0,0.0709264,-0.0246,0.581954,0,0,0,0,0,0
0.324348,-9.54264e-05,-1.11457,-3.65229e-05,2.23621,0.000187419,0.597505,-0.000203852,-0.000500548,-0.0423193,-0.000193938,0.119678,0.00100291,-0.0773583,-0.00109649,0,0,0,0.00272593,0,-0.0378854,0,0,0,0.0709292,-0.0246,0.581916,0,0,0,0,0,0
0.325348,-9.59274e-05,-1.11461,-3.67171e-05,2.23633,0.000188423,0.597428,-0.00020495,-0.000501019,-0.0424961,-0.000194158,0.120032,0.0010041,-0.0775354,-0.00109786,0,0,0,0.00271632,0,-0.0380035,0,0,0,0.0709319,-0.0246,0.581878,0,0,0,0,0,0
0.326348,-9.6429e-05,-1.11465,-3.69115e-05,2.23645,0.000189429,0.59735,-0.000206049,-0.00050148,-0.0426734,-0.000194375,0.120385,0.00100526,-0.077712,-0.00109921,0,0,0,0.00270654,0,-0.0381216,0,0,0,0.0709346,-0.0246,0.58184,0,0,0,0,0,0
0.327348,-9.6931e-05,-1.1147,-3.71061e-05,2.23657,0.000190435,0.597272,-0.00020715,-0.000501931,-0.0428511,-0.000194588,0.120739,0.00100641,-0.0778879,-0.00110054,0,0,0,0.00269659,0,-0.0382397,0,0,0,0.0709373,-0.0246,0.581802,0,0,0,0,0,0
0.328348,-9.74334e-05,-1.11474,-3.73009e-05,2.2367,0.000191443,0.597194,-0.000208252,-0.000502372,-0.0430292,-0.000194798,0.121093,0.00100754,-0.0780633,-0.00110186,0,0,0,0.00268648,0,-0.0383578,0,0,0,0.07094,-0.0246,0.581764,0,0,0,0,0,0
0.329349,-9.79363e-05,-1.11478,-3.74959e-05,2.23682,0.000192452,0.597116,-0.000209355,-0.000502804,-0.0432078,-0.000195004,0.121446,0.00100866,-0.078238,-0.00110315,0,0,0,0.00267619,0,-0.038476,0,0,0,0.0709426,-0.0246,0.581725,0,0,0,0,0,0
0.330349,-9.84396e-05,-1.11483,-3.76912e-05,2.23694,0.000193461,0.597037,-0.00021046,-0.000503225,-0.0433869,-0.000195206,0.121799,0.00100975,-0.0784121,-0.00110442,0,0,0,0.00266574,0,-0.0385941,0,0,0,0.0709453,-0.0246,0.581687,0,0,0,0,0,0
0.331349,-9.89432e-05,-1.11487,-3.78866e-05,2.23706,0.000194472,0.596959,-0.000211565,-0.000503636,-0.0435664,-0.000195406,0.122152,0.00101082,-0.0785856,-0.00110567,0,0,0,0.00265511,0,-0.0387122,0,0,0,0.070948,-0.0246,0.581648,0,0,0,0,0,0
0.332349,-9.94473e-05,-1.11491,-3.80822e-05,2.23718,0.000195484,0.59688,-0.000212672,-0.000504037,-0.0437463,-0.000195601,0.122505,0.00101188,-0.0787585,-0.00110691,0,0,0,0.00264432,0,-0.0388303,0,0,0,0.0709506,-0.0246,0.581609,0,0,0,0,0,0
0.333349,-9.99518e-05,-1.11496,-3.8278e-05,2.23731,0.000196497,0.596801,-0.000213781,-0.000504427,-0.0439267,-0.000195793,0.122858,0.00101291,-0.0789307,-0.00110812,0,0,0,0.00263336,0,-0.0389485,0,0,0,0.0709532,-0.0246,0.58157,0,0,0,0,0,0
0.334349,-0.000100457,-1.115,-3.8474e-05,2.23743,0.000197511,0.596722,-0.00021489,-0.000504808,-0.0441075,-0.000195982,0.12321,0.00101393,-0.0791023,-0.00110931,0,0,0,0.00262222,0,-0.0390666,0,0,0,0.0709559,-0.0246,0.581531,0,0,0,0,0,0
0.335349,-0.000100962,-1.11505,-3.86702e-05,2.23755,0.000198526,0.596643,-0.000216001,-0.000505178,-0.0442888,-0.000196167,0.123562,0.00101493,-0.0792733,-0.00111048,0,0,0,0.00261091,0,-0.0391847,0,0,0,0.0709585,-0.0246,0.581492,0,0,0,0,0,0
0.336349,-0.000101467,-1.11509,-3.88666e-05,2.23768,0.000199542,0.596563,-0.000217112,-0.000505538,-0.0444705,-0.000196348,0.123914,0.0010159,-0.0794437,-0.00111163,0,0,0,0.00259943,0,-0.0393029,0,0,0,0.0709611,-0.0246,0.581453,0,0,0,0,0,0
0.337349,-0.000101973,-1.11514,-3.90631e-05,2.2378,0.000200559,0.596484,-0.000218225,-0.000505888,-0.0446527,-0.000196526,0.124266,0.00101686,-0.0796134,-0.00111276,0,0,0,0.00258778,0,-0.039421,0,0,0,0.0709637,-0.0246,0.581413,0,0,0,0,0,0
0.338349,-0.00010248,-1.11518,-3.92598e-05,2.23793,0.000201577,0.596404,-0.000219339,-0.000506227,-0.0448354,-0.0001967,0.124618,0.0010178,-0.0797825,-0.00111387,0,0,0,0.00257595,0,-0.0395392,0,0,0,0.0709662,-0.0246,0.581374,0,0,0,0,0,0
0.33935,-0.000102986,-1.11523,-3.94567e-05,2.23805,0.000202596,0.596324,-0.000220454,-0.000506556,-0.0450184,-0.000196871,0.12497,0.00101872,-0.079951,-0.00111496,0,0,0,0.00256395,0,-0.0396573,0,0,0,0.0709688,-0.0246,0.581334,0,0,0,0,0,0
0.34035,-0.000103493,-1.11527,-3.96538e-05,2.23818,0.000203616,0.596244,-0.00022157,-0.000506875,-0.045202,-0.000197038,0.125321,0.00101962,-0.0801188,-0.00111603,0,0,0,0.00255178,0,-0.0397754,0,0,0,0.0709714,-0.0246,0.581294,0,0,0,0,0,0
0.34135,-0.000104,-1.11532,-3.9851e-05,2.2383,0.000204636,0.596163,-0.000222688,-0.000507183,-0.045386,-0.000197201,0.125672,0.0010205,-0.0802859,-0.00111708,0,0,0,0.00253943,0,-0.0398936,0,0,0,0.0709739,-0.0246,0.581254,0,0,0,0,0,0
0.34235,-0.000104508,-1.11536,-4.00484e-05,2.23843,0.000205658,0.596083,-0.000223806,-0.000507481,-0.0455705,-0.000197361,0.126023,0.00102136,-0.0804525,-0.0011181,0,0,0,0.0025269,0,-0.0400117,0,0,0,0.0709764,-0.0246,0.581214,0,0,0,0,0,0
0.34335,-0.000105016,-1.11541,-4.02459e-05,2.23855,0.00020668,0.596002,-0.000224925,-0.000507768,-0.0457554,-0.000197517,0.126374,0.0010222,-0.0806183,-0.00111911,0,0,0,0.0025142,0,-0.0401299,0,0,0,0.0709789,-0.0246,0.581174,0,0,0,0,0,0
0.34435,-0.000105524,-1.11545,-4.04436e-05,2.23868,0.000207703,0.595922,-0.000226045,-0.000508045,-0.0459408,-0.000197669,0.126725,0.00102302,-0.0807836,-0.00112009,0,0,0,0.00250132,0,-0.040248,0,0,0,0.0709814,-0.0246,0.581134,0,0,0,0,0,0
0.34535,-0.000106032,-1.1155,-4.06415e-05,2.23881,0.000208727,0.595841,-0.000227166,-0.000508311,-0.0461267,-0.000197818,0.127075,0.00102382,-0.0809481,-0.00112105,0,0,0,0.00248827,0,-0.0403662,0,0,0,0.0709839,-0.0246,0.581093,0,0,0,0,0,0
0.34635,-0.000106541,-1.11555,-4.08394e-05,2.23894,0.000209752,0.59576,-0.000228288,-0.000508567,-0.046313,-0.000197963,0.127425,0.00102461,-0.081112,-0.00112199,0,0,0,0.00247504,0,-0.0404843,0,0,0,0.0709864,-0.0246,0.581053,0,0,0,0,0,0
0.347351,-0.00010705,-1.11559,-4.10376e-05,2.23906,0.000210778,0.595678,-0.000229412,-0.000508812,-0.0464998,-0.000198104,0.127775,0.00102537,-0.0812753,-0.00112291,0,0,0,0.00246163,0,-0.0406025,0,0,0,0.0709889,-0.0246,0.581012,0,0,0,0,0,0
0.348351,-0.000107559,-1.11564,-4.12358e-05,2.23919,0.000211804,0.595597,-0.000230536,-0.000509047,-0.0466871,-0.000198242,0.128125,0.00102611,-0.0814379,-0.00112381,0,0,0,0.00244804,0,-0.0407207,0,0,0,0.0709913,-0.0246,0.580972,0,0,0,0,0,0
0.349351,-0.000108068,-1.11569,-4.14342e-05,2.23932,0.000212831,0.595515,-0.00023166,-0.00050927,-0.0468749,-0.000198376,0.128475,0.00102683,-0.0815998,-0.00112469,0,0,0,0.00243427,0,-0.0408388,0,0,0,0.0709937,-0.0246,0.580931,0,0,0,0,0,0
0.350351,-0.000108578,-1.11573,-4.16328e-05,2.23945,0.000213858,0.595433,-0.000232786,-0.000509483,-0.0470631,-0.000198506,0.128824,0.00102753,-0.0817611,-0.00112554,0,0,0,0.00242032,0,-0.040957,0,0,0,0.0709962,-0.0246,0.58089,0,0,0,0,0,0
0.351351,-0.000109087,-1.11578,-4.18314e-05,2.23958,0.000214887,0.595351,-0.000233912,-0.000509686,-0.0472518,-0.000198632,0.129174,0.00102821,-0.0819217,-0.00112638,0,0,0,0.00240619,0,-0.0410751,0,0,0,0.0709986,-0.0246,0.580849,0,0,0,0,0,0
0.352351,-0.000109597,-1.11583,-4.20302e-05,2.23971,0.000215916,0.595269,-0.00023504,-0.000509877,-0.0474409,-0.000198755,0.129523,0.00102887,-0.0820816,-0.00112719,0,0,0,0.00239188,0,-0.0411933,0,0,0,0.071001,-0.0246,0.580808,0,0,0,0,0,0
0.353351,-0.000110108,-1.11587,-4.22291e-05,2.23984,0.000216945,0.595187,-0.000236168,-0.000510058,-0.0476306,-0.000198874,0.129872,0.00102951,-0.0822409,-0.00112798,0,0,0,0.00237739,0,-0.0413114,0,0,0,0.0710033,-0.0246,0.580766,0,0,0,0,0,0
0.354351,-0.000110618,-1.11592,-4.24281e-05,2.23997,0.000217975,0.595105,-0.000237297,-0.000510228,-0.0478207,-0.000198989,0.13022,0.00103012,-0.0823995,-0.00112875,0,0,0,0.00236272,0,-0.0414296,0,0,0,0.0710057,-0.0246,0.580725,0,0,0,0,0,0
0.355351,-0.000111128,-1.11597,-4.26272e-05,2.2401,0.000219006,0.595022,-0.000238426,-0.000510387,-0.0480113,-0.0001991,0.130569,0.00103072,-0.0825573,-0.00112949,0,0,0,0.00234786,0,-0.0415477,0,0,0,0.071008,-0.0246,0.580683,0,0,0,0,0,0
0.356351,-0.000111639,-1.11602,-4.28264e-05,2.24023,0.000220038,0.594939,-0.000239557,-0.000510535,-0.0482024,-0.000199208,0.130917,0.0010313,-0.0827146,-0.00113022,0,0,0,0.00233283,0,-0.0416659,0,0,0,0.0710104,-0.0246,0.580642,0,0,0,0,0,0
0.357351,-0.00011215,-1.11607,-4.30258e-05,2.24036,0.00022107,0.594857,-0.000240688,-0.000510672,-0.048394,-0.000199312,0.131265,0.00103185,-0.0828711,-0.00113092,0,0,0,0.00231761,0,-0.041784,0,0,0,0.0710127,-0.0246,0.5806,0,0,0,0,0,0
0.358352,-0.00011266,-1.11612,-4.32252e-05,2.24049,0.000222102,0.594774,-0.000241819,-0.000510799,-0.048586,-0.000199411,0.131613,0.00103239,-0.0830269,-0.0011316,0,0,0,0.0023022,0,-0.0419022,0,0,0,0.071015,-0.0246,0.580558,0,0,0,0,0,0
0.359352,-0.000113171,-1.11616,-4.34247e-05,2.24062,0.000223135,0.59469,-0.000242952,-0.000510914,-0.0487786,-0.000199508,0.131961,0.0010329,-0.0831821,-0.00113225,0,0,0,0.00228661,0,-0.0420203,0,0,0,0.0710173,-0.0246,0.580516,0,0,0,0,0,0
0.360352,-0.000113682,-1.11621,-4.36244e-05,2.24076,0.000224169,0.594607,-0.000244085,-0.000511018,-0.0489716,-0.0001996,0.132308,0.0010334,-0.0833365,-0.00113289,0,0,0,0.00227084,0,-0.0421385,0,0,0,0.0710196,-0.0246,0.580474,0,0,0,0,0,0
0.361352,-0.000114194,-1.11626,-4.38241e-05,2.24089,0.000225203,0.594523,-0.000245218,-0.000511111,-0.0491651,-0.000199688,0.132656,0.00103387,-0.0834903,-0.0011335,0,0,0,0.00225488,0,-0.0422566,0,0,0,0.0710218,-0.0246,0.580431,0,0,0,0,0,0
0.362352,-0.000114705,-1.11631,-4.40239e-05,2.24102,0.000226237,0.59444,-0.000246353,-0.000511194,-0.0493591,-0.000199773,0.133003,0.00103432,-0.0836434,-0.00113409,0,0,0,0.00223874,0,-0.0423747,0,0,0,0.071024,-0.0246,0.580389,0,0,0,0,0,0
0.363352,-0.000115216,-1.11636,-4.42237e-05,2.24116,0.000227272,0.594356,-0.000247487,-0.000511265,-0.0495536,-0.000199853,0.13335,0.00103475,-0.0837957,-0.00113465,0,0,0,0.00222241,0,-0.0424929,0,0,0,0.0710263,-0.0246,0.580347,0,0,0,0,0,0
0.364352,-0.000115728,-1.11641,-4.44237e-05,2.24129,0.000228307,0.594272,-0.000248623,-0.000511325,-0.0497486,-0.00019993,0.133696,0.00103515,-0.0839474,-0.0011352,0,0,0,0.00220589,0,-0.042611,0,0,0,0.0710285,-0.0246,0.580304,0,0,0,0,0,0
0.365352,-0.000116239,-1.11646,-4.46237e-05,2.24142,0.000229343,0.594188,-0.000249758,-0.000511373,-0.0499441,-0.000200003,0.134043,0.00103554,-0.0840983,-0.00113572,0,0,0,0.00218918,0,-0.0427291,0,0,0,0.0710307,-0.0246,0.580261,0,0,0,0,0,0
0.366352,-0.00011675,-1.11651,-4.48238e-05,2.24156,0.000230379,0.594104,-0.000250895,-0.000511411,-0.0501401,-0.000200072,0.134389,0.00103591,-0.0842486,-0.00113622,0,0,0,0.00217229,0,-0.0428473,0,0,0,0.0710328,-0.0246,0.580218,0,0,0,0,0,0
0.367353,-0.000117262,-1.11656,-4.5024e-05,2.24169,0.000231415,0.594019,-0.000252032,-0.000511437,-0.0503366,-0.000200137,0.134735,0.00103625,-0.0843981,-0.00113669,0,0,0,0.00215521,0,-0.0429654,0,0,0,0.071035,-0.0246,0.580175,0,0,0,0,0,0
0.368353,-0.000117773,-1.11661,-4.52242e-05,2.24183,0.000232452,0.593935,-0.000253169,-0.000511452,-0.0505336,-0.000200198,0.135081,0.00103657,-0.0845469,-0.00113714,0,0,0,0.00213794,0,-0.0430835,0,0,0,0.0710371,-0.0246,0.580132,0,0,0,0,0,0
0.369353,-0.000118285,-1.11666,-4.54244e-05,2.24196,0.000233489,0.59385,-0.000254307,-0.000511456,-0.0507311,-0.000200255,0.135426,0.00103687,-0.084695,-0.00113757,0,0,0,0.00212048,0,-0.0432017,0,0,0,0.0710392,-0.0246,0.580089,0,0,0,0,0,0
0.370353,-0.000118796,-1.11671,-4.56248e-05,2.2421,0.000234526,0.593765,-0.000255445,-0.000511448,-0.0509291,-0.000200308,0.135772,0.00103715,-0.0848424,-0.00113797,0,0,0,0.00210283,0,-0.0433198,0,0,0,0.0710414,-0.0246,0.580046,0,0,0,0,0,0
0.371353,-0.000119308,-1.11677,-4.58252e-05,2.24223,0.000235564,0.59368,-0.000256583,-0.000511429,-0.0511276,-0.000200357,0.136117,0.0010374,-0.0849891,-0.00113836,0,0,0,0.00208498,0,-0.0434379,0,0,0,0.0710434,-0.0246,0.580002,0,0,0,0,0,0
0.372353,-0.000119819,-1.11682,-4.60256e-05,2.24237,0.000236601,0.593595,-0.000257722,-0.000511398,-0.0513266,-0.000200402,0.136462,0.00103764,-0.085135,-0.00113871,0,0,0,0.00206695,0,-0.043556,0,0,0,0.0710455,-0.0246,0.579959,0,0,0,0,0,0
0.373353,-0.000120331,-1.11687,-4.62261e-05,2.24251,0.000237639,0.59351,-0.000258861,-0.000511357,-0.0515262,-0.000200443,0.136807,0.00103785,-0.0852803,-0.00113905,0,0,0,0.00204873,0,-0.0436741,0,0,0,0.0710476,-0.0246,0.579915,0,0,0,0,0,0
0.374353,-0.000120842,-1.11692,-4.64266e-05,2.24264,0.000238678,0.593424,-0.000260001,-0.000511303,-0.0517262,-0.00020048,0.137151,0.00103804,-0.0854247,-0.00113936,0,0,0,0.00203031,0,-0.0437922,0,0,0,0.0710496,-0.0246,0.579871,0,0,0,0,0,0
0.375354,-0.000121354,-1.11697,-4.66271e-05,2.24278,0.000239716,0.593339,-0.000261141,-0.000511238,-0.0519267,-0.000200514,0.137495,0.00103821,-0.0855685,-0.00113964,0,0,0,0.0020117,0,-0.0439103,0,0,0,0.0710516,-0.0246,0.579827,0,0,0,0,0,0
0.376354,-0.000121865,-1.11702,-4.68277e-05,2.24292,0.000240754,0.593253,-0.000262281,-0.000511162,-0.0521278,-0.000200543,0.137839,0.00103835,-0.0857115,-0.00113991,0,0,0,0.0019929,0,-0.0440284,0,0,0,0.0710536,-0.0246,0.579783,0,0,0,0,0,0
0.377354,-0.000122376,-1.11708,-4.70283e-05,2.24306,0.000241793,0.593167,-0.000263421,-0.000511074,-0.0523293,-0.000200568,0.138183,0.00103847,-0.0858538,-0.00114015,0,0,0,0.00197391,0,-0.0441465,0,0,0,0.0710556,-0.0246,0.579739,0,0,0,0,0,0
0.378354,-0.000122887,-1.11713,-4.72289e-05,2.2432,0.000242832,0.593081,-0.000264561,-0.000510975,-0.0525314,-0.000200589,0.138527,0.00103857,-0.0859953,-0.00114036,0,0,0,0.00195472,0,-0.0442646,0,0,0,0.0710575,-0.0246,0.579695,0,0,0,0,0,0
0.379354,-0.000123398,-1.11718,-4.74295e-05,2.24334,0.00024387,0.592995,-0.000265702,-0.000510864,-0.052734,-0.000200606,0.13887,0.00103865,-0.0861361,-0.00114055,0,0,0,0.00193533,0,-0.0443827,0,0,0,0.0710594,-0.0246,0.579651,0,0,0,0,0,0
0.380354,-0.000123909,-1.11723,-4.76301e-05,2.24348,0.000244909,0.592909,-0.000266843,-0.000510741,-0.0529371,-0.000200618,0.139213,0.00103871,-0.0862761,-0.00114072,0,0,0,0.00191575,0,-0.0445008,0,0,0,0.0710614,-0.0246,0.579606,0,0,0,0,0,0
0.381354,-0.000124419,-1.11729,-4.78308e-05,2.24361,0.000245948,0.592822,-0.000267984,-0.000510606,-0.0531408,-0.000200627,0.139556,0.00103874,-0.0864154,-0.00114086,0,0,0,0.00189598,0,-0.0446188,0,0,0,0.0710633,-0.0246,0.579561,0,0,0,0,0,0
0.382354,-0.00012493,-1.11734,-4.80314e-05,2.24375,0.000246987,0.592736,-0.000269125,-0.00051046,-0.0533449,-0.000200632,0.139899,0.00103875,-0.0865539,-0.00114098,0,0,0,0.00187601,0,-0.0447369,0,0,0,0.0710651,-0.0246,0.579517,0,0,0,0,0,0
0.383354,-0.00012544,-1.11739,-4.82321e-05,2.24389,0.000248026,0.592649,-0.000270266,-0.000510302,-0.0535496,-0.000200632,0.140241,0.00103874,-0.0866917,-0.00114107,0,0,0,0.00185584,0,-0.044855,0,0,0,0.071067,-0.0246,0.579472,0,0,0,0,0,0
0.384354,-0.00012595,-1.11745,-4.84327e-05,2.24404,0.000249064,0.592562,-0.000271407,-0.000510132,-0.0537548,-0.000200629,0.140584,0.0010387,-0.0868287,-0.00114114,0,0,0,0.00183547,0,-0.044973,0,0,0,0.0710688,-0.0246,0.579427,0,0,0,0,0,0
0.385354,-0.00012646,-1.1175,-4.86334e-05,2.24418,0.000250103,0.592475,-0.000272549,-0.000509951,-0.0539605,-0.000200621,0.140926,0.00103864,-0.086965,-0.00114118,0,0,0,0.00181491,0,-0.0450911,0,0,0,0.0710706,-0.0246,0.579382,0,0,0,0,0,0
0.386355,-0.00012697,-1.11756,-4.8834e-05,2.24432,0.000251142,0.592388,-0.00027369,-0.000509757,-0.0541668,-0.000200609,0.141267,0.00103856,-0.0871005,-0.0011412,0,0,0,0.00179415,0,-0.0452091,0,0,0,0.0710724,-0.0246,0.579337,0,0,0,0,0,0
0.387355,-0.00012748,-1.11761,-4.90346e-05,2.24446,0.00025218,0.592301,-0.000274831,-0.000509552,-0.0543736,-0.000200593,0.141609,0.00103845,-0.0872352,-0.0011412,0,0,0,0.00177319,0,-0.0453271,0,0,0,0.0710742,-0.0246,0.579291,0,0,0,0,0,0
0.388355,-0.000127989,-1.11767,-4.92352e-05,2.2446,0.000253219,0.592213,-0.000275973,-0.000509335,-0.0545809,-0.000200573,0.14195,0.00103832,-0.0873692,-0.00114117,0,0,0,0.00175203,0,-0.0454452,0,0,0,0.071076,-0.0246,0.579246,0,0,0,0,0,0
0.389355,-0.000128498,-1.11772,-4.94358e-05,2.24474,0.000254257,0.592126,-0.000277114,-0.000509106,-0.0547888,-0.000200549,0.142291,0.00103817,-0.0875024,-0.00114111,0,0,0,0.00173067,0,-0.0455632,0,0,0,0.0710777,-0.0246,0.5792,0,0,0,0,0,0
0.390355,-0.000129007,-1.11778,-4.96363e-05,2.24489,0.000255295,0.592038,-0.000278255,-0.000508865,-0.0549971,-0.00020052,0.142632,0.00103799,-0.0876348,-0.00114103,0,0,0,0.00170911,0,-0.0456812,0,0,0,0.0710794,-0.0246,0.579154,0,0,0,0,0,0
0.391355,-0.000129516,-1.11783,-4.98368e-05,2.24503,0.000256333,0.591951,-0.000279396,-0.000508612,-0.0552061,-0.000200487,0.142973,0.00103779,-0.0877664,-0.00114093,0,0,0,0.00168735,0,-0.0457992,0,0,0,0.0710811,-0.0246,0.579109,0,0,0,0,0,0
0.392355,-0.000130024,-1.11789,-5.00373e-05,2.24517,0.000257371,0.591863,-0.000280537,-0.000508346,-0.0554155,-0.00020045,0.143313,0.00103757,-0.0878973,-0.00114079,0,0,0,0.00166539,0,-0.0459172,0,0,0,0.0710828,-0.0246,0.579063,0,0,0,0,0,0
0.393355,-0.000130532,-1.11794,-5.02377e-05,2.24532,0.000258408,0.591775,-0.000281678,-0.000508069,-0.0556255,-0.000200409,0.143653,0.00103733,-0.0880274,-0.00114064,0,0,0,0.00164322,0,-0.0460352,0,0,0,0.0710844,-0.0246,0.579017,0,0,0,0,0,0
0.394356,-0.00013104,-1.118,-5.04381e-05,2.24546,0.000259446,0.591686,-0.000282818,-0.00050778,-0.0558361,-0.000200363,0.143993,0.00103706,-0.0881567,-0.00114046,0,0,0,0.00162086,0,-0.0461532,0,0,0,0.071086,-0.0246,0.578971,0,0,0,0,0,0
0.395356,-0.000131548,-1.11805,-5.06385e-05,2.2456,0.000260482,0.591598,-0.000283959,-0.000507478,-0.0560471,-0.000200314,0.144332,0.00103676,-0.0882852,-0.00114025,0,0,0,0.00159829,0,-0.0462712,0,0,0,0.0710876,-0.0246,0.578924,0,0,0,0,0,0
0.396356,-0.000132055,-1.11811,-5.08388e-05,2.24575,0.000261519,0.59151,-0.000285099,-0.000507165,-0.0562588,-0.00020026,0.144672,0.00103644,-0.0884129,-0.00114001,0,0,0,0.00157551,0,-0.0463892,0,0,0,0.0710892,-0.0246,0.578878,0,0,0,0,0,0
0.397356,-0.000132562,-1.11817,-5.1039e-05,2.24589,0.000262555,0.591421,-0.000286239,-0.000506839,-0.0564709,-0.000200201,0.145011,0.0010361,-0.0885398,-0.00113976,0,0,0,0.00155254,0,-0.0465071,0,0,0,0.0710907,-0.0246,0.578831,0,0,0,0,0,0
0.398356,-0.000133069,-1.11822,-5.12392e-05,2.24604,0.000263591,0.591332,-0.000287378,-0.000506501,-0.0566837,-0.000200138,0.14535,0.00103573,-0.0886659,-0.00113947,0,0,0,0.00152935,0,-0.0466251,0,0,0,0.0710923,-0.0246,0.578785,0,0,0,0,0,0
0.399356,-0.000133575,-1.11828,-5.14393e-05,2.24619,0.000264627,0.591244,-0.000288518,-0.00050615,-0.0568969,-0.000200072,0.145688,0.00103534,-0.0887912,-0.00113916,0,0,0,0.00150597,0,-0.046743,0,0,0,0.0710938,-0.0246,0.578738,0,0,0,0,0,0
0.400356,-0.000134081,-1.11834,-5.16393e-05,2.24633,0.000265662,0.591155,-0.000289657,-0.000505788,-0.0571107,-0.0002,0.146027,0.00103493,-0.0889157,-0.00113882,0,0,0,0.00148238,0,-0.046861,0,0,0,0.0710953,-0.0246,0.578691,0,0,0,0,0,0
0.401356,-0.000134586,-1.11839,-5.18392e-05,2.24648,0.000266696,0.591066,-0.000290795,-0.000505412,-0.0573251,-0.000199925,0.146365,0.00103449,-0.0890394,-0.00113846,0,0,0,0.00145858,0,-0.0469789,0,0,0,0.0710967,-0.0246,0.578644,0,0,0,0,0,0
0.402357,-0.000135091,-1.11845,-5.20391e-05,2.24662,0.00026773,0.590977,-0.000291933,-0.000505025,-0.05754,-0.000199845,0.146703,0.00103403,-0.0891623,-0.00113807,0,0,0,0.00143458,0,-0.0470968,0,0,0,0.0710981,-0.0246,0.578597,0,0,0,0,0,0
0.403357,-0.000135596,-1.11851,-5.22389e-05,2.24677,0.000268764,0.590887,-0.000293071,-0.000504625,-0.0577555,-0.00019976,0.14704,0.00103354,-0.0892844,-0.00113766,0,0,0,0.00141037,0,-0.0472147,0,0,0,0.0710996,-0.0246,0.57855,0,0,0,0,0,0
0.404357,-0.0001361,-1.11857,-5.24386e-05,2.24692,0.000269797,0.590798,-0.000294209,-0.000504213,-0.0579715,-0.000199672,0.147377,0.00103303,-0.0894056,-0.00113721,0,0,0,0.00138595,0,-0.0473326,0,0,0,0.0711009,-0.0246,0.578502,0,0,0,0,0,0
0.405357,-0.000136604,-1.11863,-5.26382e-05,2.24707,0.00027083,0.590708,-0.000295345,-0.000503788,-0.0581881,-0.000199578,0.147714,0.00103249,-0.0895261,-0.00113675,0,0,0,0.00136132,0,-0.0474505,0,0,0,0.0711023,-0.0246,0.578455,0,0,0,0,0,0
0.406357,-0.000137107,-1.11868,-5.28377e-05,2.24721,0.000271862,0.590619,-0.000296482,-0.000503351,-0.0584052,-0.000199481,0.148051,0.00103193,-0.0896457,-0.00113625,0,0,0,0.00133649,0,-0.0475683,0,0,0,0.0711036,-0.0246,0.578407,0,0,0,0,0,0
0.407357,-0.00013761,-1.11874,-5.30371e-05,2.24736,0.000272893,0.590529,-0.000297618,-0.000502902,-0.0586229,-0.000199379,0.148388,0.00103134,-0.0897645,-0.00113573,0,0,0,0.00131144,0,-0.0476862,0,0,0,0.071105,-0.0246,0.57836,0,0,0,0,0,0
0.408357,-0.000138113,-1.1188,-5.32363e-05,2.24751,0.000273924,0.590439,-0.000298753,-0.000502439,-0.0588412,-0.000199273,0.148724,0.00103073,-0.0898825,-0.00113518,0,0,0,0.00128619,0,-0.047804,0,0,0,0.0711062,-0.0246,0.578312,0,0,0,0,0,0
0.409357,-0.000138615,-1.11886,-5.34355e-05,2.24766,0.000274954,0.590349,-0.000299888,-0.000501964,-0.05906,-0.000199162,0.14906,0.00103009,-0.0899996,-0.0011346,0,0,0,0.00126072,0,-0.0479219,0,0,0,0.0711075,-0.0246,0.578264,0,0,0,0,0,0
0.410357,-0.000139116,-1.11892,-5.36346e-05,2.24781,0.000275984,0.590259,-0.000301022,-0.000501477,-0.0592794,-0.000199047,0.149396,0.00102943,-0.0901159,-0.001134,0,0,0,0.00123505,0,-0.0480397,0,0,0,0.0711087,-0.0246,0.578216,0,0,0,0,0,0
0.411357,-0.000139617,-1.11898,-5.38335e-05,2.24796,0.000277013,0.590169,-0.000302155,-0.000500977,-0.0594994,-0.000198927,0.149731,0.00102874,-0.0902314,-0.00113337,0,0,0,0.00120916,0,-0.0481575,0,0,0,0.0711099,-0.0246,0.578168,0,0,0,0,0,0
0.412358,-0.000140118,-1.11904,-5.40324e-05,2.24811,0.000278041,0.590078,-0.000303288,-0.000500464,-0.0597199,-0.000198803,0.150066,0.00102803,-0.090346,-0.00113272,0,0,0,0.00118307,0,-0.0482753,0,0,0,0.0711111,-0.0246,0.57812,0,0,0,0,0,0
0.413358,-0.000140618,-1.1191,-5.42311e-05,2.24826,0.000279068,0.589988,-0.00030442,-0.000499939,-0.059941,-0.000198674,0.150401,0.00102729,-0.0904598,-0.00113203,0,0,0,0.00115676,0,-0.0483931,0,0,0,0.0711123,-0.0246,0.578071,0,0,0,0,0,0
0.414358,-0.000141117,-1.11916,-5.44296e-05,2.24841,0.000280095,0.589897,-0.000305552,-0.0004994,-0.0601627,-0.000198541,0.150736,0.00102653,-0.0905728,-0.00113132,0,0,0,0.00113024,0,-0.0485109,0,0,0,0.0711134,-0.0246,0.578023,0,0,0,0,0,0
