Kcygt/SemiCircleKinovaTest_Cpp/x64/Debug/data.csv
t,q1,q2,q3,q4,q5,q6,q7,qp1,qp2,qp3,qp4,qp5,qp6,qp7,xd,yd,zd,vxd,vyd,vzd,wxd,wyd,wzd,x,y,z,vx,vy,vz,wx,wy,wz
1.12e-05,1.02839e-06,-1.10828,-1.8048e-06,2.21657,-8.009e-07,0.610865,-9.08399e-07,0.0918202,0.0011099,-0.161143,0.00693868,-0.071509,-0.00804858,-0.0811071,0.0702507,0.0246,0.588057,-1.31159e-06,0,1.2042e-16,0,0,0,0.0702507,-0.0245994,0.588057,0,0,0,0,0,0
0.0057605,0.000529146,-1.10829,-0.000928167,2.2166,-0.00041235,0.610833,-0.000466749,0.0918577,-0.000685301,-0.161126,0.00632942,-0.0715825,-0.00564431,-0.0810256,0.0702488,0.0246,0.588057,-0.000674593,0,1.63841e-08,0,0,0,0.0702469,-0.0243166,0.588057,0,0,0,0,0,0
0.0132028,0.0012092,-1.10831,-0.00212029,2.21664,-0.00094277,0.610815,-0.00106551,0.0913762,-0.0030572,-0.160183,0.00536766,-0.071271,-0.00240539,-0.0804539,0.0702405,0.0246,0.588057,-0.00154614,0,1.97261e-07,0,0,0,0.0702355,-0.0239525,0.588056,0,0,0,0,0,0
0.0176886,0.00161614,-1.10833,-0.00283343,2.21667,-0.00126038,0.610813,-0.00142343,0.090718,-0.00449988,-0.158976,0.00467757,-0.0708034,-0.000392993,-0.0797897,0.0702324,0.0246,0.588057,-0.00207145,0,4.74377e-07,0,0,0,0.0702263,-0.0237347,0.588056,0,0,0,0,0,0
0.025157,0.00229092,-1.10838,-0.0040152,2.21669,-0.00178754,0.610834,-0.00201586,0.0903512,-0.00688224,-0.158236,0.00374804,-0.0705854,0.00284772,-0.0793251,0.0702137,0.0246,0.588057,-0.00294605,0,1.36465e-06,0,0,0,0.0702043,-0.0233738,0.588056,0,0,0,0,0,0
0.0322699,0.00292898,-1.10845,-0.00513207,2.21671,-0.00228655,0.610877,-0.00257514,0.0897052,-0.00915417,-0.15702,0.00277712,-0.0701552,0.00597401,-0.0786291,0.0701898,0.0246,0.588057,-0.00377902,0,2.88029e-06,0,0,0,0.0701774,-0.0230325,0.588056,0,0,0,0,0,0
0.0427728,0.00386489,-1.10858,-0.00676894,2.21673,-0.00301962,0.610988,-0.00339351,0.08911,-0.0125213,-0.155849,0.00143854,-0.0697971,0.0105711,-0.0779178,0.0701436,0.0246,0.588057,-0.00500898,0,6.70728e-06,0,0,0,0.0701247,-0.0225322,0.588056,0,0,0,0,0,0
0.0508829,0.00458009,-1.1087,-0.0080191,2.21673,-0.00358065,0.611102,-0.00401781,0.0881859,-0.0150911,-0.154148,0.000284602,-0.0691763,0.0141386,-0.0769779,0.0700991,0.0246,0.588057,-0.00595872,0,1.12917e-05,0,0,0,0.0700763,-0.0221499,0.588055,0,0,0,0,0,0
0.0597178,0.00535302,-1.10886,-0.00936932,2.21672,-0.00418791,0.611262,-0.00469123,0.0874862,-0.0179106,-0.152828,-0.000898196,-0.0687352,0.0180238,-0.0762226,0.0700419,0.0246,0.588057,-0.00699333,0,1.82538e-05,0,0,0,0.0700144,-0.0217369,0.588055,0,0,0,0,0,0
0.0666715,0.00595598,-1.109,-0.0104221,2.21671,-0.00466232,0.611408,-0.00521583,0.0867099,-0.0200957,-0.151405,-0.00188104,-0.068224,0.0210675,-0.0754433,0.0699905,0.0246,0.588057,-0.00780764,0,2.54017e-05,0,0,0,0.0699601,-0.0214146,0.588055,0,0,0,0,0,0
0.078096,0.00693991,-1.10927,-0.0121387,2.21667,-0.00543807,0.611707,-0.00606982,0.086125,-0.0237887,-0.150256,-0.00335864,-0.0679022,0.0261427,-0.0747503,0.0698936,0.0246,0.588058,-0.00914547,0,4.08252e-05,0,0,0,0.0698551,-0.0208889,0.588055,0,0,0,0,0,0
0.0860664,0.0076183,-1.10948,-0.0133217,2.21664,-0.00597398,0.611943,-0.0066578,0.0851137,-0.0262448,-0.148425,-0.0045144,-0.0672375,0.0296023,-0.0737711,0.069817,0.0246,0.588058,-0.0100788,0,5.46439e-05,0,0,0,0.0697746,-0.0205263,0.588055,0,0,0,0,0,0
0.093432,0.00824008,-1.10969,-0.0144056,2.21659,-0.00646602,0.612185,-0.007196,0.0844172,-0.0285545,-0.147144,-0.00554092,-0.0668022,0.0328358,-0.0730694,0.0697396,0.0246,0.588058,-0.0109413,0,6.99081e-05,0,0,0,0.0696939,-0.0201938,0.588056,0,0,0,0,0,0
0.0998618,0.00877872,-1.10989,-0.0153441,2.21655,-0.00689295,0.612414,-0.00766172,0.0837725,-0.0305543,-0.145965,-0.00644695,-0.0663981,0.035649,-0.0724308,0.0696668,0.0246,0.588059,-0.0116942,0,8.53567e-05,0,0,0,0.0696186,-0.0199058,0.588056,0,0,0,0,0,0
0.109081,0.00954599,-1.1102,-0.0166801,2.21648,-0.00750231,0.612781,-0.00832392,0.0832206,-0.0335218,-0.144913,-0.00769934,-0.0660942,0.0397899,-0.0718256,0.069554,0.0246,0.58806,-0.0127737,0,0.000111247,0,0,0,0.0695004,-0.0194954,0.588057,0,0,0,0,0,0
0.115974,0.010114,-1.11044,-0.0176689,2.21642,-0.00795432,0.613076,-0.00881365,0.0824087,-0.0356094,-0.14345,-0.00870084,-0.0655798,0.0427687,-0.0710524,0.0694632,0.0246,0.588061,-0.0135807,0,0.000133696,0,0,0,0.0694066,-0.0191914,0.588058,0,0,0,0,0,0
0.126534,0.010978,-1.11085,-0.0191717,2.21631,-0.00864355,0.613578,-0.0095571,0.0818159,-0.0390211,-0.142317,-0.010167,-0.0652678,0.0475663,-0.0704017,0.0693133,0.0246,0.588062,-0.014817,0,0.000173642,0,0,0,0.0692494,-0.0187288,0.588059,0,0,0,0,0,0
0.13505,0.0116668,-1.11121,-0.0203694,2.21622,-0.0091945,0.614014,-0.0101491,0.0808868,-0.0415934,-0.140641,-0.0114177,-0.0646947,0.0512699,-0.0695198,0.0691829,0.0246,0.588064,-0.0158139,0,0.000211113,0,0,0,0.0691143,-0.0183598,0.588061,0,0,0,0,0,0
0.141422,0.0121775,-1.11148,-0.0212571,2.21614,-0.00960379,0.614359,-0.0105877,0.080139,-0.0434814,-0.1393,-0.0123647,-0.0642306,0.0540118,-0.0688223,0.0690797,0.0246,0.588065,-0.0165597,0,0.000242428,0,0,0,0.0690086,-0.018086,0.588062,0,0,0,0,0,0
0.148758,0.0127613,-1.11182,-0.0222715,2.21604,-0.0100727,0.614779,-0.0110885,0.0795845,-0.0457807,-0.138277,-0.0134378,-0.0639186,0.0573166,-0.0682676,0.0689551,0.0246,0.588067,-0.0174183,0,0.000282143,0,0,0,0.0688805,-0.0177728,0.588064,0,0,0,0,0,0
0.155818,0.0133186,-1.11216,-0.0232395,2.21594,-0.0105213,0.615206,-0.0115661,0.0789437,-0.0479355,-0.137113,-0.014491,-0.0635437,0.0604485,-0.0676522,0.0688292,0.0246,0.588069,-0.0182444,0,0.000324245,0,0,0,0.0687514,-0.0174736,0.588066,0,0,0,0,0,0
0.162956,0.0138777,-1.11252,-0.0242102,2.21583,-0.0109724,0.61566,-0.0120448,0.0783278,-0.0501212,-0.135991,-0.0155661,-0.0631896,0.0636381,-0.0670587,0.068696,0.0246,0.588072,-0.0190797,0,0.000370876,0,0,0,0.0686149,-0.0171732,0.588069,0,0,0,0,0,0
0.170545,0.0144674,-1.11292,-0.0252336,2.2157,-0.0114492,0.616169,-0.0125491,0.0777052,-0.052453,-0.134854,-0.0167224,-0.0628383,0.067056,-0.0664567,0.0685478,0.0246,0.588075,-0.0199675,0,0.000425137,0,0,0,0.068463,-0.0168561,0.588072,0,0,0,0,0,0
0.176745,0.0149451,-1.11325,-0.0260623,2.21559,-0.0118363,0.616601,-0.0129573,0.0770428,-0.0542608,-0.133667,-0.0176842,-0.0624434,0.069753,-0.0658476,0.0684218,0.0246,0.588078,-0.0206926,0,0.000473199,0,0,0,0.0683345,-0.016599,0.588075,0,0,0,0,0,0
0.185875,0.0156436,-1.11377,-0.0272735,2.21542,-0.012404,0.617277,-0.0135535,0.0765027,-0.0571706,-0.132655,-0.0191096,-0.0621736,0.0740305,-0.0652942,0.068228,0.0246,0.588082,-0.0217603,0,0.000550378,0,0,0,0.068135,-0.0162227,0.588079,0,0,0,0,0,0
0.19218,0.0161209,-1.11414,-0.028101,2.21529,-0.012793,0.617761,-0.0139607,0.0757069,-0.0589028,-0.131244,-0.020115,-0.061689,0.0766854,-0.0645868,0.0680884,0.0246,0.588086,-0.0224974,0,0.000608298,0,0,0,0.0679929,-0.0159652,0.588083,0,0,0,0,0,0
0.201961,0.016856,-1.11475,-0.0293745,2.21508,-0.0133937,0.618556,-0.0145869,0.0751562,-0.062024,-0.130208,-0.0216976,-0.0614238,0.081334,-0.064023,0.0678628,0.0246,0.588092,-0.0236404,0,0.000705958,0,0,0,0.0677605,-0.0155683,0.58809,0,0,0,0,0,0
0.208577,0.0173476,-1.11517,-0.030226,2.21493,-0.0137967,0.619113,-0.0150055,0.0743066,-0.0637885,-0.128705,-0.0227808,-0.0609086,0.0840985,-0.0632777,0.0677039,0.0246,0.588097,-0.0244133,0,0.000777619,0,0,0,0.0675987,-0.0153025,0.588095,0,0,0,0,0,0
0.216309,0.0179177,-1.11568,-0.031213,2.21474,-0.0142653,0.619791,-0.0154906,0.0737308,-0.0661376,-0.127652,-0.0240743,-0.0606025,0.0876868,-0.0627301,0.0675116,0.0246,0.588104,-0.0253164,0,0.000867326,0,0,0,0.0674024,-0.0149938,0.588101,0,0,0,0,0,0
0.22376,0.018462,-1.11619,-0.0321551,2.21455,-0.014714,0.620469,-0.0159534,0.07306,-0.0682992,-0.126442,-0.0253376,-0.0602269,0.0910501,-0.0621168,0.0673197,0.0246,0.58811,-0.0261861,0,0.000960043,0,0,0,0.0672067,-0.0146987,0.588108,0,0,0,0,0,0
0.232571,0.0191001,-1.11682,-0.0332587,2.21431,-0.0152417,0.621308,-0.0164953,0.0724116,-0.0709548,-0.125255,-0.0268673,-0.0598863,0.095178,-0.0615054,0.0670845,0.0246,0.588119,-0.0272143,0,0.00107794,0,0,0,0.0669659,-0.0143523,0.588118,0,0,0,0,0,0
0.238529,0.019527,-1.11725,-0.0339971,2.21415,-0.0155958,0.62189,-0.0168579,0.0716542,-0.0724663,-0.123916,-0.0278964,-0.0594319,0.0976527,-0.0608527,0.0669203,0.0246,0.588126,-0.0279091,0,0.0011629,0,0,0,0.0667994,-0.0141201,0.588125,0,0,0,0,0,0
0.24578,0.0200428,-1.11779,-0.0348887,2.21394,-0.0160248,0.622623,-0.0172956,0.071137,-0.0746405,-0.122967,-0.0291987,-0.0591647,0.101086,-0.060367,0.0667148,0.0246,0.588135,-0.0287543,0,0.00127216,0,0,0,0.0665904,-0.0138393,0.588134,0,0,0,0,0,0
0.251653,0.020457,-1.11824,-0.0356044,2.21376,-0.0163702,0.623231,-0.017647,0.0705152,-0.0762056,-0.121857,-0.0302507,-0.0588058,0.103653,-0.0598225,0.0665439,0.0246,0.588143,-0.0294386,0,0.00136551,0,0,0,0.0664172,-0.0136135,0.588142,0,0,0,0,0,0
0.259375,0.0209976,-1.11885,-0.0365381,2.21351,-0.0168223,0.624061,-0.0181052,0.0700046,-0.0785347,-0.120914,-0.031689,-0.0585508,0.10738,-0.0593398,0.0663131,0.0246,0.588154,-0.0303378,0,0.00149504,0,0,0,0.0661822,-0.0133182,0.588153,0,0,0,0,0,0
0.265276,0.0214068,-1.11932,-0.0372447,2.21332,-0.0171656,0.624709,-0.018452,0.0693461,-0.0800401,-0.119741,-0.032774,-0.0581669,0.10992,-0.0587717,0.0661321,0.0246,0.588163,-0.0310244,0,0.00159936,0,0,0,0.0659989,-0.0130944,0.588162,0,0,0,0,0,0
0.271228,0.0218165,-1.1198,-0.0379519,2.21312,-0.0175101,0.62538,-0.0187991,0.0688401,-0.0817014,-0.118824,-0.0339035,-0.0578915,0.112673,-0.0583188,0.0659454,0.0246,0.588173,-0.0317166,0,0.00170937,0,0,0,0.0658098,-0.01287,0.588172,0,0,0,0,0,0
0.279166,0.0223588,-1.12047,-0.0388875,2.21284,-0.0179676,0.626305,-0.0192582,0.0683236,-0.0840657,-0.117867,-0.0354603,-0.0576363,0.116557,-0.0578347,0.06569,0.0246,0.588187,-0.032639,0,0.00186378,0,0,0,0.0655498,-0.0125724,0.588187,0,0,0,0,0,0
0.284755,0.022737,-1.12095,-0.0395397,2.21263,-0.0182876,0.62697,-0.0195783,0.0676534,-0.0853874,-0.116677,-0.0365257,-0.0572401,0.118897,-0.0572678,0.0655057,0.0246,0.588198,-0.033288,0,0.0019779,0,0,0,0.0653635,-0.0123645,0.588198,0,0,0,0,0,0
0.292195,0.0232367,-1.1216,-0.040401,2.21235,-0.0187116,0.627881,-0.020001,0.0671697,-0.087576,-0.115779,-0.0380364,-0.0570012,0.122564,-0.0568178,0.0652548,0.0246,0.588213,-0.0341512,0,0.00213687,0,0,0,0.0651087,-0.0120894,0.588214,0,0,0,0,0,0
0.297961,0.0236204,-1.12211,-0.0410621,2.21212,-0.0190382,0.628602,-0.0203255,0.0665434,-0.0889709,-0.114659,-0.0391795,-0.056638,0.12506,-0.0562847,0.065056,0.0246,0.588226,-0.0348195,0,0.00226576,0,0,0,0.0649076,-0.0118778,0.588227,0,0,0,0,0,0
0.305449,0.0241149,-1.1228,-0.0419138,2.21182,-0.0194605,0.629567,-0.0207436,0.0660464,-0.0911325,-0.113736,-0.0407524,-0.0563902,0.128764,-0.0558276,0.064792,0.0246,0.588243,-0.0356867,0,0.00244074,0,0,0,0.0646396,-0.0116045,0.588245,0,0,0,0,0,0
0.311474,0.0245091,-1.12335,-0.0425923,2.21157,-0.019798,0.630358,-0.0210767,0.0654187,-0.0925791,-0.112609,-0.0419903,-0.0560287,0.131409,-0.0552935,0.0645749,0.0246,0.588258,-0.0363838,0,0.00258788,0,0,0,0.06442,-0.0113862,0.588261,0,0,0,0,0,0
0.317362,0.0248913,-1.12391,-0.0432498,2.21131,-0.0201263,0.631148,-0.0213997,0.0649107,-0.0941052,-0.111684,-0.0432414,-0.0557498,0.134156,-0.0548504,0.0643587,0.0246,0.588274,-0.0370643,0,0.00273725,0,0,0,0.0642014,-0.0111743,0.588277,0,0,0,0,0,0
0.324719,0.0253651,-1.12462,-0.0440646,2.21098,-0.0205346,0.632162,-0.0217999,0.0644071,-0.0961607,-0.110748,-0.0448644,-0.0554942,0.137806,-0.0543943,0.0640829,0.0246,0.588295,-0.0379136,0,0.00293181,0,0,0,0.0639216,-0.0109109,0.588298,0,0,0,0,0,0
0.330699,0.0257466,-1.1252,-0.0447203,2.21071,-0.0208643,0.633002,-0.022122,0.0637958,-0.0975468,-0.109645,-0.0461528,-0.0551417,0.140446,-0.0538771,0.0638541,0.0246,0.588313,-0.038603,0,0.00309654,0,0,0,0.0636904,-0.0106985,0.588316,0,0,0,0,0,0
0.338204,0.0262216,-1.12595,-0.045536,2.21035,-0.0212762,0.634084,-0.0225229,0.0632863,-0.0996103,-0.108694,-0.0478695,-0.0548826,0.144199,-0.0534177,0.0635611,0.0246,0.588337,-0.0394672,0,0.00331185,0,0,0,0.0633932,-0.0104334,0.588341,0,0,0,0,0,0
0.344197,0.0265971,-1.12655,-0.0461808,2.21005,-0.021603,0.634964,-0.02284,0.0626676,-0.100943,-0.107576,-0.0492011,-0.054523,0.146831,-0.0528975,0.0633225,0.0246,0.588357,-0.0401563,0,0.00349076,0,0,0,0.0631521,-0.0102233,0.588362,0,0,0,0,0,0
0.350248,0.0269734,-1.12717,-0.0468262,2.20975,-0.0219312,0.63587,-0.0231575,0.0621683,-0.102445,-0.106656,-0.0506042,-0.054249,0.149712,-0.0524647,0.0630774,0.0246,0.588379,-0.0408512,0,0.0036778,0,0,0,0.0629045,-0.0100125,0.588384,0,0,0,0,0,0
0.357147,0.0273987,-1.12789,-0.0475555,2.20938,-0.0223036,0.636927,-0.0235163,0.0616606,-0.104227,-0.105711,-0.0522512,-0.0539798,0.153117,-0.0520171,0.0627929,0.0246,0.588405,-0.0416422,0,0.00389901,0,0,0,0.0626164,-0.00977357,0.588411,0,0,0,0,0,0
0.36305,0.0277594,-1.12851,-0.0481733,2.20907,-0.0226203,0.637846,-0.0238205,0.0610958,-0.105534,-0.104679,-0.0536378,-0.0536541,0.155783,-0.0515404,0.0625451,0.0246,0.588429,-0.0423179,0,0.00409514,0,0,0,0.0623662,-0.00957057,0.588435,0,0,0,0,0,0
0.3707,0.028223,-1.12934,-0.048967,2.20864,-0.0230289,0.639068,-0.0242114,0.0605975,-0.10756,-0.103735,-0.0555517,-0.0533997,0.159703,-0.0510929,0.062218,0.0246,0.588461,-0.0431921,0,0.00435893,0,0,0,0.0620346,-0.00930896,0.588468,0,0,0,0,0,0
0.37679,0.0285882,-1.13,-0.0495918,2.2083,-0.0233518,0.640057,-0.0245194,0.0599786,-0.108797,-0.102605,-0.057016,-0.0530345,0.162377,-0.0505771,0.0619528,0.0246,0.588488,-0.0438866,0,0.00457677,0,0,0,0.0617668,-0.00910236,0.588496,0,0,0,0,0,0
0.38466,0.0290562,-1.13087,-0.0503917,2.20783,-0.0237672,0.641367,-0.0249139,0.0594676,-0.110832,-0.101632,-0.0590588,-0.0527707,0.166434,-0.0501198,0.0616039,0.0246,0.588525,-0.0447824,0,0.00486885,0,0,0,0.0614131,-0.00883692,0.588534,0,0,0,0,0,0
0.391158,0.0294385,-1.1316,-0.0510445,2.20744,-0.0241076,0.642467,-0.0252361,0.0588348,-0.11213,-0.100467,-0.0606858,-0.0523971,0.169335,-0.0495913,0.0613105,0.0246,0.588558,-0.0455203,0,0.00511908,0,0,0,0.0611166,-0.00861952,0.588568,0,0,0,0,0,0
0.397336,0.0297988,-1.1323,-0.0516591,2.20705,-0.0244295,0.643531,-0.0255397,0.0583095,-0.113467,-0.0994876,-0.0622899,-0.0520958,0.172257,-0.0491445,0.0610271,0.0246,0.58859,-0.0462204,0,0.00536476,0,0,0,0.0608305,-0.00841416,0.588601,0,0,0,0,0,0
0.403917,0.0301792,-1.13306,-0.0523076,2.20663,-0.0247705,0.644686,-0.0258603,0.0578069,-0.114964,-0.0985382,-0.0640524,-0.0518148,0.175499,-0.04871,0.0607205,0.0246,0.588626,-0.0469646,0,0.00563493,0,0,0,0.0605206,-0.00819674,0.588638,0,0,0,0,0,0
0.409994,0.0305273,-1.13376,-0.0529004,2.20623,-0.0250835,0.64577,-0.0261536,0.0572805,-0.116207,-0.097553,-0.0656744,-0.0515076,0.178347,-0.0482649,0.060433,0.0246,0.588661,-0.0476501,0,0.00589223,0,0,0,0.0602305,-0.00799732,0.588674,0,0,0,0,0,0
0.417226,0.030938,-1.13462,-0.053599,2.20574,-0.025454,0.647086,-0.0264995,0.056784,-0.117895,-0.0965991,-0.0677037,-0.0512359,0.182049,-0.0478287,0.0600855,0.0246,0.588705,-0.0484639,0,0.00620844,0,0,0,0.0598789,-0.0077614,0.588718,0,0,0,0,0,0
0.423697,0.0313017,-1.13539,-0.0542172,2.20529,-0.0257834,0.648284,-0.0268059,0.0562122,-0.119133,-0.0955245,-0.0694815,-0.0508956,0.185047,-0.0473477,0.0597695,0.0246,0.588746,-0.0491901,0,0.0065007,0,0,0,0.0595598,-0.00755184,0.58876,0,0,0,0,0,0
0.431015,0.0317093,-1.13627,-0.0549089,2.20477,-0.0261537,0.649665,-0.0271491,0.0556908,-0.120738,-0.0945202,-0.0715959,-0.0506016,0.188753,-0.0468938,0.0594065,0.0246,0.588795,-0.0500089,0,0.00684199,0,0,0,0.0591927,-0.00731636,0.58881,0,0,0,0,0,0
0.436765,0.0320262,-1.13697,-0.0554462,2.20435,-0.0264426,0.650765,-0.027416,0.0551249,-0.121658,-0.0934602,-0.07319,-0.0502507,0.191251,-0.0464259,0.0591172,0.0246,0.588835,-0.0506503,0,0.00711826,0,0,0,0.058901,-0.00713275,0.588851,0,0,0,0,0,0
0.442841,0.0323584,-1.13772,-0.0560088,2.20389,-0.0267463,0.651945,-0.0276957,0.0546699,-0.12289,-0.0925826,-0.074985,-0.0499854,0.194267,-0.046034,0.0588073,0.0246,0.588879,-0.0513263,0,0.00741814,0,0,0,0.0585885,-0.0069398,0.588896,0,0,0,0,0,0
0.450636,0.0327807,-1.13869,-0.0567229,2.20329,-0.0271338,0.653492,-0.0280511,0.054179,-0.124625,-0.0916124,-0.0773872,-0.0497126,0.198395,-0.0455975,0.0584039,0.0246,0.588939,-0.0521907,0,0.00781487,0,0,0,0.0581801,-0.00669372,0.588957,0,0,0,0,0,0
0.456845,0.0331134,-1.13947,-0.0572848,2.2028,-0.0274402,0.65474,-0.0283312,0.0535849,-0.125539,-0.0904865,-0.079196,-0.0493375,0.201105,-0.0451056,0.0580777,0.0246,0.588988,-0.0528766,0,0.00814066,0,0,0,0.0578511,-0.00649928,0.589008,0,0,0,0,0,0
0.465386,0.0335668,-1.14056,-0.058049,2.2021,-0.0278592,0.656498,-0.0287126,0.053083,-0.127433,-0.0894761,-0.0819474,-0.049059,0.205742,-0.0446533,0.0576221,0.0246,0.58906,-0.0538165,0,0.00860327,0,0,0,0.0573894,-0.00623339,0.589081,0,0,0,0,0,0
0.471578,0.0338915,-1.14135,-0.0585955,2.20158,-0.0281604,0.657787,-0.0289858,0.0524457,-0.128151,-0.0882672,-0.0837753,-0.0486427,0.208276,-0.0441313,0.0572867,0.0246,0.589114,-0.054495,0,0.0089492,0,0,0,0.0570513,-0.00604233,0.589137,0,0,0,0,0,0
0.479887,0.0343232,-1.14243,-0.0593206,2.20086,-0.0285622,0.659555,-0.0293488,0.0519524,-0.129891,-0.0872657,-0.0865442,-0.0483601,0.212778,-0.0436879,0.0568301,0.0246,0.58919,-0.0554016,0,0.00942764,0,0,0,0.0565889,-0.00578745,0.589215,0,0,0,0,0,0
0.485854,0.0346296,-1.14321,-0.0598344,2.20033,-0.0288483,0.660839,-0.0296066,0.0513418,-0.130495,-0.086098,-0.0883584,-0.0479534,0.215187,-0.0431875,0.0564976,0.0246,0.589248,-0.0560497,0,0.00978136,0,0,0,0.0562538,-0.00560599,0.589273,0,0,0,0,0,0
0.493539,0.0350206,-1.14422,-0.0604887,2.19963,-0.0292147,0.662525,-0.0299352,0.050875,-0.13199,-0.085144,-0.0909951,-0.0476761,0.219315,-0.0427698,0.0560637,0.0246,0.589325,-0.0568807,0,0.0102496,0,0,0,0.0558151,-0.00537363,0.589352,0,0,0,0,0,0
0.500586,0.035375,-1.14516,-0.0610807,2.19897,-0.0295481,0.664093,-0.0302332,0.0503039,-0.132961,-0.0840155,-0.0933283,-0.0473046,0.222613,-0.0422853,0.0556602,0.0246,0.589398,-0.0576387,0,0.0106916,0,0,0,0.0554077,-0.00516223,0.589427,0,0,0,0,0,0
0.508021,0.0357451,-1.14616,-0.0616975,2.19826,-0.0298973,0.665776,-0.0305442,0.0497749,-0.134116,-0.0829476,-0.0958948,-0.0469662,0.22633,-0.0418259,0.0552287,0.0246,0.58948,-0.0584344,0,0.0111713,0,0,0,0.0549718,-0.00494072,0.58951,0,0,0,0,0,0
0.513982,0.0360386,-1.14696,-0.0621856,2.19768,-0.030175,0.667141,-0.0307908,0.0492389,-0.134708,-0.0818919,-0.0978735,-0.0466013,0.228897,-0.0413783,0.0548785,0.0246,0.589548,-0.059069,0,0.0115658,0,0,0,0.054619,-0.00476449,0.589579,0,0,0,0,0,0
0.520299,0.0363469,-1.14782,-0.0626972,2.19705,-0.0304676,0.668607,-0.0310498,0.0487976,-0.135626,-0.0809905,-0.10012,-0.0463128,0.23206,-0.0409934,0.0545032,0.0246,0.589622,-0.0597384,0,0.0119938,0,0,0,0.0542408,-0.00457883,0.589655,0,0,0,0,0,0
0.527263,0.0366835,-1.14877,-0.0632546,2.19633,-0.030788,0.670247,-0.0313324,0.0483301,-0.136642,-0.0800253,-0.102652,-0.0460059,0.235607,-0.0405822,0.0540846,0.0246,0.589707,-0.0604722,0,0.0124774,0,0,0,0.0538184,-0.00437542,0.589742,0,0,0,0,0,0
0.534514,0.0370302,-1.14976,-0.0638272,2.19557,-0.0311191,0.671982,-0.0316235,0.0478224,-0.137588,-0.0789781,-0.105305,-0.0456644,0.239206,-0.0401387,0.0536434,0.0246,0.589799,-0.0612316,0,0.0129943,0,0,0,0.0533729,-0.0041651,0.589836,0,0,0,0,0,0
0.543925,0.0374751,-1.15107,-0.0645595,2.19454,-0.0315455,0.674281,-0.0319965,0.0472791,-0.139063,-0.0778143,-0.108938,-0.0453093,0.244316,-0.039644,0.0530626,0.0246,0.589925,-0.0622097,0,0.0136855,0,0,0,0.0527843,-0.00389404,0.589965,0,0,0,0,0,0
0.549681,0.0377436,-1.15187,-0.0650002,2.1939,-0.0318036,0.675698,-0.0322218,0.0466445,-0.139029,-0.0765644,-0.110838,-0.0448361,0.246181,-0.0391276,0.0527028,0.0246,0.590005,-0.0628036,0,0.0141198,0,0,0,0.0524222,-0.00372989,0.590046,0,0,0,0,0,0
0.557123,0.0380876,-1.15292,-0.0655632,2.19306,-0.0321352,0.67756,-0.0325101,0.0462212,-0.140098,-0.0756438,-0.113802,-0.0445499,0.250218,-0.0387398,0.0522325,0.0246,0.590112,-0.0635665,0,0.0146945,0,0,0,0.0519474,-0.00351881,0.590156,0,0,0,0,0,0
0.563714,0.0383889,-1.15384,-0.0660547,2.19229,-0.0324263,0.679229,-0.0327625,0.0457084,-0.140571,-0.0745791,-0.116288,-0.0441752,0.25318,-0.0382983,0.0518114,0.0246,0.590211,-0.0642371,0,0.0152158,0,0,0,0.051523,-0.00333331,0.590256,0,0,0,0,0,0
0.571829,0.038756,-1.15499,-0.0666515,2.19132,-0.0327821,0.681319,-0.0330698,0.0452353,-0.141572,-0.0735418,-0.1196,-0.0438417,0.257498,-0.0378657,0.0512867,0.0246,0.590337,-0.0650563,0,0.0158741,0,0,0,0.0509928,-0.00310633,0.590385,0,0,0,0,0,0
0.579029,0.0390777,-1.15601,-0.0671726,2.19044,-0.0330947,0.683195,-0.0333389,0.0446859,-0.141978,-0.0723848,-0.122402,-0.0434285,0.26071,-0.0373895,0.0508158,0.0246,0.590453,-0.0657767,0,0.0164731,0,0,0,0.0505178,-0.00290665,0.590504,0,0,0,0,0,0
0.586949,0.0394277,-1.15714,-0.0677373,2.18944,-0.0334358,0.685292,-0.0336315,0.0441881,-0.142691,-0.0712943,-0.125677,-0.0430585,0.264705,-0.0369399,0.0502916,0.0246,0.590587,-0.0665621,0,0.0171488,0,0,0,0.0499884,-0.00268849,0.59064,0,0,0,0,0,0
0.593607,0.0397184,-1.1581,-0.0682046,2.18859,-0.0337197,0.687073,-0.0338745,0.0436667,-0.142878,-0.0701878,-0.128308,-0.0426516,0.26753,-0.0364886,0.0498464,0.0246,0.590703,-0.0672162,0,0.0177302,0,0,0,0.0495398,-0.00250664,0.590758,0,0,0,0,0,0
0.601244,0.0400484,-1.15919,-0.0687329,2.18758,-0.0340428,0.689146,-0.03415,0.0432124,-0.143506,-0.0691688,-0.131586,-0.0423039,0.271443,-0.0360712,0.0493301,0.0246,0.590841,-0.0679595,0,0.0184127,0,0,0,0.0490188,-0.00229935,0.590898,0,0,0,0,0,0
0.607442,0.0403132,-1.16008,-0.0691551,2.18675,-0.0343026,0.690844,-0.0343709,0.0427221,-0.143529,-0.0681187,-0.134077,-0.0419084,0.273965,-0.0356461,0.048907,0.0246,0.590956,-0.0685571,0,0.0189787,0,0,0,0.048593,-0.00213245,0.591016,0,0,0,0,0,0
0.613271,0.0405599,-1.16092,-0.069547,2.18596,-0.034545,0.692457,-0.0345766,0.0423205,-0.143705,-0.067233,-0.136538,-0.0415842,0.27661,-0.0352874,0.0485058,0.0246,0.591069,-0.0691142,0,0.019521,0,0,0,0.0481894,-0.00197648,0.59113,0,0,0,0,0,0
0.620578,0.0408663,-1.16197,-0.0700315,2.18494,-0.0348465,0.694506,-0.0348317,0.0419279,-0.14426,-0.0663156,-0.13985,-0.0412713,0.280486,-0.0349148,0.0479983,0.0246,0.591214,-0.0698058,0,0.0202146,0,0,0,0.0476777,-0.00178206,0.591278,0,0,0,0,0,0
0.626732,0.0411215,-1.16286,-0.0704334,2.18406,-0.0350982,0.696248,-0.0350441,0.0414704,-0.144195,-0.0653095,-0.142439,-0.0408873,0.28302,-0.0345108,0.0475669,0.0246,0.59134,-0.0703822,0,0.0208108,0,0,0,0.0472436,-0.00161953,0.591406,0,0,0,0,0,0
0.634062,0.0414225,-1.16392,-0.0709052,2.18299,-0.0353954,0.69835,-0.0352942,0.0410678,-0.144579,-0.0643613,-0.145818,-0.0405528,0.286795,-0.0341287,0.0470485,0.0246,0.591495,-0.0710613,0,0.0215354,0,0,0,0.046721,-0.0014271,0.591564,0,0,0,0,0,0
0.640268,0.0416746,-1.16482,-0.0712984,2.18207,-0.0356447,0.700146,-0.0355036,0.0406182,-0.144419,-0.0633567,-0.148496,-0.0401636,0.289323,-0.0337277,0.0466057,0.0246,0.591631,-0.0716298,0,0.0221612,0,0,0,0.0462754,-0.00126539,0.591701,0,0,0,0,0,0
0.647199,0.0419534,-1.16582,-0.0717311,2.18102,-0.0359207,0.702175,-0.0357348,0.0402255,-0.144595,-0.0624262,-0.151732,-0.0398235,0.292747,-0.0333557,0.0461071,0.0246,0.591787,-0.0722574,0,0.0228735,0,0,0,0.0457731,-0.00108589,0.59186,0,0,0,0,0,0
0.653716,0.0422128,-1.16676,-0.0721316,2.18001,-0.0361778,0.704101,-0.0359496,0.0398034,-0.144477,-0.06145,-0.154692,-0.039448,0.295602,-0.0329677,0.0456343,0.0246,0.591938,-0.0728402,0,0.0235563,0,0,0,0.0452972,-0.000918309,0.592013,0,0,0,0,0,0
0.659709,0.042449,-1.16762,-0.0724944,2.17907,-0.0364121,0.705888,-0.036145,0.0394124,-0.144291,-0.0605422,-0.157428,-0.0390942,0.298164,-0.032608,0.0451962,0.0246,0.592081,-0.0733698,0,0.0241953,0,0,0,0.0448566,-0.000765207,0.592159,0,0,0,0,0,0
0.669213,0.0428198,-1.169,-0.0730599,2.17752,-0.0367802,0.708774,-0.036451,0.0390189,-0.144826,-0.0595038,-0.162324,-0.0387383,0.303611,-0.0321943,0.0444949,0.0246,0.592316,-0.0741967,0,0.0252308,0,0,0,0.0441473,-0.000523724,0.592399,0,0,0,0,0,0
0.675671,0.0430684,-1.16993,-0.0734365,2.17646,-0.0370271,0.710747,-0.0366559,0.0384836,-0.143957,-0.0583047,-0.165057,-0.0382315,0.305492,-0.0317242,0.044014,0.0246,0.592481,-0.0747493,0,0.02595,0,0,0,0.0436634,-0.000361272,0.592567,0,0,0,0,0,0
0.683323,0.0433599,-1.17103,-0.0738751,2.17516,-0.0373168,0.713113,-0.0368957,0.0380953,-0.143894,-0.0573238,-0.168911,-0.0378598,0.309299,-0.0313379,0.0434395,0.0246,0.592683,-0.0753939,0,0.0268185,0,0,0,0.0430843,-0.000169999,0.592772,0,0,0,0,0,0
0.690785,0.0436408,-1.1721,-0.0742948,2.17388,-0.0375961,0.715445,-0.0371264,0.0376559,-0.143463,-0.0562491,-0.172549,-0.0374294,0.312524,-0.030917,0.0428746,0.0246,0.592887,-0.0760116,0,0.0276826,0,0,0,0.0425151,1.50897e-05,0.592979,0,0,0,0,0,0
0.699014,0.0439472,-1.17328,-0.0747487,2.17242,-0.0379006,0.718049,-0.0373772,0.0372253,-0.143115,-0.0551536,-0.176737,-0.0369976,0.316383,-0.0304886,0.0422464,0.0246,0.593118,-0.0766799,0,0.0286552,0,0,0,0.0418813,0.000217704,0.593215,0,0,0,0,0,0
0.70645,0.0442206,-1.17434,-0.0751505,2.17108,-0.0381723,0.720423,-0.0376008,0.0367719,-0.142393,-0.0540388,-0.180374,-0.036534,0.319317,-0.030055,0.0416739,0.0246,0.593335,-0.0772719,0,0.029552,0,0,0,0.0413046,0.000399288,0.593435,0,0,0,0,0,0
0.714626,0.0445178,-1.1755,-0.0755835,2.16957,-0.0384674,0.723065,-0.037843,0.0363564,-0.141867,-0.052956,-0.184636,-0.0360969,0.323075,-0.0296341,0.0410396,0.0246,0.59358,-0.0779091,0,0.0305576,0,0,0,0.0406649,0.000597448,0.593685,0,0,0,0,0,0
0.722186,0.0447894,-1.17656,-0.0759755,2.16815,-0.0387367,0.725529,-0.0380638,0.0359189,-0.141007,-0.0518495,-0.188445,-0.0356288,0.326045,-0.029206,0.0404484,0.0246,0.593815,-0.0784853,0,0.0315058,0,0,0,0.0400693,0.000779182,0.593924,0,0,0,0,0,0
0.731735,0.0451284,-1.17791,-0.0764595,2.1663,-0.0390725,0.728688,-0.0383384,0.0355007,-0.140426,-0.0506865,-0.193712,-0.0351617,0.330754,-0.0287559,0.0396955,0.0246,0.594122,-0.0791946,0,0.0327288,0,0,0,0.0393086,0.00100708,0.594237,0,0,0,0,0,0
0.741026,0.0454536,-1.1792,-0.0769182,2.16445,-0.039394,0.731795,-0.0386009,0.0350042,-0.139235,-0.04938,-0.198588,-0.0346003,0.334466,-0.028253,0.0389566,0.0246,0.594431,-0.0798641,0,0.0339459,0,0,0,0.0385624,0.00122668,0.594553,0,0,0,0,0,0
0.748271,0.0457039,-1.1802,-0.0772676,2.16299,-0.0396408,0.734234,-0.0388024,0.0345447,-0.137797,-0.0482216,-0.20215,-0.0340756,0.336615,-0.027809,0.0383761,0.0246,0.594681,-0.0803718,0,0.0349137,0,0,0,0.0379782,0.00139627,0.594807,0,0,0,0,0,0
0.755831,0.0459623,-1.18123,-0.0776246,2.16143,-0.0398951,0.736803,-0.0390097,0.0341795,-0.136774,-0.0472141,-0.206281,-0.033638,0.339746,-0.0274227,0.0377666,0.0246,0.594949,-0.0808875,0,0.0359408,0,0,0,0.0373644,0.00157196,0.595079,0,0,0,0,0,0
0.762986,0.0462042,-1.1822,-0.0779552,2.15992,-0.0401326,0.739252,-0.0392032,0.0338103,-0.135566,-0.0462111,-0.210116,-0.0331896,0.342396,-0.0270392,0.0371862,0.0246,0.595209,-0.081362,0,0.0369293,0,0,0,0.0367804,0.00173696,0.595343,0,0,0,0,0,0
0.77154,0.0464904,-1.18335,-0.0783415,2.15809,-0.0404126,0.742214,-0.039431,0.0334555,-0.134452,-0.0451612,-0.215056,-0.0327346,0.346247,-0.0266379,0.0364878,0.0246,0.59553,-0.0819116,0,0.038132,0,0,0,0.0360764,0.00193286,0.59567,0,0,0,0,0,0
0.778065,0.0467061,-1.18422,-0.0786295,2.15666,-0.040623,0.744485,-0.0396023,0.0330633,-0.13281,-0.0441336,-0.218342,-0.0322471,0.347916,-0.0262468,0.035952,0.0246,0.595782,-0.0823175,0,0.0390648,0,0,0,0.0355379,0.00208098,0.595925,0,0,0,0,0,0
0.783783,0.0468935,-1.18497,-0.0788771,2.15539,-0.0408052,0.746484,-0.0397506,0.0327652,-0.131544,-0.043312,-0.221404,-0.0318625,0.349732,-0.0259342,0.0354803,0.0246,0.596008,-0.0826635,0,0.0398931,0,0,0,0.0350645,0.00220989,0.596153,0,0,0,0,0,0
0.791571,0.0471465,-1.18599,-0.0792076,2.15363,-0.0410504,0.749237,-0.0399499,0.0324922,-0.13047,-0.0424272,-0.226159,-0.0314752,0.353436,-0.0255972,0.0348347,0.0246,0.596323,-0.0831197,0,0.0410376,0,0,0,0.0344146,0.00238455,0.596473,0,0,0,0,0,0
0.797652,0.0473421,-1.18677,-0.0794599,2.15224,-0.041239,0.751395,-0.0401035,0.0321526,-0.128792,-0.0415032,-0.229312,-0.0310257,0.354936,-0.0252467,0.0343282,0.0246,0.596575,-0.0834637,0,0.0419442,0,0,0,0.0339061,0.00251981,0.596729,0,0,0,0,0,0
0.808009,0.0476721,-1.18809,-0.0798788,2.14979,-0.0415556,0.755128,-0.0403608,0.031864,-0.127469,-0.0404416,-0.236038,-0.0305673,0.360368,-0.0248427,0.0334609,0.0246,0.597018,-0.084024,0,0.0435147,0,0,0,0.0330298,0.00274898,0.597181,0,0,0,0,0,0
0.814128,0.0478644,-1.18885,-0.0801196,2.14833,-0.0417392,0.757335,-0.0405103,0.0314399,-0.125024,-0.0393538,-0.238785,-0.0300031,0.360698,-0.0244314,0.0329458,0.0246,0.597287,-0.0843395,0,0.0444581,0,0,0,0.0325128,0.00288285,0.597453,0,0,0,0,0,0
0.821669,0.0480996,-1.18979,-0.0804098,2.1465,-0.0419624,0.760079,-0.040692,0.0311778,-0.123485,-0.0384746,-0.243453,-0.0295911,0.363852,-0.0240979,0.0323083,0.0246,0.597627,-0.0847122,0,0.0456367,0,0,0,0.0318716,0.00304689,0.597798,0,0,0,0,0,0
0.827891,0.0482917,-1.19054,-0.0806436,2.14496,-0.0421437,0.762352,-0.0408398,0.0308743,-0.121563,-0.0375893,-0.246847,-0.0291444,0.36535,-0.0237629,0.0317803,0.0246,0.597914,-0.0850058,0,0.0466221,0,0,0,0.0313416,0.00318117,0.598088,0,0,0,0,0,0
0.83551,0.048525,-1.19146,-0.0809233,2.14304,-0.0423625,0.765159,-0.0410183,0.03062,-0.119826,-0.0367085,-0.251627,-0.0287216,0.368418,-0.023429,0.0311313,0.0246,0.598274,-0.085348,0,0.0478449,0,0,0,0.0306889,0.00334461,0.598453,0,0,0,0,0,0
0.843205,0.0487583,-1.19236,-0.0811983,2.14107,-0.0425798,0.768012,-0.0411958,0.0303217,-0.117661,-0.0357396,-0.256221,-0.0282365,0.370876,-0.023062,0.0304734,0.0246,0.598647,-0.0856736,0,0.0490977,0,0,0,0.0300271,0.00350842,0.598831,0,0,0,0,0,0
0.851266,0.0490003,-1.19329,-0.0814784,2.13897,-0.0428034,0.771023,-0.0413787,0.0300274,-0.115353,-0.0347507,-0.261129,-0.0277379,0.373506,-0.0226874,0.0297814,0.0246,0.599048,-0.0859928,0,0.0504293,0,0,0,0.029331,0.00367873,0.599239,0,0,0,0,0,0
0.858045,0.0492019,-1.19406,-0.0817078,2.13717,-0.0429881,0.773565,-0.0415301,0.0297313,-0.112959,-0.0338301,-0.264942,-0.0272528,0.374955,-0.0223387,0.0291976,0.0246,0.599393,-0.0862434,0,0.0515641,0,0,0,0.0287447,0.00382075,0.599589,0,0,0,0,0,0
0.865895,0.0494333,-1.19493,-0.0819662,2.13505,-0.0431985,0.77653,-0.0417028,0.0294844,-0.110684,-0.0329263,-0.269936,-0.0267925,0.377701,-0.0219956,0.0285195,0.0246,0.599803,-0.0865128,0,0.0528954,0,0,0,0.0280629,0.00398414,0.600005,0,0,0,0,0,0
0.874461,0.0496835,-1.19585,-0.0822397,2.13269,-0.0434235,0.779789,-0.0418879,0.0292079,-0.107974,-0.0319214,-0.275323,-0.0262693,0.380411,-0.0216139,0.0277773,0.0246,0.600263,-0.0867806,0,0.0543688,0,0,0,0.0273159,0.00416105,0.600472,0,0,0,0,0,0
0.883164,0.0499352,-1.19676,-0.0825084,2.13025,-0.0436472,0.78312,-0.0420726,0.0289166,-0.104956,-0.0308772,-0.280699,-0.0257122,0.382803,-0.0212168,0.027021,0.0246,0.600743,-0.087024,0,0.0558877,0,0,0,0.0265548,0.00433924,0.600959,0,0,0,0,0,0
0.888653,0.0500923,-1.19732,-0.0826733,2.1287,-0.0437858,0.785221,-0.0421873,0.0286309,-0.102235,-0.0300451,-0.28334,-0.0252339,0.382752,-0.0209003,0.0265429,0.0246,0.601052,-0.0871623,0,0.0568569,0,0,0,0.0260758,0.00445058,0.601271,0,0,0,0,0,0
0.894473,0.050258,-1.19791,-0.0828443,2.12703,-0.0439305,0.787458,-0.0423075,0.0284551,-0.100151,-0.0293748,-0.28702,-0.0248704,0.38437,-0.0206445,0.0260352,0.0246,0.601386,-0.087296,0,0.0578941,0,0,0,0.0255669,0.00456799,0.601608,0,0,0,0,0,0
0.901791,0.0504649,-1.19862,-0.0830535,2.12489,-0.0441094,0.790289,-0.0424563,0.0282741,-0.097689,-0.0285953,-0.291926,-0.0244523,0.386841,-0.0203463,0.0253958,0.0246,0.601814,-0.0874445,0,0.0592117,0,0,0,0.0249249,0.00471479,0.602042,0,0,0,0,0,0
0.908629,0.0506567,-1.19927,-0.0832435,2.12286,-0.0442735,0.792944,-0.0425933,0.0280517,-0.0948809,-0.0277763,-0.296076,-0.0239904,0.388212,-0.0200325,0.0247975,0.0246,0.602224,-0.0875634,0,0.0604565,0,0,0,0.0243245,0.00485095,0.602456,0,0,0,0,0,0
0.915089,0.0508366,-1.19987,-0.083418,2.12093,-0.0444257,0.79546,-0.0427208,0.0278502,-0.0921733,-0.0270151,-0.300028,-0.0235567,0.389483,-0.0197402,0.0242315,0.0246,0.602618,-0.0876577,0,0.0616445,0,0,0,0.0237569,0.0049787,0.602855,0,0,0,0,0,0
0.921641,0.0510178,-1.20045,-0.0835901,2.11893,-0.0445772,0.798021,-0.0428483,0.0276662,-0.0894604,-0.0262746,-0.304166,-0.0231339,0.390936,-0.0194549,0.0236569,0.0246,0.603026,-0.087735,0,0.0628611,0,0,0,0.0231806,0.00510742,0.603267,0,0,0,0,0,0
0.928751,0.0512133,-1.20107,-0.0837715,2.11674,-0.0447386,0.800813,-0.0429845,0.0274868,-0.0865327,-0.0255012,-0.308789,-0.0226907,0.39266,-0.019156,0.0230329,0.0246,0.603478,-0.0877978,0,0.0641945,0,0,0,0.0225544,0.00524621,0.603724,0,0,0,0,0,0
0.934496,0.0513701,-1.20155,-0.0839139,2.11494,-0.0448665,0.803071,-0.043093,0.0272928,-0.0837085,-0.0247987,-0.312063,-0.0222688,0.393135,-0.0188839,0.0225284,0.0246,0.603849,-0.0878321,0,0.0652816,0,0,0,0.0220491,0.00535751,0.6041,0,0,0,0,0,0
0.94109,0.0515491,-1.20208,-0.0840729,2.11286,-0.0450107,0.805674,-0.0432157,0.0271474,-0.0809231,-0.0241119,-0.316462,-0.0218687,0.394774,-0.0186165,0.0219492,0.0246,0.604284,-0.0878532,0,0.0665402,0,0,0,0.0214684,0.00548455,0.604539,0,0,0,0,0,0
0.94765,0.0517261,-1.20259,-0.0842264,2.11075,-0.0451514,0.808272,-0.0433361,0.0269825,-0.0778872,-0.0233966,-0.320616,-0.0214402,0.395921,-0.0183373,0.0213728,0.0246,0.604725,-0.0878543,0,0.0678037,0,0,0,0.0208906,0.00561012,0.604984,0,0,0,0,0,0
0.954021,0.051897,-1.20307,-0.0843711,2.10869,-0.0452853,0.810801,-0.0434512,0.0268236,-0.074836,-0.0227036,-0.324615,-0.0210189,0.396895,-0.0180655,0.0208131,0.0246,0.605161,-0.0878362,0,0.0690411,0,0,0,0.0203298,0.00573125,0.605425,0,0,0,0,0,0
0.964734,0.052183,-1.20383,-0.084604,2.10512,-0.0455045,0.815093,-0.0436406,0.0266995,-0.0705202,-0.0217484,-0.332647,-0.020463,0.400647,-0.0176882,0.0198725,0.0246,0.605911,-0.0877621,0,0.0711447,0,0,0,0.0193825,0.00593379,0.60619,0,0,0,0,0,0
0.972511,0.0523887,-1.20434,-0.0847659,2.1025,-0.0456589,0.818206,-0.0437753,0.0264477,-0.0659881,-0.0208188,-0.336777,-0.0198605,0.400284,-0.0173198,0.0191903,0.0246,0.606471,-0.0876734,0,0.0726893,0,0,0,0.0186981,0.00607915,0.606756,0,0,0,0,0,0
0.978688,0.052551,-1.20472,-0.0848903,2.1004,-0.0457788,0.820678,-0.0438806,0.0262757,-0.0624833,-0.0201242,-0.340263,-0.0194089,0.400294,-0.0170424,0.018649,0.0246,0.606924,-0.0875815,0,0.0739265,0,0,0,0.0181561,0.00619368,0.607214,0,0,0,0,0,0
0.985978,0.0527417,-1.20515,-0.0850319,2.09789,-0.0459171,0.823607,-0.0440028,0.0261614,-0.0588719,-0.01943,-0.345249,-0.0189706,0.401697,-0.0167632,0.018011,0.0246,0.607468,-0.0874483,0,0.075398,0,0,0,0.0175165,0.00632804,0.607764,0,0,0,0,0,0
0.993607,0.0529403,-1.20557,-0.0851744,2.09521,-0.0460582,0.826679,-0.0441284,0.0260268,-0.0548285,-0.0186838,-0.350229,-0.0184866,0.402665,-0.0164611,0.0173445,0.0246,0.608049,-0.0872797,0,0.0769508,0,0,0,0.0168483,0.00646762,0.608352,0,0,0,0,0,0
0.999237,0.053086,-1.20586,-0.0852761,2.09322,-0.0461599,0.828943,-0.0442197,0.0258734,-0.0513488,-0.0180635,-0.353227,-0.018064,0.402211,-0.0162083,0.0168535,0.0246,0.608485,-0.0871358,0,0.0781051,0,0,0,0.0163571,0.00656981,0.608792,0,0,0,0,0,0
1.00819,0.0533174,-1.20628,-0.0854335,2.09003,-0.0463179,0.832536,-0.0443627,0.0258472,-0.046591,-0.0175726,-0.357055,-0.0176563,0.401304,-0.0159794,0.0160774,0.0246,0.60919,-0.0861705,0,0.0793008,0,0,0,0.0155816,0.00673147,0.609505,0,0,0,0,0,0
1.01315,0.0534448,-1.20649,-0.0855185,2.08826,-0.0464036,0.83451,-0.044441,0.0256856,-0.0428572,-0.017129,-0.357203,-0.0172708,0.397743,-0.0157788,0.0156512,0.0246,0.609585,-0.0855922,0,0.0799246,0,0,0,0.0151567,0.00682021,0.609901,0,0,0,0,0,0
1.01988,0.0536174,-1.20675,-0.0856312,2.08584,-0.0465177,0.837175,-0.044546,0.0256551,-0.0391185,-0.0167705,-0.359585,-0.0169548,0.396403,-0.015606,0.0150783,0.0246,0.610126,-0.0848013,0,0.0807633,0,0,0,0.0145851,0.0069399,0.610445,0,0,0,0,0,0
1.02516,0.0537524,-1.20694,-0.0857179,2.08393,-0.0466055,0.839257,-0.0446275,0.0255608,-0.0356919,-0.0164069,-0.360548,-0.0166317,0.393959,-0.0154345,0.014632,0.0246,0.610554,-0.0841743,0,0.0814166,0,0,0,0.0141402,0.00703327,0.610875,0,0,0,0,0,0
1.03029,0.0538831,-1.20711,-0.0858004,2.08208,-0.0466893,0.841267,-0.0447058,0.0255029,-0.0325924,-0.016099,-0.361846,-0.0163551,0.392174,-0.0152858,0.0142021,0.0246,0.610973,-0.083561,0,0.0820459,0,0,0,0.0137117,0.00712337,0.611296,0,0,0,0,0,0
1.03755,0.0540682,-1.20732,-0.0859148,2.07943,-0.0468058,0.844105,-0.0448156,0.025483,-0.0285924,-0.0157411,-0.364391,-0.0160284,0.390738,-0.0151072,0.0135983,0.0246,0.611572,-0.0826839,0,0.0829297,0,0,0,0.0131093,0.00725046,0.6119,0,0,0,0,0,0
1.04364,0.054223,-1.20747,-0.0860084,2.0772,-0.0469014,0.84647,-0.0449065,0.0253941,-0.0247649,-0.0153624,-0.365551,-0.0156807,0.388091,-0.0149215,0.0130966,0.0246,0.61208,-0.0819407,0,0.0836642,0,0,0,0.0126091,0.00735631,0.61241,0,0,0,0,0,0
1.05101,0.0544096,-1.20762,-0.0861188,2.0745,-0.0470142,0.849313,-0.045015,0.0253566,-0.020573,-0.0149913,-0.367763,-0.0153335,0.386132,-0.014733,0.0124967,0.0246,0.612699,-0.0810344,0,0.0845423,0,0,0,0.0120108,0.00748338,0.613034,0,0,0,0,0,0
1.05874,0.0546052,-1.20774,-0.0862315,2.07164,-0.0471298,0.852278,-0.0451273,0.0252966,-0.0160338,-0.0145858,-0.369727,-0.0149493,0.383579,-0.0145255,0.011874,0.0246,0.613356,-0.0800726,0,0.0854538,0,0,0,0.0113897,0.00761583,0.613696,0,0,0,0,0,0
1.06478,0.0547575,-1.20782,-0.0863175,2.0694,-0.047218,0.854578,-0.0452139,0.0252036,-0.0122217,-0.0142261,-0.370583,-0.0146059,0.380644,-0.0143417,0.0113925,0.0246,0.613875,-0.0793137,0,0.0861586,0,0,0,0.0109099,0.00771853,0.614217,0,0,0,0,0,0
1.07289,0.0549619,-1.20788,-0.08643,2.06637,-0.0473337,0.857651,-0.0453287,0.0251884,-0.00771717,-0.013866,-0.373097,-0.0142525,0.378674,-0.0141487,0.010753,0.0246,0.614578,-0.0782845,0,0.0870948,0,0,0,0.0102722,0.00785569,0.614926,0,0,0,0,0,0
1.07857,0.0551044,-1.2079,-0.0865068,2.06425,-0.0474128,0.859784,-0.0454081,0.0250854,-0.00406875,-0.0135258,-0.373545,-0.0139197,0.375495,-0.0139704,0.0103105,0.0246,0.615074,-0.0775578,0,0.0877426,0,0,0,0.00983143,0.00795084,0.615424,0,0,0,0,0,0
1.0868,0.0553107,-1.2079,-0.0866153,2.06116,-0.0475244,0.862856,-0.0455215,0.0250865,0.000426871,-0.013191,-0.376147,-0.0135798,0.373621,-0.013784,0.00967694,0.0246,0.6158,-0.0764958,0,0.08867,0,0,0,0.0091999,0.00808791,0.616156,0,0,0,0,0,0
1.09454,0.0555044,-1.20786,-0.0867146,2.05823,-0.0476267,0.865725,-0.0456266,0.0250213,0.00499457,-0.0128194,-0.377588,-0.0132014,0.370517,-0.0135785,0.00908858,0.0246,0.616489,-0.075486,0,0.0895312,0,0,0,0.00861363,0.00821587,0.616851,0,0,0,0,0,0
1.10355,0.0557296,-1.20777,-0.0868267,2.05481,-0.0477421,0.869039,-0.045747,0.024993,0.0100796,-0.0124421,-0.379811,-0.0128065,0.367678,-0.0133624,0.00841367,0.0246,0.617301,-0.0742984,0,0.0905192,0,0,0,0.007941,0.00836367,0.617669,0,0,0,0,0,0
1.11132,0.0559232,-1.20766,-0.0869205,2.05185,-0.0478386,0.871867,-0.0458492,0.0249164,0.0146859,-0.0120791,-0.380882,-0.0124242,0.364167,-0.0131537,0.00784062,0.0246,0.618007,-0.0732645,0,0.091358,0,0,0,0.00737025,0.00848988,0.618381,0,0,0,0,0,0
1.11985,0.0561355,-1.20749,-0.0870207,2.04859,-0.0479414,0.874949,-0.0459596,0.0248864,0.0195017,-0.0117382,-0.382719,-0.0120537,0.361211,-0.0129499,0.00722043,0.0246,0.61879,-0.0721178,0,0.0922659,0,0,0,0.00675259,0.00862744,0.61917,0,0,0,0,0,0
1.12644,0.0562991,-1.20734,-0.0870961,2.04606,-0.0480187,0.877308,-0.0460438,0.0248066,0.0234298,-0.0114349,-0.383235,-0.011724,0.35782,-0.0127684,0.00674784,0.0246,0.619401,-0.0712239,0,0.0929577,0,0,0,0.00628227,0.00873283,0.619784,0,0,0,0,0,0
1.13392,0.0564844,-1.20713,-0.0871795,2.04318,-0.048104,0.879964,-0.046138,0.0247909,0.0275889,-0.0111603,-0.384826,-0.0114134,0.355271,-0.0125962,0.00621915,0.0246,0.620099,-0.0702023,0,0.0937316,0,0,0,0.00575612,0.00885155,0.620486,0,0,0,0,0,0
1.14005,0.0566359,-1.20694,-0.0872463,2.04082,-0.0481722,0.882123,-0.0462142,0.0247319,0.0311421,-0.0109052,-0.385383,-0.0111254,0.352294,-0.0124362,0.00579161,0.0246,0.620675,-0.0693588,0,0.0943574,0,0,0,0.00533086,0.00894809,0.621065,0,0,0,0,0,0
1.14837,0.0568418,-1.20664,-0.0873348,2.0376,-0.0482621,0.885033,-0.0463162,0.0247476,0.0356438,-0.0106406,-0.387471,-0.0108105,0.349898,-0.0122606,0.00521943,0.0246,0.621463,-0.0682047,0,0.095195,0,0,0,0.0047616,0.00907838,0.62186,0,0,0,0,0,0
1.15531,0.0570133,-1.20637,-0.0874069,2.0349,-0.0483351,0.887441,-0.0464002,0.0246894,0.0396007,-0.0103741,-0.388062,-0.0104975,0.346553,-0.012085,0.00474899,0.0246,0.622127,-0.0672331,0,0.0958837,0,0,0,0.0042938,0.00918627,0.622527,0,0,0,0,0,0
1.16331,0.0572107,-1.20602,-0.0874878,2.03179,-0.0484165,0.89019,-0.0464954,0.0246854,0.0439617,-0.0101213,-0.389603,-0.0101863,0.343751,-0.0119101,0.00421584,0.0246,0.622897,-0.0661062,0,0.0966641,0,0,0,0.0037637,0.0093096,0.623302,0,0,0,0,0,0
1.17055,0.0573891,-1.20567,-0.0875593,2.02896,-0.048488,0.892654,-0.0465803,0.0246453,0.047978,-0.00987505,-0.390355,-0.00988239,0.340506,-0.0117379,0.00374118,0.0246,0.623599,-0.0650785,0,0.0973589,0,0,0,0.00329192,0.00942031,0.624008,0,0,0,0,0,0
1.1782,0.0575776,-1.20527,-0.0876331,2.02596,-0.0485614,0.895238,-0.0466689,0.0246331,0.0521361,-0.00964313,-0.391529,-0.00958517,0.33754,-0.0115691,0.00324716,0.0246,0.624347,-0.0639834,0,0.0980821,0,0,0,0.00280102,0.00953658,0.624761,0,0,0,0,0,0
1.18386,0.0577167,-1.20496,-0.0876866,2.02375,-0.0486142,0.89713,-0.0467335,0.0245739,0.0552823,-0.00944545,-0.391557,-0.00933533,0.33444,-0.0114252,0.00288745,0.0246,0.624904,-0.0631689,0,0.0986086,0,0,0,0.00244372,0.00962183,0.625319,0,0,0,0,0,0
1.1899,0.0578651,-1.2046,-0.0877426,2.02138,-0.0486693,0.899137,-0.0468018,0.0245691,0.0585213,-0.00927629,-0.39244,-0.00910871,0.332098,-0.0112952,0.00250841,0.0246,0.625501,-0.0622943,0,0.0991635,0,0,0,0.00206729,0.00971237,0.625919,0,0,0,0,0,0
1.19738,0.0580489,-1.20414,-0.0878105,2.01843,-0.0487354,0.9016,-0.0468851,0.0245863,0.0624798,-0.00908742,-0.393825,-0.00884546,0.32954,-0.0111444,0.00204686,0.0246,0.626245,-0.0612056,0,0.0998391,0,0,0,0.00160901,0.00982369,0.626667,0,0,0,0,0,0
1.20314,0.0581904,-1.20376,-0.0878619,2.01616,-0.048785,0.903482,-0.0469486,0.0245384,0.0655883,-0.00891157,-0.393871,-0.00860787,0.326493,-0.0110054,0.00169636,0.0246,0.626822,-0.0603607,0,0.100352,0,0,0,0.00126108,0.00990892,0.627246,0,0,0,0,0,0
1.21174,0.0584018,-1.20315,-0.0879369,2.01276,-0.0488566,0.906268,-0.0470418,0.024589,0.0700762,-0.00872636,-0.395783,-0.00832919,0.323933,-0.0108455,0.0011828,0.0246,0.627688,-0.0590928,0,0.101104,0,0,0,0.000751495,0.0100353,0.628118,0,0,0,0,0,0
1.21861,0.0585705,-1.20265,-0.0879956,2.01004,-0.048912,0.90847,-0.0471152,0.0245429,0.0737023,-0.0085385,-0.395854,-0.00806041,0.320397,-0.0106863,0.000780217,0.0246,0.628385,-0.0580728,0,0.101693,0,0,0,0.000352125,0.0101354,0.628818,0,0,0,0,0,0
1.22794,0.0587998,-1.20192,-0.0880735,2.00633,-0.0489844,0.911429,-0.0472133,0.0245893,0.0785353,-0.00835044,-0.397588,-0.00776033,0.317315,-0.010512,0.000245172,0.0246,0.629337,-0.0566793,0,0.102476,0,0,0,-0.000178292,0.0102703,0.629778,0,0,0,0,0,0
1.23499,0.0589729,-1.20134,-0.0881311,2.00353,-0.0490372,0.91364,-0.0472863,0.0245356,0.0821729,-0.00817197,-0.397384,-0.00749039,0.313492,-0.0103491,-0.000150977,0.0246,0.630062,-0.0556179,0,0.103056,0,0,0,-0.000570983,0.0103714,0.630506,0,0,0,0,0,0
1.24264,0.0591606,-1.20068,-0.0881925,2.00048,-0.0490926,0.916015,-0.0473643,0.0245469,0.0860835,-0.00801988,-0.398205,-0.00723744,0.310418,-0.0101986,-0.000571938,0.0246,0.630853,-0.0544606,0,0.103673,0,0,0,-0.000988068,0.0104803,0.631301,0,0,0,0,0,0
1.2485,0.0593042,-1.20016,-0.0882387,1.99815,-0.0491337,0.917815,-0.0474233,0.0245081,0.0890308,-0.00788742,-0.398003,-0.0070236,0.307284,-0.0100676,-0.000888372,0.0246,0.631461,-0.0535696,0,0.104136,0,0,0,-0.00130161,0.010563,0.631912,0,0,0,0,0,0
1.25694,0.0595117,-1.19937,-0.0883042,1.99478,-0.0491909,0.920386,-0.047507,0.0245668,0.0933188,-0.00775476,-0.399501,-0.00677329,0.304508,-0.00991974,-0.00133531,0.0246,0.632343,-0.0522783,0,0.10479,0,0,0,-0.00174399,0.0106816,0.6328,0,0,0,0,0,0
1.26306,0.0596617,-1.19878,-0.0883508,1.99234,-0.049231,0.922228,-0.0475669,0.0245196,0.0963153,-0.00762676,-0.399051,-0.00655439,0.301077,-0.00978286,-0.00165226,0.0246,0.632986,-0.0513377,0,0.105254,0,0,0,-0.00205782,0.0107667,0.633444,0,0,0,0,0,0
1.27089,0.0598539,-1.19799,-0.0884096,1.9892,-0.0492805,0.924562,-0.0476424,0.0245627,0.100229,-0.00751237,-0.400103,-0.00632351,0.298229,-0.00964397,-0.00204926,0.0246,0.633812,-0.0501287,0,0.105835,0,0,0,-0.0024505,0.010875,0.634275,0,0,0,0,0,0
1.27821,0.0600337,-1.19723,-0.0884638,1.98627,-0.0493251,0.92672,-0.0477119,0.0245594,0.103798,-0.00739524,-0.40029,-0.00609265,0.294862,-0.0095006,-0.00241209,0.0246,0.634589,-0.0489917,0,0.106366,0,0,0,-0.00280928,0.0109755,0.635055,0,0,0,0,0,0
1.28606,0.0602267,-1.19639,-0.088521,1.98313,-0.0493711,0.929011,-0.0477854,0.024581,0.10763,-0.00728656,-0.400826,-0.00585909,0.291581,-0.00935631,-0.00279211,0.0246,0.635426,-0.0477654,0,0.106923,0,0,0,-0.00318479,0.0110825,0.635897,0,0,0,0,0,0
1.29319,0.060402,-1.1956,-0.0885722,1.98027,-0.0494114,0.931066,-0.0478511,0.0245763,0.111024,-0.00718619,-0.400837,-0.00564153,0.288213,-0.0092187,-0.00312873,0.0246,0.636191,-0.0466468,0,0.107415,0,0,0,-0.00351735,0.0111789,0.636665,0,0,0,0,0,0
1.30245,0.06063,-1.19453,-0.0886378,1.97655,-0.0494612,0.933701,-0.047935,0.0246382,0.115533,-0.00708803,-0.401883,-0.00538867,0.284763,-0.00906325,-0.00355359,0.0246,0.637187,-0.0451877,0,0.108037,0,0,0,-0.00393633,0.011303,0.637668,0,0,0,0,0,0
1.30974,0.0608095,-1.19366,-0.0886888,1.97362,-0.0494989,0.93575,-0.048,0.0246111,0.118853,-0.00699381,-0.401359,-0.00516728,0.280935,-0.00891843,-0.00387895,0.0246,0.637977,-0.0440317,0,0.108514,0,0,0,-0.00425737,0.0114,0.638462,0,0,0,0,0,0
1.31765,0.0610043,-1.19269,-0.0887435,1.97045,-0.0495381,0.937944,-0.0480695,0.0246422,0.122571,-0.00691793,-0.401723,-0.00495162,0.277595,-0.00878141,-0.00422209,0.0246,0.638837,-0.0427729,0,0.109016,0,0,0,-0.0045956,0.0115043,0.639326,0,0,0,0,0,0
1.32378,0.0611554,-1.19192,-0.0887856,1.96798,-0.0495674,0.939628,-0.0481226,0.02462,0.125278,-0.00685103,-0.401171,-0.00477305,0.274349,-0.00866214,-0.00448159,0.0246,0.639507,-0.0417918,0,0.109396,0,0,0,-0.00485158,0.0115847,0.639998,0,0,0,0,0,0
1.3305,0.061321,-1.19106,-0.0888312,1.96529,-0.0495982,0.941452,-0.04818,0.0246505,0.128385,-0.00679856,-0.401432,-0.00459705,0.271513,-0.00854892,-0.00475868,0.0246,0.640243,-0.0407142,0,0.109801,0,0,0,-0.00512464,0.0116721,0.640737,0,0,0,0,0,0
1.33698,0.0614809,-1.19021,-0.088875,1.96268,-0.0496269,0.943193,-0.0482348,0.0246644,0.131299,-0.00674876,-0.401366,-0.00442554,0.268545,-0.00843602,-0.00501931,0.0246,0.640957,-0.0396701,0,0.110183,0,0,0,-0.00538139,0.0117559,0.641452,0,0,0,0,0,0
1.34472,0.0616719,-1.18917,-0.0889268,1.95958,-0.0496597,0.945245,-0.048299,0.0247146,0.134862,-0.00670427,-0.401786,-0.00423348,0.265412,-0.00831232,-0.00532115,0.0246,0.64181,-0.0384208,0,0.110625,0,0,0,-0.00567818,0.0118552,0.64231,0,0,0,0,0,0
1.35297,0.0618762,-1.18802,-0.0889818,1.95626,-0.0496929,0.947406,-0.0483665,0.0247528,0.138562,-0.00666025,-0.401891,-0.0040284,0.26183,-0.0081773,-0.00563271,0.0246,0.642725,-0.0370816,0,0.111081,0,0,0,-0.00598409,0.0119603,0.643229,0,0,0,0,0,0
1.35948,0.0620374,-1.1871,-0.0890249,1.95365,-0.049718,0.949089,-0.048419,0.0247389,0.141251,-0.00662102,-0.401173,-0.00385959,0.258436,-0.00805974,-0.00587079,0.0246,0.64345,-0.0360208,0,0.111429,0,0,0,-0.00621811,0.0120426,0.643956,0,0,0,0,0,0
1.36718,0.0622282,-1.18599,-0.0890757,1.95056,-0.0497464,0.951054,-0.0484801,0.0247923,0.144699,-0.0065965,-0.401433,-0.00367942,0.255257,-0.00794118,-0.00614321,0.0246,0.644309,-0.034763,0,0.111828,0,0,0,-0.00648529,0.0121392,0.644819,0,0,0,0,0,0
1.37344,0.0623835,-1.18507,-0.0891169,1.94805,-0.0497684,0.952633,-0.0485292,0.0247865,0.147234,-0.00657103,-0.400761,-0.00352542,0.252062,-0.00783257,-0.00635774,0.0246,0.64501,-0.0337362,0,0.112142,0,0,0,-0.0066959,0.0122172,0.645522,0,0,0,0,0,0
1.38145,0.0625826,-1.18386,-0.0891694,1.94484,-0.0497953,0.954626,-0.048591,0.0248557,0.150814,-0.00656032,-0.401123,-0.00334717,0.248854,-0.00771521,-0.00662274,0.0246,0.64591,-0.0324188,0,0.11253,0,0,0,-0.00695518,0.0123164,0.646426,0,0,0,0,0,0
1.38767,0.0627371,-1.18291,-0.0892101,1.94235,-0.0498152,0.956154,-0.0486383,0.0248446,0.153218,-0.00654427,-0.40026,-0.00319972,0.245597,-0.00760837,-0.00682122,0.0246,0.646611,-0.0313927,0,0.112821,0,0,0,-0.00714971,0.0123928,0.647129,0,0,0,0,0,0
1.39613,0.0629478,-1.18158,-0.0892655,1.93896,-0.0498407,0.958202,-0.0487016,0.0249285,0.156975,-0.00654751,-0.400679,-0.00302027,0.242269,-0.00748992,-0.00708065,0.0246,0.647566,-0.0299945,0,0.1132,0,0,0,-0.00740275,0.0124959,0.648089,0,0,0,0,0,0
1.40278,0.0631135,-1.18052,-0.089309,1.9363,-0.0498598,0.95979,-0.0487507,0.0249214,0.159474,-0.00654239,-0.399721,-0.00287062,0.238822,-0.00737967,-0.00727642,0.0246,0.64832,-0.0288913,0,0.113487,0,0,0,-0.00759406,0.0125763,0.648845,0,0,0,0,0,0
1.41165,0.0633356,-1.17907,-0.0893672,1.93275,-0.0498837,0.961879,-0.0488151,0.0250102,0.163338,-0.00655939,-0.400012,-0.00268939,0.235259,-0.00725825,-0.00752638,0.0246,0.649329,-0.0274139,0,0.113853,0,0,0,-0.00783691,0.012683,0.649859,0,0,0,0,0,0
1.41812,0.0634972,-1.178,-0.0894096,1.93017,-0.0499001,0.963377,-0.0488614,0.024992,0.165597,-0.00656356,-0.398776,-0.00254952,0.231775,-0.00715117,-0.00770015,0.0246,0.650066,-0.0263351,0,0.114107,0,0,0,-0.00800633,0.01276,0.650598,0,0,0,0,0,0
1.42602,0.0636953,-1.17666,-0.0894617,1.92702,-0.0499191,0.965183,-0.048917,0.0250623,0.168899,-0.00658887,-0.398754,-0.00239349,0.228457,-0.00704358,-0.00790308,0.0246,0.650969,-0.0250131,0,0.114404,0,0,0,-0.00820321,0.0128535,0.651504,0,0,0,0,0,0
1.43229,0.0638524,-1.17559,-0.0895031,1.92453,-0.0499333,0.966595,-0.0489606,0.0250614,0.171105,-0.00660503,-0.397739,-0.00226624,0.225246,-0.00694628,-0.00805658,0.0246,0.651687,-0.0239623,0,0.114629,0,0,0,-0.0083525,0.0129271,0.652224,0,0,0,0,0,0
1.44008,0.0640482,-1.17423,-0.0895548,1.92143,-0.0499498,0.968324,-0.0490139,0.0251352,0.174311,-0.0066412,-0.397666,-0.0021189,0.221975,-0.00684377,-0.00823813,0.0246,0.652581,-0.0226538,0,0.114895,0,0,0,-0.00852801,0.0130179,0.653121,0,0,0,0,0,0
1.44644,0.064208,-1.17311,-0.0895972,1.91891,-0.0499625,0.969715,-0.0490568,0.025141,0.176507,-0.00666765,-0.396652,-0.00199639,0.218773,-0.00674911,-0.00837878,0.0246,0.653312,-0.0215834,0,0.115101,0,0,0,-0.00866427,0.0130915,0.653854,0,0,0,0,0,0
1.45327,0.0643802,-1.17189,-0.0896431,1.9162,-0.0499753,0.971189,-0.0491023,0.0251899,0.179135,-0.00670611,-0.396221,-0.00187092,0.215722,-0.00665788,-0.00852233,0.0246,0.6541,-0.0204309,0,0.115311,0,0,0,-0.00880285,0.0131701,0.654643,0,0,0,0,0,0
1.46067,0.0645667,-1.17054,-0.089693,1.91327,-0.0499881,0.972759,-0.0491508,0.0252447,0.18195,-0.00675284,-0.39573,-0.00173818,0.212423,-0.00656089,-0.00866873,0.0246,0.654953,-0.0191822,0,0.115525,0,0,0,-0.00894355,0.0132545,0.655499,0,0,0,0,0,0
1.4673,0.0647345,-1.16932,-0.0897381,1.91065,-0.0499989,0.974148,-0.0491938,0.025269,0.184249,-0.00679608,-0.394826,-0.00162008,0.209228,-0.00646973,-0.00879236,0.0246,0.65572,-0.0180585,0,0.115706,0,0,0,-0.00906236,0.0133298,0.656268,0,0,0,0,0,0
1.47537,0.0649389,-1.16781,-0.0897934,1.90747,-0.0500108,0.975807,-0.0492451,0.0253476,0.187378,-0.00685989,-0.394479,-0.00148246,0.205758,-0.00637067,-0.00893244,0.0246,0.656654,-0.0166918,0,0.115911,0,0,0,-0.00919573,0.0134205,0.657205,0,0,0,0,0,0
1.48164,0.0650978,-1.16662,-0.0898367,1.90501,-0.0500194,0.977077,-0.0492845,0.02535,0.189297,-0.00690672,-0.393193,-0.00137548,0.20256,-0.00628295,-0.00903373,0.0246,0.657381,-0.0156275,0,0.116059,0,0,0,-0.00929257,0.0134906,0.657934,0,0,0,0,0,0
1.48971,0.0653031,-1.16507,-0.0898931,1.90184,-0.0500295,0.978684,-0.0493345,0.0254386,0.192426,-0.00698193,-0.392885,-0.00124385,0.199129,-0.00618846,-0.00915434,0.0246,0.658319,-0.014255,0,0.116236,0,0,0,-0.00940633,0.0135801,0.658874,0,0,0,0,0,0
1.49612,0.0654663,-1.16382,-0.0899382,1.89933,-0.0500368,0.979941,-0.0493736,0.0254464,0.194342,-0.00703878,-0.391565,-0.00114014,0.195901,-0.00610246,-0.00924226,0.0246,0.659064,-0.0131633,0,0.116365,0,0,0,-0.00948955,0.0136507,0.659622,0,0,0,0,0,0
1.50501,0.0656935,-1.16206,-0.0900016,1.89585,-0.0500457,0.981649,-0.049427,0.0255562,0.1978,-0.0071342,-0.391286,-0.00100167,0.192169,-0.00600379,-0.00935255,0.0246,0.6601,-0.0116478,0,0.116526,0,0,0,-0.0095916,0.0137479,0.660661,0,0,0,0,0,0
1.51213,0.0658756,-1.16064,-0.0900529,1.89307,-0.050052,0.982992,-0.0494691,0.0255681,0.199848,-0.00720735,-0.389767,-0.000892929,0.18861,-0.00591214,-0.00943116,0.0246,0.66093,-0.0104327,0,0.116641,0,0,0,-0.00966454,0.0138251,0.661493,0,0,0,0,0,0
1.52022,0.0660831,-1.159,-0.090112,1.88992,-0.0500583,0.984489,-0.0495162,0.0256438,0.202685,-0.00730213,-0.38899,-0.000772709,0.185001,-0.00582091,-0.00950999,0.0246,0.661874,-0.00905038,0,0.116756,0,0,0,-0.00973624,0.0139122,0.662441,0,0,0,0,0,0
1.52664,0.0662476,-1.15769,-0.0901593,1.88744,-0.0500627,0.985655,-0.049553,0.0256546,0.204435,-0.00737596,-0.387534,-0.000680119,0.181801,-0.00574114,-0.00956452,0.0246,0.662623,-0.00795387,0,0.116836,0,0,0,-0.00978596,0.0139807,0.663191,0,0,0,0,0,0
1.53412,0.0664401,-1.15614,-0.0902152,1.88454,-0.050067,0.98699,-0.0495953,0.0257297,0.207021,-0.00747268,-0.386793,-0.000574007,0.178478,-0.00566036,-0.00961922,0.0246,0.663497,-0.00667414,0,0.116916,0,0,0,-0.00983435,0.01406,0.664067,0,0,0,0,0,0
1.54156,0.0666321,-1.15458,-0.0902716,1.88167,-0.0500705,0.988293,-0.0496369,0.025783,0.209345,-0.00757116,-0.385656,-0.000471353,0.175023,-0.00557771,-0.00966418,0.0246,0.664368,-0.00539933,0,0.116982,0,0,0,-0.009873,0.0141384,0.66494,0,0,0,0,0,0
1.5478,0.0667931,-1.15327,-0.0903194,1.87928,-0.0500729,0.989366,-0.0496712,0.0258042,0.211024,-0.00765461,-0.384293,-0.000388055,0.171986,-0.00550578,-0.00969453,0.0246,0.665098,-0.00433065,0,0.117027,0,0,0,-0.0098987,0.0142036,0.665671,0,0,0,0,0,0
1.55533,0.0669879,-1.15166,-0.0903778,1.87639,-0.0500751,0.990636,-0.0497121,0.0258865,0.213569,-0.00776499,-0.383498,-0.000288307,0.168649,-0.00542957,-0.00972227,0.0246,0.665979,-0.00304129,0,0.117067,0,0,0,-0.00991993,0.0142817,0.666554,0,0,0,0,0,0
1.56221,0.0671663,-1.15017,-0.090432,1.87376,-0.0500764,0.991774,-0.0497489,0.0259253,0.215489,-0.00786598,-0.382151,-0.000200603,0.165387,-0.00535541,-0.00973915,0.0246,0.666785,-0.00186161,0,0.117092,0,0,0,-0.00993121,0.0143526,0.667361,0,0,0,0,0,0
1.57023,0.0673749,-1.14843,-0.0904961,1.8707,-0.0500772,0.993072,-0.0497913,0.0260097,0.21808,-0.0079921,-0.38114,-9.94504e-05,0.161789,-0.00527661,-0.00974856,0.0246,0.667724,-0.000486686,0,0.117106,0,0,0,-0.00993323,0.0144347,0.668303,0,0,0,0,0,0
1.57956,0.0676174,-1.14638,-0.09057,1.86714,-0.0500771,0.994574,-0.0498396,0.0259846,0.219221,-0.00792299,-0.381473,1.01628e-05,0.160992,-0.00517695,-0.00974925,0.0246,0.668821,0,0,0.117107,0,0,0,-0.00993095,0.0145294,0.6694,0,0,0,0,0,0
1.58741,0.0678205,-1.14466,-0.0906311,1.86415,-0.0500764,0.99584,-0.0498795,0.0258662,0.218938,-0.00778157,-0.381493,9.52508e-05,0.16131,-0.00508344,-0.00974925,0.0246,0.66974,0,0,0.117107,0,0,0,-0.00992912,0.0146083,0.670321,0,0,0,0,0,0
1.59685,0.0680638,-1.14259,-0.090703,1.86054,-0.0500745,0.997369,-0.0499265,0.0257935,0.219323,-0.00762058,-0.382589,0.000199693,0.162035,-0.00498193,-0.00974925,0.0246,0.670845,0,0,0.117107,0,0,0,-0.00992684,0.0147024,0.671431,0,0,0,0,0,0
1.60267,0.0682132,-1.14132,-0.0907468,1.85831,-0.050073,0.998313,-0.0499551,0.0256578,0.21858,-0.00751648,-0.381811,0.000256098,0.162012,-0.00490791,-0.00974925,0.0246,0.671527,0,0,0.117107,0,0,0,-0.00992559,0.01476,0.672113,0,0,0,0,0,0
1.61119,0.0684315,-1.13945,-0.0908096,1.85505,-0.05007,0.9997,-0.0499961,0.0256196,0.219204,-0.00737698,-0.383209,0.000349502,0.162797,-0.00482137,-0.00974925,0.0246,0.672525,0,0,0.117107,0,0,0,-0.00992362,0.0148437,0.673114,0,0,0,0,0,0
1.61958,0.0686456,-1.13761,-0.0908703,1.85183,-0.0500664,1.00107,-0.0500358,0.0255278,0.219223,-0.00723889,-0.383701,0.000435134,0.163284,-0.00473026,-0.00974925,0.0246,0.673507,0,0,0.117107,0,0,0,-0.00992171,0.0149253,0.674099,0,0,0,0,0,0
1.62884,0.0688813,-1.13558,-0.090936,1.84827,-0.0500615,1.00259,-0.0500787,0.025448,0.219463,-0.00709017,-0.38457,0.000529635,0.163927,-0.00463335,-0.00974925,0.0246,0.674591,0,0,0.117107,0,0,0,-0.00991956,0.0150147,0.675187,0,0,0,0,0,0
1.63684,0.0690841,-1.13383,-0.0909917,1.84519,-0.0500566,1.0039,-0.0501151,0.025341,0.219244,-0.00696309,-0.384683,0.000605417,0.164273,-0.00454632,-0.00974925,0.0246,0.675528,0,0,0.117107,0,0,0,-0.00991779,0.0150913,0.676126,0,0,0,0,0,0
1.6459,0.069313,-1.13184,-0.0910535,1.8417,-0.0500503,1.0054,-0.0501554,0.0252696,0.219527,-0.00682292,-0.385605,0.00069478,0.164924,-0.00445428,-0.00974925,0.0246,0.676589,0,0,0.117107,0,0,0,-0.00991574,0.0151773,0.677191,0,0,0,0,0,0
1.65304,0.0694927,-1.13027,-0.0911015,1.83895,-0.0500449,1.00658,-0.0501867,0.0251613,0.219168,-0.00671434,-0.385456,0.000757255,0.165147,-0.00437731,-0.00974925,0.0246,0.677426,0,0,0.117107,0,0,0,-0.00991422,0.0152444,0.678029,0,0,0,0,0,0
1.66102,0.069693,-1.12852,-0.0911541,1.83586,-0.0500383,1.0079,-0.050221,0.025099,0.219403,-0.00659506,-0.386245,0.000832953,0.165712,-0.00429793,-0.00974925,0.0246,0.67836,0,0,0.117107,0,0,0,-0.0099125,0.0153189,0.678965,0,0,0,0,0,0
1.66668,0.0698343,-1.12728,-0.0911909,1.83368,-0.0500333,1.00883,-0.050245,0.0249999,0.218953,-0.00651286,-0.385875,0.000877974,0.165802,-0.00423724,-0.00974925,0.0246,0.679022,0,0,0.117107,0,0,0,-0.00991138,0.0153714,0.679627,0,0,0,0,0,0
1.6747,0.0700346,-1.12552,-0.0912422,1.83058,-0.0500257,1.01017,-0.0502783,0.0249682,0.219517,-0.00639576,-0.38716,0.000955902,0.166534,-0.00416155,-0.00974925,0.0246,0.679962,0,0,0.117107,0,0,0,-0.00990967,0.0154452,0.680569,0,0,0,0,0,0
1.68206,0.0702178,-1.12391,-0.0912885,1.82772,-0.0500182,1.0114,-0.0503084,0.0248863,0.219435,-0.00629177,-0.387436,0.00101825,0.166903,-0.00408838,-0.00974925,0.0246,0.680824,0,0,0.117107,0,0,0,-0.00990815,0.0155125,0.681433,0,0,0,0,0,0
1.69135,0.0704486,-1.12186,-0.0913458,1.82411,-0.0500079,1.01296,-0.0503456,0.0248362,0.219918,-0.00616073,-0.388669,0.00110349,0.167665,-0.00400122,-0.00974925,0.0246,0.681912,0,0,0.117107,0,0,0,-0.00990613,0.0155967,0.682525,0,0,0,0,0,0
1.69905,0.0706389,-1.12017,-0.0913924,1.82112,-0.049999,1.01425,-0.0503758,0.0247361,0.219643,-0.00605772,-0.388668,0.00116271,0.167952,-0.0039257,-0.00974925,0.0246,0.682813,0,0,0.117107,0,0,0,-0.00990455,0.0156659,0.683427,0,0,0,0,0,0
1.70729,0.0708424,-1.11836,-0.0914414,1.81791,-0.0499888,1.01564,-0.0504076,0.0246723,0.219831,-0.00594686,-0.389398,0.00123198,0.168505,-0.00384867,-0.00974925,0.0246,0.683779,0,0,0.117107,0,0,0,-0.00990285,0.0157394,0.684395,0,0,0,0,0,0
1.71422,0.0710126,-1.11684,-0.091482,1.81521,-0.0499799,1.01681,-0.0504338,0.0245867,0.219614,-0.00585812,-0.38944,0.001283,0.168774,-0.00378278,-0.00974925,0.0246,0.68459,0,0,0.117107,0,0,0,-0.00990149,0.0158006,0.685207,0,0,0,0,0,0
1.72386,0.0712493,-1.11472,-0.0915372,1.81144,-0.0499667,1.01844,-0.0504694,0.0245528,0.220274,-0.0057298,-0.390963,0.00136815,0.169648,-0.003697,-0.00974925,0.0246,0.685719,0,0,0.117107,0,0,0,-0.00989944,0.0158852,0.68634,0,0,0,0,0,0
1.73084,0.0714201,-1.11318,-0.0915767,1.80872,-0.0499569,1.01963,-0.0504948,0.0244445,0.219779,-0.00564707,-0.390581,0.00141201,0.169774,-0.00363136,-0.00974925,0.0246,0.686536,0,0,0.117107,0,0,0,-0.00989809,0.015946,0.687159,0,0,0,0,0,0
1.74017,0.0716477,-1.11113,-0.0916282,1.80506,-0.049943,1.02122,-0.0505279,0.0244088,0.220362,-0.00552752,-0.39197,0.00149072,0.170591,-0.0035499,-0.00974925,0.0246,0.687629,0,0,0.117107,0,0,0,-0.00989616,0.0160265,0.688255,0,0,0,0,0,0
1.748,0.0718382,-1.1094,-0.0916708,1.80199,-0.0499309,1.02256,-0.0505551,0.0243172,0.220125,-0.00543659,-0.392026,0.00154234,0.170895,-0.00347981,-0.00974925,0.0246,0.688546,0,0,0.117107,0,0,0,-0.00989463,0.0160935,0.689174,0,0,0,0,0,0
1.7607,0.0721469,-1.10659,-0.0917378,1.79698,-0.0499099,1.02475,-0.050598,0.0243018,0.221275,-0.00527568,-0.394465,0.00165235,0.172198,-0.00337253,-0.00974925,0.0246,0.690034,0,0,0.117107,0,0,0,-0.00989178,0.0162011,0.690671,0,0,0,0,0,0
1.76974,0.0723651,-1.1046,-0.0917846,1.79342,-0.0498945,1.0263,-0.0506277,0.0241648,0.220591,-0.00518298,-0.393897,0.00169935,0.172328,-0.00329406,-0.00974925,0.0246,0.691091,0,0,0.117107,0,0,0,-0.00988999,0.0162768,0.691732,0,0,0,0,0,0
1.77692,0.0725381,-1.10302,-0.0918213,1.79059,-0.049882,1.02754,-0.050651,0.0240766,0.220282,-0.00510833,-0.393802,0.00173998,0.172553,-0.00323311,-0.00974925,0.0246,0.691933,0,0,0.117107,0,0,0,-0.00988867,0.0163365,0.692575,0,0,0,0,0,0
1.78522,0.0727376,-1.10119,-0.0918629,1.78732,-0.0498671,1.02898,-0.0506772,0.0240334,0.220609,-0.0050146,-0.394744,0.0017996,0.173178,-0.00316469,-0.00974925,0.0246,0.692904,0,0,0.117107,0,0,0,-0.00988709,0.0164048,0.693549,0,0,0,0,0,0
1.79254,0.0729131,-1.09957,-0.0918991,1.78442,-0.0498536,1.03025,-0.0507,0.0239619,0.22049,-0.00493961,-0.394946,0.00184258,0.173509,-0.00310464,-0.00974925,0.0246,0.693762,0,0,0.117107,0,0,0,-0.00988576,0.0164647,0.694408,0,0,0,0,0,0
1.80206,0.0731408,-1.09747,-0.0919451,1.78065,-0.0498354,1.03191,-0.0507288,0.0239307,0.22106,-0.00483324,-0.396328,0.00191247,0.174331,-0.00302817,-0.00974925,0.0246,0.694877,0,0,0.117107,0,0,0,-0.0098839,0.0165419,0.695526,0,0,0,0,0,0
1.81036,0.0733388,-1.09563,-0.0919846,1.77736,-0.0498192,1.03336,-0.0507534,0.0238503,0.220904,-0.00475328,-0.396523,0.00195775,0.174693,-0.00296231,-0.00974925,0.0246,0.695849,0,0,0.117107,0,0,0,-0.00988237,0.0166086,0.6965,0,0,0,0,0,0
1.82062,0.0735831,-1.09336,-0.0920322,1.77328,-0.0497984,1.03516,-0.0507829,0.0238122,0.221437,-0.00464473,-0.397889,0.00202827,0.175537,-0.00288199,-0.00974925,0.0246,0.69705,0,0,0.117107,0,0,0,-0.00988037,0.0166903,0.697706,0,0,0,0,0,0
1.83012,0.0738086,-1.09126,-0.0920755,1.76949,-0.0497786,1.03683,-0.0508096,0.0237344,0.221397,-0.00455653,-0.398323,0.00207961,0.176024,-0.00280923,-0.00974925,0.0246,0.698163,0,0,0.117107,0,0,0,-0.00987857,0.0167652,0.698822,0,0,0,0,0,0
1.83698,0.0739709,-1.08974,-0.0921064,1.76676,-0.0497641,1.03804,-0.0508285,0.0236438,0.220935,-0.00450295,-0.397963,0.0021053,0.176135,-0.00275813,-0.00974925,0.0246,0.698967,0,0,0.117107,0,0,0,-0.0098774,0.0168189,0.699627,0,0,0,0,0,0
1.84623,0.0741893,-1.08769,-0.0921472,1.76307,-0.0497441,1.03968,-0.0508534,0.0236239,0.221554,-0.00440858,-0.39941,0.00216828,0.176973,-0.00268826,-0.00974925,0.0246,0.70005,0,0,0.117107,0,0,0,-0.0098757,0.0168906,0.700713,0,0,0,0,0,0
1.85278,0.0743436,-1.08624,-0.0921758,1.76045,-0.0497297,1.04084,-0.0508707,0.0235368,0.221082,-0.00436182,-0.399014,0.00218972,0.177057,-0.00264135,-0.00974925,0.0246,0.700817,0,0,0.117107,0,0,0,-0.00987462,0.016941,0.70148,0,0,0,0,0,0
1.86025,0.0745191,-1.08459,-0.0922078,1.75747,-0.0497131,1.04217,-0.05089,0.0235056,0.221377,-0.00429266,-0.399862,0.00223378,0.177619,-0.00258662,-0.00974925,0.0246,0.701692,0,0,0.117107,0,0,0,-0.00987335,0.0169981,0.702356,0,0,0,0,0,0
1.86776,0.0746951,-1.08293,-0.0922396,1.75446,-0.049696,1.0435,-0.050909,0.0234603,0.221491,-0.00422865,-0.400428,0.00227252,0.17808,-0.00253285,-0.00974925,0.0246,0.70257,0,0,0.117107,0,0,0,-0.00987208,0.0170549,0.703236,0,0,0,0,0,0
1.87421,0.0748462,-1.0815,-0.0922665,1.75188,-0.0496812,1.04465,-0.0509251,0.0234042,0.221367,-0.00417982,-0.400567,0.00229938,0.178351,-0.00248791,-0.00974925,0.0246,0.703326,0,0,0.117107,0,0,0,-0.00987104,0.0171035,0.703992,0,0,0,0,0,0
1.8829,0.0750494,-1.07957,-0.0923022,1.74839,-0.0496607,1.04621,-0.0509462,0.0233902,0.221958,-0.00409859,-0.401945,0.00235405,0.179145,-0.00242559,-0.00974925,0.0246,0.704344,0,0,0.117107,0,0,0,-0.00986954,0.0171685,0.705012,0,0,0,0,0,0
1.88904,0.0751926,-1.07821,-0.0923271,1.74592,-0.0496462,1.04731,-0.0509608,0.0233131,0.221521,-0.00406252,-0.401574,0.00236947,0.17922,-0.00238545,-0.00974925,0.0246,0.705063,0,0,0.117107,0,0,0,-0.00986857,0.017214,0.705731,0,0,0,0,0,0
1.8986,0.0754155,-1.07608,-0.0923651,1.74206,-0.0496229,1.04903,-0.050983,0.0233153,0.222374,-0.0039716,-0.40341,0.00243296,0.180211,-0.00231751,-0.00974925,0.0246,0.706182,0,0,0.117107,0,0,0,-0.00986689,0.0172843,0.706854,0,0,0,0,0,0
1.9086,0.0756481,-1.07386,-0.092404,1.73802,-0.0495981,1.05084,-0.0510055,0.0232677,0.222614,-0.00389493,-0.404304,0.00248039,0.180875,-0.0022505,-0.00974925,0.0246,0.707353,0,0,0.117107,0,0,0,-0.00986512,0.0173572,0.708029,0,0,0,0,0,0
1.91642,0.0758295,-1.07212,-0.0924341,1.73486,-0.0495785,1.05226,-0.0510227,0.0231911,0.222286,-0.00385014,-0.404188,0.00250212,0.181097,-0.00220162,-0.00974925,0.0246,0.708269,0,0,0.117107,0,0,0,-0.00986385,0.0174137,0.708946,0,0,0,0,0,0
1.92514,0.0760315,-1.07018,-0.0924671,1.73133,-0.0495563,1.05384,-0.0510414,0.0231605,0.222611,-0.00378416,-0.405149,0.00254433,0.181742,-0.00214434,-0.00974925,0.0246,0.70929,0,0,0.117107,0,0,0,-0.00986241,0.0174761,0.70997,0,0,0,0,0,0
1.93348,0.0762242,-1.06832,-0.0924982,1.72794,-0.0495349,1.05536,-0.0510588,0.0231126,0.222666,-0.00372979,-0.405664,0.0025764,0.18221,-0.00209192,-0.00974925,0.0246,0.710267,0,0,0.117107,0,0,0,-0.00986106,0.0175353,0.710948,0,0,0,0,0,0
1.94187,0.0764179,-1.06645,-0.0925291,1.72453,-0.049513,1.0569,-0.051076,0.0230727,0.222818,-0.00367428,-0.406333,0.00261031,0.182737,-0.00203943,-0.00974925,0.0246,0.71125,0,0,0.117107,0,0,0,-0.0098597,0.0175944,0.711933,0,0,0,0,0,0
1.95002,0.0766055,-1.06464,-0.0925586,1.72122,-0.0494914,1.05839,-0.0510922,0.0230302,0.222904,-0.00362388,-0.406887,0.00264042,0.183212,-0.0019897,-0.00974925,0.0246,0.712204,0,0,0.117107,0,0,0,-0.00985842,0.0176513,0.712889,0,0,0,0,0,0
1.95879,0.0768072,-1.06268,-0.0925899,1.71764,-0.049468,1.06,-0.0511091,0.0229998,0.223183,-0.00356623,-0.407777,0.00267712,0.183832,-0.00193579,-0.00974925,0.0246,0.713231,0,0,0.117107,0,0,0,-0.00985701,0.017712,0.713918,0,0,0,0,0,0
1.9669,0.0769933,-1.06087,-0.0926184,1.71433,-0.0494461,1.06149,-0.0511245,0.0229534,0.223187,-0.00352212,-0.408197,0.00270254,0.184256,-0.00188864,-0.00974925,0.0246,0.71418,0,0,0.117107,0,0,0,-0.00985575,0.0177676,0.714869,0,0,0,0,0,0
1.97483,0.0771752,-1.0591,-0.092646,1.71109,-0.0494244,1.06296,-0.0511391,0.0229167,0.223294,-0.00347754,-0.408771,0.00272952,0.18473,-0.00184247,-0.00974925,0.0246,0.71511,0,0,0.117107,0,0,0,-0.00985454,0.0178217,0.7158,0,0,0,0,0,0
1.98037,0.0773018,-1.05786,-0.0926652,1.70883,-0.0494093,1.06398,-0.0511491,0.0228565,0.222903,-0.00346157,-0.408427,0.00273375,0.184784,-0.00181442,-0.00974925,0.0246,0.715758,0,0,0.117107,0,0,0,-0.00985378,0.0178592,0.716448,0,0,0,0,0,0
1.98866,0.0774912,-1.05601,-0.0926934,1.70543,-0.0493862,1.06552,-0.0511637,0.0228652,0.22362,-0.00339932,-0.409993,0.0027786,0.185639,-0.00176262,-0.00974925,0.0246,0.716728,0,0,0.117107,0,0,0,-0.00985252,0.0179148,0.71742,0,0,0,0,0,0
1.99546,0.0776464,-1.05449,-0.0927163,1.70264,-0.0493672,1.06679,-0.0511755,0.0228157,0.223443,-0.00337325,-0.410054,0.00279134,0.185884,-0.0017271,-0.00974925,0.0246,0.717525,0,0,0.117107,0,0,0,-0.00985155,0.0179601,0.718217,0,0,0,0,0,0
2.00493,0.0778625,-1.05237,-0.0927476,1.69874,-0.0493404,1.06856,-0.0511913,0.0228203,0.224169,-0.00330808,-0.411697,0.00283798,0.186809,-0.00167002,-0.00974925,0.0246,0.718634,0,0,0.117107,0,0,0,-0.00985006,0.0180227,0.719329,0,0,0,0,0,0
2.01272,0.0780398,-1.05062,-0.0927732,1.69553,-0.0493182,1.07001,-0.051204,0.0227662,0.223971,-0.00328178,-0.411774,0.00285063,0.187091,-0.00163112,-0.00974925,0.0246,0.719546,0,0,0.117107,0,0,0,-0.00984892,0.0180738,0.720242,0,0,0,0,0,0
2.02186,0.0782479,-1.04857,-0.0928027,1.69176,-0.0492918,1.07173,-0.0512184,0.0227544,0.224427,-0.00323021,-0.412969,0.00288606,0.187838,-0.00157982,-0.00974925,0.0246,0.720617,0,0,0.117107,0,0,0,-0.00984753,0.0181332,0.721315,0,0,0,0,0,0
2.02887,0.0784069,-1.047,-0.0928252,1.68887,-0.0492715,1.07305,-0.0512293,0.0226986,0.224127,-0.00321385,-0.41284,0.00289176,0.188015,-0.00154758,-0.00974925,0.0246,0.721437,0,0,0.117107,0,0,0,-0.00984656,0.0181783,0.722136,0,0,0,0,0,0
2.03672,0.078585,-1.04524,-0.0928502,1.68562,-0.0492486,1.07453,-0.0512411,0.0226858,0.22446,-0.00317438,-0.41377,0.00291871,0.18862,-0.0015054,-0.00974925,0.0246,0.722357,0,0,0.117107,0,0,0,-0.00984544,0.0182286,0.723057,0,0,0,0,0,0
2.04394,0.0787486,-1.04362,-0.0928729,1.68263,-0.0492274,1.07589,-0.0512517,0.0226539,0.224478,-0.00314922,-0.414164,0.00293352,0.189001,-0.00147019,-0.00974925,0.0246,0.723202,0,0,0.117107,0,0,0,-0.00984445,0.0182744,0.723903,0,0,0,0,0,0
2.05119,0.0789127,-1.04199,-0.0928955,1.67962,-0.049206,1.07727,-0.0512621,0.0226326,0.224635,-0.00312045,-0.414782,0.00295217,0.189468,-0.00143398,-0.00974925,0.0246,0.724052,0,0,0.117107,0,0,0,-0.00984346,0.0183201,0.724753,0,0,0,0,0,0
2.05712,0.0790466,-1.04066,-0.092914,1.67716,-0.0491885,1.07839,-0.0512705,0.022596,0.22449,-0.00310752,-0.414844,0.00295794,0.18968,-0.00140784,-0.00974925,0.0246,0.724746,0,0,0.117107,0,0,0,-0.0098427,0.0183572,0.725446,0,0,0,0,0,0
2.06307,0.0791811,-1.03932,-0.0929323,1.67469,-0.0491708,1.07952,-0.0512787,0.02258,0.224624,-0.0030855,-0.415359,0.00297244,0.190066,-0.00137888,-0.00974925,0.0246,0.725443,0,0,0.117107,0,0,0,-0.00984194,0.0183943,0.726143,0,0,0,0,0,0
2.07054,0.0793498,-1.03764,-0.0929551,1.67158,-0.0491484,1.08095,-0.0512887,0.0225822,0.225095,-0.00304821,-0.416496,0.00299995,0.190738,-0.00133966,-0.00974925,0.0246,0.726318,0,0,0.117107,0,0,0,-0.00984093,0.0184405,0.727019,0,0,0,0,0,0
2.07765,0.0795101,-1.03604,-0.0929766,1.66861,-0.049127,1.08231,-0.051298,0.0225588,0.225176,-0.0030272,-0.416983,0.00301332,0.19115,-0.00130714,-0.00974925,0.0246,0.72715,0,0,0.117107,0,0,0,-0.00983999,0.0184841,0.727852,0,0,0,0,0,0
2.08602,0.0796989,-1.03415,-0.0930017,1.66511,-0.0491015,1.08391,-0.0513086,0.0225566,0.225617,-0.00299126,-0.418119,0.0030398,0.191851,-0.00126544,-0.00974925,0.0246,0.72813,0,0,0.117107,0,0,0,-0.00983883,0.0185351,0.728833,0,0,0,0,0,0
2.09382,0.0798747,-1.03239,-0.0930248,1.66185,-0.0490777,1.08541,-0.0513182,0.0225306,0.225675,-0.00297237,-0.418603,0.00305181,0.192284,-0.00123156,-0.00974925,0.0246,0.729044,0,0,0.117107,0,0,0,-0.00983779,0.0185822,0.729748,0,0,0,0,0,0
2.10252,0.0800705,-1.03042,-0.0930504,1.6582,-0.049051,1.08709,-0.0513285,0.0225245,0.226052,-0.00294121,-0.419652,0.00307488,0.192962,-0.00119069,-0.00974925,0.0246,0.730062,0,0,0.117107,0,0,0,-0.00983659,0.0186343,0.730768,0,0,0,0,0,0
2.10848,0.0802046,-1.02908,-0.093068,1.6557,-0.0490327,1.08824,-0.0513355,0.0224736,0.225634,-0.0029467,-0.419268,0.00306707,0.193001,-0.00117182,-0.00974925,0.0246,0.730761,0,0,0.117107,0,0,0,-0.00983587,0.0186697,0.731466,0,0,0,0,0,0
2.11557,0.0803639,-1.02748,-0.0930887,1.65272,-0.0490108,1.08961,-0.0513436,0.022476,0.226028,-0.00292016,-0.420265,0.00308768,0.193609,-0.00113836,-0.00974925,0.0246,0.731591,0,0,0.117107,0,0,0,-0.00983497,0.0187116,0.732297,0,0,0,0,0,0
2.1223,0.080515,-1.02596,-0.0931082,1.64989,-0.04899,1.09092,-0.0513511,0.0224589,0.226113,-0.00290718,-0.42074,0.00309678,0.194003,-0.0011109,-0.00974925,0.0246,0.732378,0,0,0.117107,0,0,0,-0.00983414,0.0187511,0.733085,0,0,0,0,0,0
2.131,0.0807105,-1.02398,-0.0931332,1.64621,-0.0489628,1.09261,-0.0513604,0.022472,0.226721,-0.00287246,-0.422167,0.00312492,0.194829,-0.0010694,-0.00974925,0.0246,0.733398,0,0,0.117107,0,0,0,-0.00983297,0.0188017,0.734106,0,0,0,0,0,0
2.13848,0.0808784,-1.02229,-0.0931547,1.64305,-0.0489394,1.09407,-0.0513682,0.0224434,0.226652,-0.00286739,-0.422427,0.00312784,0.195163,-0.00104249,-0.00974925,0.0246,0.734274,0,0,0.117107,0,0,0,-0.00983203,0.0188449,0.734982,0,0,0,0,0,0
2.14779,0.0810875,-1.02017,-0.0931811,1.63911,-0.04891,1.0959,-0.0513775,0.0224557,0.227248,-0.00283554,-0.423869,0.00315441,0.196015,-0.00100025,-0.00974925,0.0246,0.735364,0,0,0.117107,0,0,0,-0.00983077,0.0188982,0.736075,0,0,0,0,0,0
2.15426,0.0812325,-1.0187,-0.0931995,1.63637,-0.0488897,1.09717,-0.0513838,0.0224083,0.226832,-0.00284825,-0.423508,0.00314304,0.196075,-0.000983375,-0.00974925,0.0246,0.736121,0,0,0.117107,0,0,0,-0.00983001,0.018935,0.736833,0,0,0,0,0,0
2.16348,0.0814393,-1.01661,-0.0932254,1.63245,-0.0488604,1.09898,-0.0513925,0.0224356,0.227619,-0.00281173,-0.425259,0.0031747,0.197045,-0.000940048,-0.00974925,0.0246,0.737201,0,0,0.117107,0,0,0,-0.00982878,0.0189869,0.737915,0,0,0,0,0,0
2.17023,0.0815905,-1.01507,-0.0932445,1.62958,-0.048839,1.10031,-0.0513987,0.0223952,0.227289,-0.00282355,-0.425053,0.00316512,0.197174,-0.000922315,-0.00974925,0.0246,0.737992,0,0,0.117107,0,0,0,-0.00982799,0.0190246,0.738705,0,0,0,0,0,0
2.17771,0.081758,-1.01337,-0.0932655,1.62639,-0.0488153,1.10179,-0.0514054,0.0223986,0.227629,-0.00280859,-0.425984,0.00317901,0.19777,-0.000892644,-0.00974925,0.0246,0.738867,0,0,0.117107,0,0,0,-0.00982709,0.0190662,0.739582,0,0,0,0,0,0
2.18592,0.081942,-1.0115,-0.0932885,1.62288,-0.048789,1.10342,-0.0514125,0.0224025,0.22799,-0.00279404,-0.426989,0.00319314,0.198417,-0.000860883,-0.00974925,0.0246,0.739829,0,0,0.117107,0,0,0,-0.00982607,0.0191114,0.740545,0,0,0,0,0,0
2.19502,0.0821459,-1.00942,-0.0933137,1.61899,-0.0487598,1.10524,-0.05142,0.0224089,0.228407,-0.00277898,-0.428128,0.00320849,0.199146,-0.000826246,-0.00974925,0.0246,0.740895,0,0,0.117107,0,0,0,-0.00982491,0.019161,0.741613,0,0,0,0,0,0
2.20946,0.0824705,-1.0061,-0.0933531,1.61276,-0.0487127,1.10814,-0.051431,0.022474,0.229866,-0.00272413,-0.431258,0.00326006,0.200825,-0.000760081,-0.00974925,0.0246,0.742586,0,0,0.117107,0,0,0,-0.00982264,0.0192389,0.743316,0,0,0,0,0,0
2.21942,0.0826937,-1.00381,-0.0933806,1.60847,-0.0486805,1.11014,-0.0514384,0.022412,0.229217,-0.00276154,-0.430685,0.00323367,0.200907,-0.000742961,-0.00974925,0.0246,0.743753,0,0,0.117107,0,0,0,-0.00982135,0.0192919,0.744486,0,0,0,0,0,0
2.22666,0.0828556,-1.00216,-0.0934007,1.60536,-0.0486573,1.11159,-0.0514436,0.0223758,0.228866,-0.00278474,-0.430462,0.00321833,0.20104,-0.000729135,-0.00974925,0.0246,0.7446,0,0,0.117107,0,0,0,-0.00982054,0.0193302,0.745333,0,0,0,0,0,0
2.23578,0.0830599,-1.00007,-0.093426,1.60142,-0.0486277,1.11343,-0.05145,0.0224014,0.2295,-0.002768,-0.431967,0.00323776,0.201915,-0.000694382,-0.00974925,0.0246,0.745668,0,0,0.117107,0,0,0,-0.00981942,0.0193779,0.746403,0,0,0,0,0,0
2.24358,0.0832346,-0.998275,-0.0934477,1.59804,-0.0486025,1.11501,-0.0514553,0.0223862,0.229456,-0.00278129,-0.432282,0.00323207,0.202279,-0.000675304,-0.00974925,0.0246,0.746582,0,0,0.117107,0,0,0,-0.00981854,0.0194185,0.747318,0,0,0,0,0,0
2.25186,0.08342,-0.996372,-0.0934707,1.59446,-0.0485757,1.11669,-0.0514606,0.0223955,0.229788,-0.00277986,-0.433244,0.00323933,0.202914,-0.000649219,-0.00974925,0.0246,0.747551,0,0,0.117107,0,0,0,-0.00981758,0.0194611,0.748289,0,0,0,0,0,0
2.25797,0.0835566,-0.994971,-0.0934878,1.59181,-0.048556,1.11793,-0.0514645,0.0223707,0.229529,-0.00280258,-0.433116,0.00322556,0.203048,-0.000639245,-0.00974925,0.0246,0.748266,0,0,0.117107,0,0,0,-0.00981696,0.0194924,0.749003,0,0,0,0,0,0
2.26331,0.0836762,-0.993743,-0.0935029,1.58949,-0.0485388,1.11902,-0.0514679,0.0223645,0.229536,-0.00281256,-0.433391,0.00322186,0.203319,-0.000626713,-0.00974925,0.0246,0.748893,0,0,0.117107,0,0,0,-0.00981644,0.0195196,0.749629,0,0,0,0,0,0
2.2718,0.0838664,-0.991788,-0.0935265,1.5858,-0.0485112,1.12075,-0.0514729,0.022411,0.230419,-0.00278991,-0.435284,0.00324779,0.204333,-0.00059193,-0.00974925,0.0246,0.749887,0,0,0.117107,0,0,0,-0.00981547,0.0195625,0.750624,0,0,0,0,0,0
2.28009,0.0840521,-0.989877,-0.0935497,1.58219,-0.0484843,1.12245,-0.0514776,0.0224157,0.230625,-0.00279939,-0.43604,0.00324794,0.204887,-0.000570423,-0.00974925,0.0246,0.750857,0,0,0.117107,0,0,0,-0.00981454,0.019604,0.751595,0,0,0,0,0,0
2.28666,0.0841993,-0.988363,-0.0935683,1.57932,-0.048463,1.1238,-0.0514813,0.0224007,0.23048,-0.00282233,-0.436123,0.003236,0.205118,-0.000559516,-0.00974925,0.0246,0.751626,0,0,0.117107,0,0,0,-0.00981387,0.0196366,0.752364,0,0,0,0,0,0
2.29495,0.0843854,-0.986446,-0.0935916,1.57569,-0.0484361,1.12551,-0.0514857,0.0224319,0.231081,-0.0028161,-0.437539,0.00324973,0.205938,-0.000531918,-0.00974925,0.0246,0.752598,0,0,0.117107,0,0,0,-0.00981296,0.0196776,0.753337,0,0,0,0,0,0
2.30219,0.0845476,-0.984774,-0.0936121,1.57253,-0.0484126,1.127,-0.0514895,0.022428,0.231092,-0.00283597,-0.437917,0.00324184,0.206308,-0.000517964,-0.00974925,0.0246,0.753445,0,0,0.117107,0,0,0,-0.00981221,0.019713,0.754184,0,0,0,0,0,0
2.30908,0.0847022,-0.983181,-0.0936318,1.5695,-0.0483903,1.12842,-0.0514929,0.0224334,0.231239,-0.00284951,-0.438506,0.00323901,0.206752,-0.000502591,-0.00974925,0.0246,0.754252,0,0,0.117107,0,0,0,-0.00981151,0.0197465,0.754991,0,0,0,0,0,0
2.31625,0.0848632,-0.98152,-0.0936523,1.56635,-0.0483671,1.12991,-0.0514964,0.022448,0.231524,-0.0028585,-0.439339,0.00324052,0.207304,-0.000484596,-0.00974925,0.0246,0.755092,0,0,0.117107,0,0,0,-0.00981078,0.0197811,0.755831,0,0,0,0,0,0
2.32265,0.0850068,-0.980039,-0.0936707,1.56354,-0.0483464,1.13124,-0.0514994,0.0224491,0.231574,-0.00287721,-0.439739,0.00323372,0.207657,-0.000472903,-0.00974925,0.0246,0.755841,0,0,0.117107,0,0,0,-0.00981016,0.0198118,0.75658,0,0,0,0,0,0
2.33086,0.0851916,-0.978131,-0.0936943,1.55991,-0.0483197,1.13295,-0.0515031,0.0224863,0.232205,-0.00287537,-0.441207,0.00324589,0.208497,-0.000447495,-0.00974925,0.0246,0.756803,0,0,0.117107,0,0,0,-0.00980929,0.0198509,0.757543,0,0,0,0,0,0
2.3369,0.0853272,-0.976731,-0.0937119,1.55725,-0.0483002,1.13421,-0.0515058,0.0224712,0.231965,-0.00290895,-0.441103,0.00322765,0.208636,-0.000443041,-0.00974925,0.0246,0.75751,0,0,0.117107,0,0,0,-0.00980873,0.0198794,0.758249,0,0,0,0,0,0
2.34524,0.0855149,-0.974791,-0.0937361,1.55356,-0.0482732,1.13596,-0.0515093,0.0225163,0.232701,-0.00290482,-0.442755,0.00324257,0.209556,-0.000416407,-0.00974925,0.0246,0.758486,0,0,0.117107,0,0,0,-0.00980785,0.0199185,0.759227,0,0,0,0,0,0
2.35317,0.0856936,-0.972944,-0.0937593,1.55004,-0.0482475,1.13762,-0.0515124,0.0225288,0.232883,-0.0029276,-0.443457,0.00323634,0.210079,-0.000402019,-0.00974925,0.0246,0.759415,0,0,0.117107,0,0,0,-0.00980704,0.0199554,0.760156,0,0,0,0,0,0
2.3619,0.0858907,-0.970905,-0.093785,1.54616,-0.0482192,1.13947,-0.0515158,0.0225589,0.233337,-0.0029418,-0.444658,0.00323852,0.210828,-0.000381764,-0.00974925,0.0246,0.760438,0,0,0.117107,0,0,0,-0.00980611,0.0199957,0.761181,0,0,0,0,0,0
2.36916,0.0860545,-0.969211,-0.0938066,1.54293,-0.0481958,1.141,-0.0515185,0.0225593,0.23329,-0.00297599,-0.444939,0.00322343,0.21116,-0.000374192,-0.00974925,0.0246,0.761288,0,0,0.117107,0,0,0,-0.00980541,0.020029,0.762031,0,0,0,0,0,0
2.37729,0.086238,-0.967313,-0.0938309,1.5393,-0.0481696,1.14272,-0.0515214,0.022591,0.233742,-0.00299043,-0.446107,0.00322542,0.211879,-0.000355932,-0.00974925,0.0246,0.76224,0,0,0.117107,0,0,0,-0.00980459,0.0200658,0.762983,0,0,0,0,0,0
2.38355,0.0863796,-0.965849,-0.0938499,1.53651,-0.0481495,1.14405,-0.0515236,0.0225865,0.233591,-0.00302763,-0.446163,0.00320727,0.212088,-0.000352672,-0.00974925,0.0246,0.762974,0,0,0.117107,0,0,0,-0.00980403,0.0200941,0.763717,0,0,0,0,0,0
2.39218,0.0865747,-0.963828,-0.093876,1.53265,-0.0481218,1.14589,-0.0515264,0.0226393,0.234363,-0.00303087,-0.447901,0.00321954,0.213056,-0.000328317,-0.00974925,0.0246,0.763983,0,0,0.117107,0,0,0,-0.00980315,0.0201327,0.764728,0,0,0,0,0,0
2.39891,0.0867272,-0.962251,-0.0938967,1.52963,-0.0481002,1.14732,-0.0515286,0.0226377,0.234227,-0.00307205,-0.448005,0.00320002,0.213299,-0.00032543,-0.00974925,0.0246,0.764772,0,0,0.117107,0,0,0,-0.00980254,0.0201626,0.765516,0,0,0,0,0,0
2.40629,0.0868945,-0.960519,-0.0939195,1.52632,-0.0480766,1.1489,-0.0515309,0.0226688,0.234622,-0.00309063,-0.449042,0.00319924,0.213944,-0.000311192,-0.00974925,0.0246,0.765636,0,0,0.117107,0,0,0,-0.00980185,0.0201951,0.766381,0,0,0,0,0,0
2.41207,0.0870255,-0.959164,-0.0939376,1.52372,-0.0480582,1.15014,-0.0515327,0.0226695,0.234514,-0.00312731,-0.449149,0.00318216,0.214159,-0.000309325,-0.00974925,0.0246,0.766313,0,0,0.117107,0,0,0,-0.00980136,0.0202205,0.767057,0,0,0,0,0,0
2.42012,0.0872084,-0.957271,-0.0939628,1.52009,-0.0480325,1.15187,-0.051535,0.0227233,0.23526,-0.0031337,-0.450817,0.00319258,0.215085,-0.000287997,-0.00974925,0.0246,0.767255,0,0,0.117107,0,0,0,-0.00980058,0.0202555,0.768,0,0,0,0,0,0
2.42759,0.0873784,-0.95551,-0.0939866,1.51672,-0.0480087,1.15348,-0.0515371,0.0227574,0.23556,-0.00318979,-0.451324,0.00318345,0.215293,-0.000280282,-0.00974922,0.0246,0.76813,0.000107796,0,0.117107,0,0,0,-0.00979909,0.0202877,0.768875,0,0,0,0,0,0
2.43556,0.0875616,-0.953615,-0.0940145,1.51313,-0.0479831,1.15517,-0.0515393,0.0229672,0.23768,-0.00349076,-0.450549,0.00320895,0.212391,-0.000268177,-0.00974291,0.0246,0.769064,0.00147459,0,0.117097,0,0,0,-0.00978652,0.0203219,0.76981,0,0,0,0,0,0
2.4417,0.0877034,-0.952149,-0.0940375,1.51037,-0.0479634,1.15646,-0.0515409,0.023103,0.238835,-0.00374644,-0.44917,0.00321122,0.209851,-0.00026939,-0.00973063,0.0246,0.769783,0.00252657,0,0.117079,0,0,0,-0.00977044,0.020348,0.770528,0,0,0,0,0,0
2.44867,0.0878656,-0.950472,-0.0940654,1.50724,-0.0479409,1.15791,-0.0515427,0.0232904,0.240706,-0.0040091,-0.448542,0.00323585,0.207346,-0.000258788,-0.00970887,0.0246,0.770598,0.00372048,0,0.117048,0,0,0,-0.00974379,0.0203774,0.771343,0,0,0,0,0,0
2.45488,0.0880113,-0.948968,-0.0940919,1.50446,-0.0479207,1.15918,-0.0515443,0.0234399,0.242041,-0.00425957,-0.447449,0.00324617,0.204911,-0.000256675,-0.00968244,0.0246,0.771326,0.00478512,0,0.117009,0,0,0,-0.00971343,0.0204035,0.772069,0,0,0,0,0,0
2.46142,0.0881657,-0.947375,-0.0941214,1.50154,-0.0478994,1.1605,-0.0515459,0.02361,0.243649,-0.00451381,-0.446633,0.00326525,0.20248,-0.000250263,-0.00964748,0.0246,0.772091,0.0059051,0,0.116958,0,0,0,-0.00967409,0.0204308,0.772834,0,0,0,0,0,0
2.47014,0.0883737,-0.945229,-0.0941636,1.49765,-0.0478706,1.16224,-0.051548,0.0238566,0.246116,-0.00483896,-0.446057,0.00330321,0.199428,-0.000235229,-0.00958951,0.0246,0.77311,0.00739694,0,0.116873,0,0,0,-0.00960836,0.0204668,0.773854,0,0,0,0,0,0
2.4766,0.0885287,-0.943633,-0.0941966,1.49478,-0.0478492,1.16351,-0.0515496,0.0239935,0.24709,-0.00511775,-0.444315,0.00330205,0.196705,-0.000242363,-0.00953815,0.0246,0.773865,0.00850181,0,0.116798,0,0,0,-0.00955268,0.0204934,0.774608,0,0,0,0,0,0
2.48371,0.0887006,-0.941864,-0.094235,1.49163,-0.0478256,1.16489,-0.0515512,0.0241808,0.2488,-0.00539728,-0.443384,0.00332406,0.194057,-0.000236902,-0.00947336,0.0246,0.774695,0.00971727,0,0.116703,0,0,0,-0.00948264,0.0205224,0.775438,0,0,0,0,0,0
2.49027,0.0888602,-0.940224,-0.0942722,1.48873,-0.0478037,1.16615,-0.0515528,0.0243393,0.250096,-0.00566684,-0.442111,0.00333561,0.191481,-0.000237887,-0.00940598,0.0246,0.77546,0.0108368,0,0.116604,0,0,0,-0.00941077,0.0205489,0.776202,0,0,0,0,0,0
2.49892,0.0890729,-0.938041,-0.0943241,1.48491,-0.0477746,1.16778,-0.0515548,0.0245815,0.252381,-0.00600008,-0.441284,0.00337119,0.18836,-0.000227588,-0.00930585,0.0246,0.776468,0.0123126,0,0.116458,0,0,0,-0.00930277,0.0205837,0.777211,0,0,0,0,0,0
2.50563,0.0892387,-0.936341,-0.0943663,1.48197,-0.0477519,1.16902,-0.0515564,0.0247261,0.25333,-0.00629088,-0.43945,0.0033726,0.18557,-0.000236791,-0.00921943,0.0246,0.777249,0.0134554,0,0.116331,0,0,0,-0.0092116,0.0206104,0.777991,0,0,0,0,0,0
2.51242,0.0894079,-0.93461,-0.0944109,1.47899,-0.0477289,1.17027,-0.051558,0.0248969,0.254717,-0.00656921,-0.438214,0.00338896,0.182939,-0.000237435,-0.00912406,0.0246,0.778039,0.014612,0,0.116191,0,0,0,-0.00911133,0.0206373,0.77878,0,0,0,0,0,0
2.51961,0.0895882,-0.932768,-0.0944603,1.47585,-0.0477044,1.17156,-0.0515597,0.0250806,0.256218,-0.00686283,-0.436957,0.00340826,0.180172,-0.000237624,-0.0090146,0.0246,0.778874,0.0158341,0,0.116031,0,0,0,-0.00899636,0.0206656,0.779615,0,0,0,0,0,0
2.5282,0.0898057,-0.93055,-0.0945222,1.4721,-0.0476749,1.17308,-0.0515617,0.0253106,0.258178,-0.00720848,-0.435684,0.00343759,0.176931,-0.000234798,-0.00887231,0.0246,0.779869,0.0172919,0,0.115823,0,0,0,-0.00884612,0.0206991,0.780611,0,0,0,0,0,0
2.53436,0.0899622,-0.928958,-0.0945683,1.46944,-0.0476537,1.17415,-0.0515632,0.0254331,0.258763,-0.00748439,-0.433655,0.00343447,0.174309,-0.000249398,-0.00876267,0.0246,0.780582,0.0183348,0,0.115662,0,0,0,-0.00873243,0.0207229,0.781322,0,0,0,0,0,0
2.53968,0.0900981,-0.927577,-0.0946093,1.46714,-0.0476354,1.17507,-0.0515646,0.025554,0.25954,-0.00771332,-0.432277,0.00344086,0.172149,-0.000256544,-0.00866279,0.0246,0.781197,0.0192345,0,0.115516,0,0,0,-0.00862953,0.0207434,0.781936,0,0,0,0,0,0
2.54728,0.0902942,-0.925588,-0.0946703,1.46385,-0.047609,1.17636,-0.0515665,0.0257689,0.261424,-0.00801624,-0.431342,0.00347384,0.16932,-0.000251592,-0.00851154,0.0246,0.782075,0.0205199,0,0.115295,0,0,0,-0.00847197,0.0207725,0.782813,0,0,0,0,0,0
2.55401,0.0904685,-0.923824,-0.0947261,1.46097,-0.0475856,1.17748,-0.0515683,0.0259226,0.26238,-0.00830695,-0.429574,0.00348303,0.166588,-0.0002615,-0.00836971,0.0246,0.782849,0.0216541,0,0.115087,0,0,0,-0.00832523,0.0207981,0.783587,0,0,0,0,0,0
2.56318,0.0907085,-0.921399,-0.0948057,1.45704,-0.0475533,1.17897,-0.0515706,0.0261759,0.26449,-0.00867903,-0.428213,0.00352003,0.163107,-0.000259329,-0.00816415,0.0246,0.783903,0.0231963,0,0.114786,0,0,0,-0.00811034,0.0208326,0.784641,0,0,0,0,0,0
2.57064,0.0909049,-0.91942,-0.0948729,1.45386,-0.047527,1.18017,-0.0515727,0.0263355,0.265289,-0.00900941,-0.425926,0.00352546,0.160012,-0.000275853,-0.00798646,0.0246,0.784758,0.0244482,0,0.114526,0,0,0,-0.00792652,0.0208604,0.785495,0,0,0,0,0,0
2.57855,0.091115,-0.917309,-0.0949469,1.45051,-0.0474989,1.18141,-0.0515749,0.0265322,0.266637,-0.00934581,-0.424136,0.00354646,0.156863,-0.000283673,-0.00778763,0.0246,0.785664,0.025774,0,0.114235,0,0,0,-0.00772074,0.0208897,0.7864,0,0,0,0,0,0
2.58492,0.0912848,-0.915607,-0.0950082,1.44782,-0.0474763,1.18239,-0.0515769,0.0266659,0.26723,-0.00962991,-0.422084,0.0035511,0.154212,-0.000299609,-0.0076201,0.0246,0.786391,0.0268378,0,0.11399,0,0,0,-0.00754878,0.0209132,0.787126,0,0,0,0,0,0
2.59257,0.0914902,-0.913553,-0.0950843,1.4446,-0.047449,1.18355,-0.0515792,0.0268646,0.268661,-0.00995194,-0.420508,0.00357693,0.151194,-0.000304925,-0.00741006,0.0246,0.787261,0.0281117,0,0.113682,0,0,0,-0.00733223,0.0209411,0.787995,0,0,0,0,0,0
2.599,0.091664,-0.91182,-0.0951502,1.44191,-0.0474259,1.1845,-0.0515813,0.0270026,0.269282,-0.0102383,-0.418469,0.00358439,0.148527,-0.000320772,-0.00722564,0.0246,0.787992,0.0291817,0,0.113413,0,0,0,-0.00714327,0.0209645,0.788725,0,0,0,0,0,0
2.60828,0.0919168,-0.909304,-0.0952487,1.43804,-0.0473923,1.18585,-0.0515843,0.0272575,0.271244,-0.0106249,-0.416803,0.00362372,0.144887,-0.000323392,-0.00694787,0.0246,0.789042,0.0307186,0,0.113006,0,0,0,-0.00685567,0.0209978,0.789775,0,0,0,0,0,0
2.61592,0.0921262,-0.907228,-0.0953325,1.43488,-0.0473645,1.18693,-0.0515869,0.0274164,0.271838,-0.0109682,-0.41422,0.0036318,0.1417,-0.000345256,-0.0067084,0.0246,0.789904,0.0319803,0,0.112655,0,0,0,-0.00660965,0.0210251,0.790636,0,0,0,0,0,0
2.62465,0.0923677,-0.904841,-0.0954317,1.43128,-0.0473326,1.18814,-0.05159,0.0276342,0.273205,-0.0113452,-0.412059,0.00365939,0.138162,-0.000357324,-0.0064227,0.0246,0.790886,0.0334185,0,0.112237,0,0,0,-0.00631523,0.021056,0.791617,0,0,0,0,0,0
2.631,0.0925437,-0.903107,-0.0955055,1.42868,-0.0473094,1.18899,-0.0515924,0.0277511,0.273369,-0.0116368,-0.409544,0.00366086,0.135474,-0.000381746,-0.00620742,0.0246,0.791597,0.0344592,0,0.111922,0,0,0,-0.00609553,0.0210782,0.792327,0,0,0,0,0,0
2.63832,0.0927482,-0.901097,-0.095593,1.4257,-0.0472824,1.18996,-0.0515953,0.0279325,0.274461,-0.0119544,-0.407659,0.00368483,0.132488,-0.000393048,-0.00595073,0.0246,0.792415,0.0356567,0,0.111546,0,0,0,-0.00583282,0.0211038,0.793144,0,0,0,0,0,0
2.64451,0.092922,-0.899395,-0.0956687,1.42319,-0.0472595,1.19077,-0.0515979,0.0280602,0.274864,-0.0122336,-0.405481,0.00369413,0.129899,-0.000412359,-0.00572681,0.0246,0.793105,0.0366663,0,0.111218,0,0,0,-0.0056047,0.0211253,0.793831,0,0,0,0,0,0
2.65275,0.0931548,-0.897121,-0.0957724,1.41986,-0.0472288,1.19181,-0.0516013,0.0282737,0.276253,-0.0125885,-0.403516,0.00372673,0.126535,-0.000422375,-0.00541938,0.0246,0.794019,0.0380042,0,0.110768,0,0,0,-0.00528949,0.0211536,0.794744,0,0,0,0,0,0
2.65842,0.0933157,-0.895554,-0.0958453,1.41759,-0.0472077,1.19252,-0.0516039,0.0283695,0.276178,-0.0128521,-0.401039,0.00372749,0.124125,-0.000448386,-0.00520117,0.0246,0.794646,0.0389228,0,0.110449,0,0,0,-0.00506782,0.021173,0.79537,0,0,0,0,0,0
2.66522,0.0935097,-0.89367,-0.0959347,1.41487,-0.0471822,1.19334,-0.051607,0.0285369,0.277125,-0.0131494,-0.399182,0.00375174,0.121312,-0.000460489,-0.00493282,0.0246,0.795396,0.04002,0,0.110056,0,0,0,-0.0047943,0.021196,0.796118,0,0,0,0,0,0
2.6726,0.0937218,-0.891616,-0.0960343,1.41194,-0.0471543,1.19421,-0.0516105,0.0287094,0.277957,-0.0134761,-0.396944,0.00377483,0.118232,-0.000477398,-0.00463278,0.0246,0.796207,0.0412078,0,0.109617,0,0,0,-0.00448807,0.0212209,0.796928,0,0,0,0,0,0
2.6811,0.0939673,-0.889248,-0.0961519,1.40859,-0.047122,1.19519,-0.0516148,0.0289115,0.278977,-0.0138509,-0.394425,0.00380385,0.114682,-0.000495858,-0.00427714,0.0246,0.797136,0.042567,0,0.109096,0,0,0,-0.00412404,0.0212493,0.797855,0,0,0,0,0,0
2.68822,0.0941743,-0.887259,-0.0962529,1.4058,-0.0470948,1.19598,-0.0516185,0.0290504,0.279206,-0.0141751,-0.391657,0.00381684,0.111676,-0.000522817,-0.00396983,0.0246,0.797911,0.0437024,0,0.108647,0,0,0,-0.003811,0.0212729,0.798629,0,0,0,0,0,0
2.69455,0.0943589,-0.88549,-0.0963444,1.40334,-0.0470705,1.19667,-0.0516219,0.0291781,0.279489,-0.0144616,-0.389277,0.00383107,0.109004,-0.000545267,-0.00369009,0.0246,0.798598,0.0447069,0,0.108237,0,0,0,-0.00352686,0.0212938,0.799313,0,0,0,0,0,0
2.70153,0.0945639,-0.883532,-0.0964476,1.40063,-0.0470436,1.19741,-0.0516259,0.0293377,0.280167,-0.0147727,-0.38701,0.00385476,0.10605,-0.00056353,-0.00337388,0.0246,0.799352,0.0458115,0,0.107774,0,0,0,-0.00320515,0.0213166,0.800066,0,0,0,0,0,0
2.70851,0.0947695,-0.881576,-0.0965528,1.39795,-0.0470166,1.19813,-0.0516299,0.029487,0.280637,-0.015086,-0.384532,0.00387547,0.103093,-0.000585542,-0.00305065,0.0246,0.800102,0.0469091,0,0.107301,0,0,0,-0.00287645,0.0213393,0.800813,0,0,0,0,0,0
2.71648,0.0950061,-0.879331,-0.0966759,1.39491,-0.0469854,1.19893,-0.0516348,0.0296693,0.281399,-0.0154417,-0.381906,0.00390436,0.0996933,-0.000606824,-0.0026715,0.0246,0.800956,0.0481587,0,0.106746,0,0,0,-0.00248994,0.021365,0.801665,0,0,0,0,0,0
2.72267,0.0951903,-0.877591,-0.0967732,1.39256,-0.0469612,1.19953,-0.0516387,0.0297763,0.281292,-0.0157256,-0.379187,0.0039154,0.0970737,-0.000635754,-0.00237054,0.0246,0.801615,0.0491235,0,0.106305,0,0,0,-0.0021848,0.0213848,0.802322,0,0,0,0,0,0
2.73109,0.0954428,-0.875214,-0.0969088,1.38939,-0.0469279,1.20031,-0.0516442,0.0299808,0.282324,-0.0160989,-0.376599,0.00395199,0.0934416,-0.000654373,-0.0019514,0.0246,0.802507,0.0504301,0,0.105692,0,0,0,-0.00175735,0.0214116,0.803213,0,0,0,0,0,0
2.74022,0.0957182,-0.872632,-0.0970594,1.38598,-0.0468916,1.20113,-0.0516505,0.0301776,0.282939,-0.016509,-0.373295,0.00398441,0.0895111,-0.000683634,-0.00148474,0.0246,0.803469,0.0518375,0,0.105009,0,0,0,-0.00128079,0.0214402,0.804173,0,0,0,0,0,0
2.74787,0.0959502,-0.870466,-0.0971885,1.38315,-0.0468609,1.20179,-0.051656,0.0303139,0.282869,-0.016858,-0.369973,0.00400353,0.0862484,-0.000718481,-0.00108348,0.0246,0.80427,0.0530107,0,0.104421,0,0,0,-0.000872823,0.0214641,0.804972,0,0,0,0,0,0
2.75331,0.0961156,-0.868929,-0.0972816,1.38115,-0.0468391,1.20225,-0.05166,0.0303945,0.282491,-0.0171082,-0.36731,0.00401307,0.0839569,-0.000748824,-0.000792806,0.0246,0.804837,0.0538407,0,0.103996,0,0,0,-0.0005791,0.0214811,0.805537,0,0,0,0,0,0
2.76225,0.0963893,-0.866394,-0.097438,1.37789,-0.0468028,1.20296,-0.0516669,0.0306181,0.283705,-0.0175049,-0.364573,0.0040579,0.0799927,-0.000766967,-0.000305494,0.0246,0.805764,0.0551967,0,0.103283,0,0,0,-8.23165e-05,0.0215085,0.806461,0,0,0,0,0,0
2.77014,0.096632,-0.864155,-0.097579,1.37504,-0.0467706,1.20357,-0.0516732,0.0307592,0.28364,-0.0178632,-0.361127,0.00408172,0.0766013,-0.000802792,0.000134851,0.0246,0.806576,0.0563863,0,0.102638,0,0,0,0.000365191,0.0215326,0.807271,0,0,0,0,0,0
2.77817,0.0968801,-0.861878,-0.0977252,1.37217,-0.0467376,1.20415,-0.0516799,0.0309162,0.283848,-0.0182252,-0.357851,0.00411125,0.0731052,-0.000834435,0.000592081,0.0246,0.807397,0.0575878,0,0.101969,0,0,0,0.000829843,0.0215569,0.80809,0,0,0,0,0,0
2.78407,0.0970632,-0.860204,-0.0978345,1.37008,-0.0467133,1.20457,-0.0516851,0.0310013,0.283391,-0.0184944,-0.354907,0.0041256,0.0706118,-0.000868146,0.000934834,0.0246,0.807998,0.0584674,0,0.101467,0,0,0,0.00117624,0.0215747,0.808688,0,0,0,0,0,0
2.79356,0.0973596,-0.857504,-0.098014,1.36674,-0.0466737,1.2052,-0.0516935,0.0312274,0.284455,-0.0189182,-0.351684,0.00417394,0.0663105,-0.000891673,0.00149641,0.0246,0.808957,0.0598714,0,0.100645,0,0,0,0.00174862,0.021603,0.809645,0,0,0,0,0,0
2.7997,0.0975516,-0.855764,-0.0981318,1.3646,-0.046648,1.20559,-0.0516992,0.0312969,0.283607,-0.0191978,-0.348308,0.00418642,0.0637751,-0.000933067,0.00186653,0.0246,0.809573,0.0607729,0,0.100103,0,0,0,0.00212268,0.0216212,0.810258,0,0,0,0,0,0
2.80526,0.0977262,-0.854187,-0.09824,1.36268,-0.0466246,1.20593,-0.0517046,0.0313914,0.283476,-0.0194483,-0.34577,0.00420665,0.0613604,-0.000959593,0.00220677,0.0246,0.810128,0.0615858,0,0.099605,0,0,0,0.00246602,0.0216376,0.810811,0,0,0,0,0,0
2.81335,0.0979816,-0.851888,-0.0984003,1.35991,-0.0465902,1.2064,-0.0517125,0.0315714,0.284138,-0.0198106,-0.342753,0.00424712,0.0576696,-0.00098392,0.00270979,0.0246,0.810931,0.0627611,0,0.0988687,0,0,0,0.00297657,0.0216612,0.811611,0,0,0,0,0,0
2.81969,0.0981824,-0.850089,-0.0985277,1.35775,-0.0465631,1.20675,-0.051719,0.0316613,0.283638,-0.0200961,-0.339557,0.00426787,0.0549659,-0.00102016,0.00311082,0.0246,0.811556,0.0636764,0,0.0982817,0,0,0,0.00338185,0.0216797,0.812234,0,0,0,0,0,0
2.82732,0.0984249,-0.847926,-0.0986835,1.35519,-0.0465303,1.20714,-0.051727,0.031812,0.283899,-0.0204375,-0.336386,0.00430345,0.0515223,-0.00104921,0.00360027,0.0246,0.812303,0.0647689,0,0.0975652,0,0,0,0.00387783,0.0217017,0.812977,0,0,0,0,0,0
2.83276,0.0985983,-0.846385,-0.098796,1.35337,-0.0465068,1.20741,-0.0517329,0.0318771,0.283243,-0.0206809,-0.333457,0.0043206,0.0492432,-0.00108397,0.00395477,0.0246,0.812832,0.0655438,0,0.0970463,0,0,0,0.00423522,0.0217173,0.813504,0,0,0,0,0,0
2.83988,0.0988264,-0.844365,-0.0989456,1.35102,-0.0464758,1.20774,-0.0517408,0.0320209,0.283559,-0.0209995,-0.330515,0.00435605,0.0459749,-0.00110993,0.0044253,0.0246,0.813521,0.0665523,0,0.0963575,0,0,0,0.00471131,0.0217376,0.81419,0,0,0,0,0,0
2.84621,0.0990296,-0.842573,-0.0990803,1.34895,-0.0464481,1.20801,-0.0517481,0.0321163,0.283205,-0.0212815,-0.327407,0.00438193,0.0432126,-0.00114352,0.00484922,0.0246,0.814129,0.0674419,0,0.0957369,0,0,0,0.0051394,0.0217555,0.814795,0,0,0,0,0,0
2.85409,0.099284,-0.840338,-0.0992508,1.34639,-0.0464132,1.20832,-0.0517573,0.0322669,0.283403,-0.0216333,-0.323994,0.00442115,0.0395902,-0.00117484,0.00538529,0.0246,0.814881,0.0685423,0,0.0949522,0,0,0,0.0056825,0.0217776,0.815543,0,0,0,0,0,0
2.862,0.0995402,-0.8381,-0.0994246,1.34386,-0.046378,1.20861,-0.0517669,0.0323946,0.283152,-0.0219844,-0.320219,0.00445729,0.0360556,-0.0012137,0.00593152,0.0246,0.815628,0.0696366,0,0.0941526,0,0,0,0.00623578,0.0217996,0.816288,0,0,0,0,0,0
2.87055,0.0998186,-0.835678,-0.099616,1.34116,-0.0463395,1.20888,-0.0517776,0.0325382,0.283002,-0.022364,-0.316198,0.00449857,0.0321729,-0.00125376,0.00653246,0.0246,0.81643,0.0708105,0,0.0932729,0,0,0,0.00684517,0.0218232,0.817086,0,0,0,0,0,0
2.87631,0.100006,-0.834056,-0.0997461,1.33936,-0.0463135,1.20905,-0.0517851,0.0325891,0.282018,-0.0226145,-0.312863,0.00452011,0.0298144,-0.00129505,0.00694192,0.0246,0.816965,0.0715932,0,0.0926736,0,0,0,0.00725783,0.021839,0.817618,0,0,0,0,0,0
2.8838,0.100251,-0.831941,-0.0999181,1.33704,-0.0462793,1.20925,-0.051795,0.0327261,0.282135,-0.0229468,-0.309477,0.00455987,0.0263019,-0.00132599,0.00748243,0.0246,0.817657,0.0726058,0,0.0918824,0,0,0,0.00780449,0.0218594,0.818307,0,0,0,0,0,0
2.89057,0.100474,-0.830035,-0.100075,1.33497,-0.0462482,1.20941,-0.0518043,0.0328165,0.281602,-0.0232427,-0.305965,0.00459183,0.0233143,-0.0013643,0.00797702,0.0246,0.818276,0.0735128,0,0.0911584,0,0,0,0.00830386,0.0218777,0.818923,0,0,0,0,0,0
2.89822,0.100725,-0.827883,-0.100256,1.33266,-0.0462128,1.20956,-0.051815,0.0329388,0.281412,-0.0235784,-0.30226,0.00463158,0.0197879,-0.00140085,0.00854287,0.0246,0.81897,0.0745282,0,0.0903301,0,0,0,0.00887611,0.0218982,0.819613,0,0,0,0,0,0
2.90494,0.100947,-0.825996,-0.100416,1.33065,-0.0461815,1.20967,-0.0518247,0.0330211,0.28077,-0.0238694,-0.298672,0.00466427,0.0168326,-0.00144064,0.00904683,0.0246,0.819574,0.0754134,0,0.0895923,0,0,0,0.00938473,0.0219162,0.820215,0,0,0,0,0,0
2.91204,0.101182,-0.824005,-0.100588,1.32855,-0.0461481,1.20977,-0.0518351,0.0331241,0.280419,-0.0241784,-0.295079,0.00470155,0.0135816,-0.00147735,0.00958561,0.0246,0.820208,0.0763406,0,0.0888037,0,0,0,0.00992882,0.021935,0.820845,0,0,0,0,0,0
2.91968,0.101436,-0.821866,-0.100775,1.32633,-0.0461119,1.20985,-0.0518467,0.0332337,0.280039,-0.0245097,-0.291193,0.00474235,0.0100653,-0.00151686,0.0101724,0.0246,0.820883,0.0773285,0,0.0879447,0,0,0,0.0105219,0.021955,0.821516,0,0,0,0,0,0
2.92694,0.101678,-0.819837,-0.100955,1.32424,-0.0460771,1.2099,-0.051858,0.0333231,0.279414,-0.0248212,-0.287314,0.00478057,0.00680224,-0.00155864,0.0107374,0.0246,0.821518,0.0782591,0,0.0871176,0,0,0,0.0110925,0.021974,0.822148,0,0,0,0,0,0
2.93375,0.101906,-0.817938,-0.101126,1.32231,-0.0460443,1.20992,-0.0518689,0.0334031,0.278773,-0.0251116,-0.283628,0.00481693,0.00374866,-0.00159861,0.0112733,0.0246,0.822109,0.0791238,0,0.0863331,0,0,0,0.0116331,0.0219916,0.822735,0,0,0,0,0,0
2.93979,0.102108,-0.816258,-0.10128,1.32062,-0.046015,1.20993,-0.0518788,0.033467,0.278087,-0.0253668,-0.280277,0.00484931,0.00107597,-0.00163586,0.0117536,0.0246,0.822629,0.0798841,0,0.08563,0,0,0,0.0121169,0.0220072,0.823252,0,0,0,0,0,0
2.94832,0.102394,-0.813888,-0.101499,1.31826,-0.0459733,1.2099,-0.0518931,0.0336027,0.278007,-0.0257363,-0.27605,0.00489905,-0.00308348,-0.00167433,0.0124392,0.0246,0.823354,0.0809465,0,0.0846264,0,0,0,0.0128106,0.0220289,0.823973,0,0,0,0,0,0
2.95501,0.10262,-0.812036,-0.101673,1.31644,-0.0459403,1.20986,-0.0519046,0.0336544,0.276932,-0.0260123,-0.272129,0.00493525,-0.00593705,-0.0017206,0.0129835,0.0246,0.823918,0.0817713,0,0.0838297,0,0,0,0.0133593,0.0220459,0.824533,0,0,0,0,0,0
2.96253,0.102874,-0.809955,-0.101871,1.31442,-0.0459028,1.20979,-0.0519179,0.0337496,0.276443,-0.026331,-0.268109,0.0049789,-0.00947843,-0.0017611,0.0136025,0.0246,0.824545,0.08269,0,0.0829236,0,0,0,0.0139842,0.0220648,0.825157,0,0,0,0,0,0
2.9693,0.103102,-0.808091,-0.102051,1.31264,-0.0458688,1.20971,-0.0519301,0.0338115,0.275585,-0.0266101,-0.264248,0.00501763,-0.0124893,-0.00180409,0.0141644,0.0246,0.825103,0.0835069,0,0.082101,0,0,0,0.0145506,0.0220818,0.825711,0,0,0,0,0,0
2.9771,0.103367,-0.805944,-0.102261,1.31061,-0.0458293,1.20958,-0.0519445,0.0339063,0.275055,-0.0269378,-0.260022,0.00506391,-0.0161957,-0.00184635,0.0148198,0.0246,0.82574,0.0844393,0,0.0811417,0,0,0,0.0152124,0.0221011,0.826344,0,0,0,0,0,0
2.98294,0.103565,-0.804345,-0.10242,1.30911,-0.0457996,1.20947,-0.0519555,0.0339368,0.273935,-0.0271698,-0.256466,0.00509785,-0.0186379,-0.00188933,0.0153148,0.0246,0.826212,0.0851297,0,0.0804171,0,0,0,0.0157104,0.0221155,0.826812,0,0,0,0,0,0
2.98922,0.103779,-0.802628,-0.102592,1.30752,-0.0457673,1.20934,-0.0519676,0.034003,0.273362,-0.0274289,-0.252957,0.00513573,-0.0215818,-0.00192551,0.0158517,0.0246,0.826715,0.0858653,0,0.0796311,0,0,0,0.0162509,0.0221309,0.827311,0,0,0,0,0,0
2.99641,0.104024,-0.800666,-0.102792,1.30573,-0.04573,1.20916,-0.0519817,0.0340815,0.27278,-0.0277259,-0.248956,0.00517954,-0.0250108,-0.00196578,0.0164725,0.0246,0.827284,0.0866992,0,0.0787224,0,0,0,0.0168769,0.0221484,0.827877,0,0,0,0,0,0
3.00277,0.10424,-0.798942,-0.102969,1.30418,-0.045697,1.20898,-0.0519945,0.0340437,0.271071,-0.0279171,-0.244507,0.00520027,-0.0277554,-0.00201245,0.0170259,0.0246,0.827782,0.0871855,0,0.0776963,0,0,0,0.0174327,0.0221638,0.82837,0,0,0,0,0,0
3.01021,0.104492,-0.796945,-0.103178,1.3024,-0.0456583,1.20875,-0.0520099,0.0339,0.268428,-0.0280506,-0.23856,0.00519712,-0.0310639,-0.0020648,0.0176752,0.0246,0.828354,0.0873644,0,0.076176,0,0,0,0.0180851,0.0221817,0.828936,0,0,0,0,0,0
