Kcygt/SemiCircleKinovaTest_Cpp/data.csv
t,q1,q2,q3,q4,q5,q6,q7,qp1,qp2,qp3,qp4,qp5,qp6,qp7,xd,yd,zd,vxd,vyd,vzd,wxd,wyd,wzd,x,y,z,vx,vy,vz,wx,wy,wz
3.8e-06,-1.58559e-14,-1.10828,-6.02058e-15,2.21657,3.05839e-14,0.610865,-3.31224e-14,-4.1726e-09,-5.91159e-07,-1.58436e-09,1.38184e-06,8.04839e-09,-7.90676e-07,-8.71642e-09,0,0,0,0,0,-4.45005e-07,0,0,0,0.0702507,-0.0246,0.588057,0,0,0,0,0,0
0.0016283,-1.7057e-08,-1.10828,-6.47667e-09,2.21657,3.29007e-08,0.610864,-3.56316e-08,-1.04999e-05,0.000538823,-3.98687e-06,8.25383e-05,2.02528e-05,-0.000621362,-2.19339e-05,0,0,0,0.00018859,0,2.8185e-05,0,0,0,0.0702511,-0.0246,0.588057,0,0,0,0,0,0
0.0026284,-3.40076e-08,-1.10828,-1.29128e-08,2.21657,6.55961e-08,0.610863,-7.10407e-08,-1.69488e-05,0.000869769,-6.43553e-06,0.00013323,3.26921e-05,-0.001003,-3.54055e-05,0,0,0,0.000304422,0,4.54968e-05,0,0,0,0.0702514,-0.0246,0.588057,0,0,0,0,0,0
0.0036285,-5.74076e-08,-1.10828,-2.17979e-08,2.21657,1.10732e-07,0.610862,-1.19923e-07,-2.33977e-05,0.00120072,-8.88414e-06,0.000183919,4.51312e-05,-0.00138463,-4.88772e-05,0,0,0,0.000420254,0,6.28095e-05,0,0,0,0.0702518,-0.0246,0.588057,0,0,0,0,0,0
0.0046286,-8.72571e-08,-1.10828,-3.31317e-08,2.21657,1.68308e-07,0.61086,-1.82278e-07,-2.98465e-05,0.00153166,-1.13327e-05,0.000234601,5.75704e-05,-0.00176627,-6.23487e-05,0,0,0,0.000536085,0,8.01238e-05,0,0,0,0.0702523,-0.0246,0.588057,0,0,0,0,0,0
0.0056288,-1.2356e-07,-1.10828,-4.69157e-08,2.21657,2.38333e-07,0.610858,-2.58114e-07,-3.62958e-05,0.00186265,-1.37813e-05,0.00028528,7.00107e-05,-0.00214793,-7.58214e-05,0,0,0,0.000651928,0,9.74418e-05,0,0,0,0.070253,-0.0246,0.588057,0,0,0,0,0,0
0.00683,-1.76462e-07,-1.10828,-6.7002e-08,2.21657,3.40376e-07,0.610855,-3.68626e-07,-4.4041e-05,0.00226015,-1.67219e-05,0.000346135,8.49508e-05,-0.00260629,-9.20014e-05,0,0,0,0.00079105,0,0.000118242,0,0,0,0.0702539,-0.0246,0.588057,0,0,0,0,0,0
0.0078302,-2.26962e-07,-1.10827,-8.61759e-08,2.21657,4.37786e-07,0.610852,-4.74121e-07,-5.04898e-05,0.00259114,-1.91701e-05,0.000396784,9.73908e-05,-0.00298793,-0.000105474,0,0,0,0.000906892,0,0.000135568,0,0,0,0.0702548,-0.0246,0.588057,0,0,0,0,0,0
0.009426,-3.23953e-07,-1.10827,-1.23001e-07,2.21657,6.24875e-07,0.610846,-6.76737e-07,-6.07789e-05,0.00311924,-2.30762e-05,0.000477601,0.000117239,-0.00359684,-0.000126968,0,0,0,0.00109172,0,0.000163208,0,0,0,0.0702566,-0.0246,0.588058,0,0,0,0,0,0
0.0104261,-3.91186e-07,-1.10826,-1.48527e-07,2.21657,7.54565e-07,0.610842,-8.17189e-07,-6.72259e-05,0.00345022,-2.55231e-05,0.000528176,0.000129677,-0.00397839,-0.000140438,0,0,0,0.00120754,0,0.000180549,0,0,0,0.0702578,-0.0246,0.588058,0,0,0,0,0,0
0.0114262,-4.64866e-07,-1.10826,-1.765e-07,2.21657,8.96694e-07,0.610838,-9.71112e-07,-7.36731e-05,0.0037812,-2.79702e-05,0.000578763,0.000142115,-0.00435996,-0.000153908,0,0,0,0.00132337,0,0.000197887,0,0,0,0.0702591,-0.0246,0.588058,0,0,0,0,0,0
0.0125769,-5.58177e-07,-1.10826,-2.11924e-07,2.21657,1.07669e-06,0.610832,-1.16605e-06,-8.1091e-05,0.00416202,-3.07856e-05,0.000636954,0.000156426,-0.00479897,-0.000169406,0,0,0,0.00145664,0,0.000217839,0,0,0,0.0702608,-0.0246,0.588058,0,0,0,0,0,0
0.0137956,-6.66577e-07,-1.10825,-2.53076e-07,2.21657,1.2858e-06,0.610826,-1.3925e-06,-8.89467e-05,0.00456536,-3.37667e-05,0.000698545,0.000171582,-0.00526391,-0.000185819,0,0,0,0.00159778,0,0.000238979,0,0,0,0.0702627,-0.0246,0.588059,0,0,0,0,0,0
0.0147957,-7.61979e-07,-1.10824,-2.89292e-07,2.21657,1.46984e-06,0.61082,-1.59181e-06,-9.53922e-05,0.00489637,-3.62122e-05,0.000749023,0.000184019,-0.0056454,-0.000199287,0,0,0,0.00171361,0,0.000256344,0,0,0,0.0702644,-0.0246,0.588059,0,0,0,0,0,0
0.0158078,-8.65127e-07,-1.10824,-3.28447e-07,2.21657,1.66882e-06,0.610814,-1.8073e-06,-0.000101915,0.00523136,-3.8687e-05,0.000800106,0.000196605,-0.00603146,-0.000212916,0,0,0,0.00183082,0,0.000273918,0,0,0,0.0702663,-0.0246,0.588059,0,0,0,0,0,0
0.0168079,-9.73498e-07,-1.10823,-3.69583e-07,2.21658,1.87788e-06,0.610808,-2.03371e-06,-0.00010836,0.00556238,-4.1132e-05,0.000850548,0.000209041,-0.00641293,-0.000226383,0,0,0,0.00194664,0,0.000291292,0,0,0,0.0702682,-0.0246,0.588059,0,0,0,0,0,0
0.017808,-1.08831e-06,-1.10823,-4.13164e-07,2.21658,2.09938e-06,0.610801,-2.27358e-06,-0.000114804,0.00589342,-4.35765e-05,0.00090096,0.000221478,-0.00679438,-0.00023985,0,0,0,0.00206247,0,0.000308673,0,0,0,0.0702703,-0.0246,0.58806,0,0,0,0,0,0
0.0188082,-1.20959e-06,-1.10822,-4.59194e-07,2.21658,2.33334e-06,0.610794,-2.52695e-06,-0.000121249,0.00622449,-4.60207e-05,0.000951341,0.000233915,-0.00717583,-0.000253317,0,0,0,0.0021783,0,0.000326066,0,0,0,0.0702725,-0.0246,0.58806,0,0,0,0,0,0
0.0198083,-1.33729e-06,-1.10822,-5.07663e-07,2.21658,2.57972e-06,0.610786,-2.79376e-06,-0.000127692,0.00655555,-4.84642e-05,0.00100168,0.00024635,-0.00755723,-0.000266783,0,0,0,0.00229412,0,0.000343465,0,0,0,0.0702748,-0.0246,0.58806,0,0,0,0,0,0
0.0208084,-1.47144e-06,-1.10821,-5.58575e-07,2.21658,2.83853e-06,0.610778,-3.07404e-06,-0.000134135,0.00688662,-5.09071e-05,0.00105198,0.000258785,-0.0079386,-0.000280248,0,0,0,0.00240993,0,0.000360874,0,0,0,0.0702772,-0.0246,0.588061,0,0,0,0,0,0
0.0218085,-1.61203e-06,-1.1082,-6.1193e-07,2.21658,3.10978e-06,0.61077,-3.36778e-06,-0.000140577,0.0072177,-5.33493e-05,0.00110224,0.00027122,-0.00831994,-0.000293712,0,0,0,0.00252575,0,0.000378294,0,0,0,0.0702797,-0.0246,0.588061,0,0,0,0,0,0
0.0228086,-1.75906e-06,-1.10819,-6.67726e-07,2.21658,3.39346e-06,0.610761,-3.67498e-06,-0.000147018,0.0075488,-5.5791e-05,0.00115246,0.000283654,-0.00870125,-0.000307175,0,0,0,0.00264156,0,0.000395724,0,0,0,0.0702823,-0.0246,0.588061,0,0,0,0,0,0
0.0238088,-1.91256e-06,-1.10819,-7.2597e-07,2.21658,3.68961e-06,0.610752,-3.99569e-06,-0.00015346,0.00787994,-5.82322e-05,0.00120263,0.000296089,-0.00908257,-0.000320639,0,0,0,0.00275739,0,0.000413168,0,0,0,0.0702851,-0.0246,0.588062,0,0,0,0,0,0
0.0248089,-2.07247e-06,-1.10818,-7.86649e-07,2.21658,3.99816e-06,0.610743,-4.32982e-06,-0.0001599,0.00821106,-6.06725e-05,0.00125276,0.000308522,-0.00946382,-0.0003341,0,0,0,0.0028732,0,0.000430621,0,0,0,0.070288,-0.0246,0.588062,0,0,0,0,0,0
0.0258091,-2.23884e-06,-1.10817,-8.49774e-07,2.21659,4.31918e-06,0.610733,-4.67745e-06,-0.00016634,0.00854223,-6.31124e-05,0.00130284,0.000320955,-0.00984507,-0.000347562,0,0,0,0.00298902,0,0.000448088,0,0,0,0.070291,-0.0246,0.588063,0,0,0,0,0,0
0.0268092,-2.41164e-06,-1.10816,-9.15332e-07,2.21659,4.6526e-06,0.610723,-5.03851e-06,-0.000172778,0.00887339,-6.55512e-05,0.00135286,0.000333387,-0.0102262,-0.000361022,0,0,0,0.00310482,0,0.000465567,0,0,0,0.0702941,-0.0246,0.588063,0,0,0,0,0,0
0.0278094,-2.59089e-06,-1.10815,-9.83335e-07,2.21659,4.99849e-06,0.610712,-5.41307e-06,-0.000179216,0.00920459,-6.79895e-05,0.00140284,0.00034582,-0.0106074,-0.000374482,0,0,0,0.00322064,0,0.00048306,0,0,0,0.0702973,-0.0246,0.588064,0,0,0,0,0,0
0.0288164,-2.77789e-06,-1.10814,-1.05427e-06,2.21659,5.35933e-06,0.610701,-5.80382e-06,-0.000185697,0.00953807,-7.04437e-05,0.0014531,0.000358337,-0.0109912,-0.000388033,0,0,0,0.00333724,0,0.000500686,0,0,0,0.0703007,-0.0246,0.588064,0,0,0,0,0,0
0.0301703,-3.0411e-06,-1.10813,-1.15411e-06,2.21659,5.86727e-06,0.610685,-6.35384e-06,-0.000194413,0.00998638,-7.37448e-05,0.00152079,0.000375166,-0.0115072,-0.000406254,0,0,0,0.00349402,0,0.000524355,0,0,0,0.0703054,-0.0246,0.588065,0,0,0,0,0,0
0.0311704,-3.24197e-06,-1.10812,-1.2303e-06,2.21659,6.2549e-06,0.610673,-6.77359e-06,-0.000200844,0.0103177,-7.61769e-05,0.00157035,0.000387593,-0.011888,-0.000419706,0,0,0,0.00360981,0,0.000541948,0,0,0,0.070309,-0.0246,0.588065,0,0,0,0,0,0
0.0321705,-3.44926e-06,-1.10811,-1.30892e-06,2.2166,6.65497e-06,0.610661,-7.20679e-06,-0.000207277,0.0106489,-7.86113e-05,0.00162007,0.000400022,-0.012269,-0.00043316,0,0,0,0.0037256,0,0.000559504,0,0,0,0.0703127,-0.0246,0.588066,0,0,0,0,0,0
0.0331706,-3.663e-06,-1.1081,-1.38997e-06,2.2166,7.06746e-06,0.610648,-7.65345e-06,-0.00021371,0.0109802,-8.10447e-05,0.00166972,0.00041245,-0.0126499,-0.000446613,0,0,0,0.00384139,0,0.000577075,0,0,0,0.0703166,-0.0246,0.588067,0,0,0,0,0,0
0.0341707,-3.88316e-06,-1.10808,-1.47346e-06,2.2166,7.49238e-06,0.610635,-8.11356e-06,-0.000220141,0.0113115,-8.34771e-05,0.0017193,0.000424877,-0.0130308,-0.000460065,0,0,0,0.00395718,0,0.000594664,0,0,0,0.0703205,-0.0246,0.588067,0,0,0,0,0,0
0.0351708,-4.10975e-06,-1.10807,-1.55937e-06,2.2166,7.92972e-06,0.610622,-8.58713e-06,-0.000226571,0.0116428,-8.59086e-05,0.00176882,0.000437304,-0.0134116,-0.000473516,0,0,0,0.00407297,0,0.000612269,0,0,0,0.0703246,-0.0246,0.588068,0,0,0,0,0,0
0.036171,-4.3428e-06,-1.10806,-1.64773e-06,2.2166,8.37954e-06,0.610608,-9.07419e-06,-0.000233001,0.0119742,-8.83393e-05,0.00181827,0.000449731,-0.0137924,-0.000486967,0,0,0,0.00418877,0,0.000629893,0,0,0,0.0703288,-0.0246,0.588068,0,0,0,0,0,0
0.0371711,-4.58225e-06,-1.10805,-1.73851e-06,2.2166,8.84175e-06,0.610594,-9.57466e-06,-0.000239429,0.0123055,-9.07686e-05,0.00186764,0.000462156,-0.0141732,-0.000500415,0,0,0,0.00430455,0,0.000647534,0,0,0,0.0703331,-0.0246,0.588069,0,0,0,0,0,0
0.0381712,-4.82813e-06,-1.10804,-1.83171e-06,2.21661,9.31637e-06,0.610579,-1.00886e-05,-0.000245856,0.0126369,-9.31969e-05,0.00191694,0.00047458,-0.0145539,-0.000513862,0,0,0,0.00442033,0,0.000665194,0,0,0,0.0703375,-0.0246,0.58807,0,0,0,0,0,0
0.0391713,-5.08044e-06,-1.10802,-1.92735e-06,2.21661,9.80343e-06,0.610565,-1.06159e-05,-0.000252282,0.0129683,-9.56241e-05,0.00196616,0.000487003,-0.0149345,-0.000527308,0,0,0,0.00453611,0,0.000682872,0,0,0,0.070342,-0.0246,0.58807,0,0,0,0,0,0
0.0401714,-5.33917e-06,-1.10801,-2.02541e-06,2.21661,1.03029e-05,0.610549,-1.11567e-05,-0.000258706,0.0132998,-9.80502e-05,0.00201531,0.000499426,-0.0153151,-0.000540752,0,0,0,0.00465188,0,0.00070057,0,0,0,0.0703467,-0.0246,0.588071,0,0,0,0,0,0
0.0411715,-5.60433e-06,-1.108,-2.12589e-06,2.21661,1.08148e-05,0.610534,-1.1711e-05,-0.00026513,0.0136312,-0.000100475,0.00206437,0.000511847,-0.0156956,-0.000554195,0,0,0,0.00476765,0,0.000718288,0,0,0,0.0703515,-0.0246,0.588072,0,0,0,0,0,0
0.0421716,-5.87591e-06,-1.10798,-2.2288e-06,2.21661,1.13391e-05,0.610517,-1.22787e-05,-0.000271552,0.0139627,-0.000102899,0.00211335,0.000524268,-0.016076,-0.000567637,0,0,0,0.00488342,0,0.000736027,0,0,0,0.0703564,-0.0246,0.588073,0,0,0,0,0,0
0.0431717,-6.15391e-06,-1.10797,-2.33413e-06,2.21662,1.18759e-05,0.610501,-1.28598e-05,-0.000277972,0.0142942,-0.000105321,0.00216225,0.000536688,-0.0164564,-0.000581076,0,0,0,0.00499918,0,0.000753787,0,0,0,0.0703614,-0.0246,0.588073,0,0,0,0,0,0
0.0448326,-6.63332e-06,-1.10794,-2.51576e-06,2.21662,1.28015e-05,0.610473,-1.3862e-05,-0.000288646,0.0148445,-0.000109354,0.00224414,0.000557321,-0.0170887,-0.000603408,0,0,0,0.00519146,0,0.000783111,0,0,0,0.07037,-0.0246,0.588075,0,0,0,0,0,0
0.0460577,-6.99656e-06,-1.10792,-2.65335e-06,2.21662,1.35029e-05,0.610451,-1.46214e-05,-0.000296497,0.0152509,-0.000112309,0.00230317,0.000572525,-0.017554,-0.000619857,0,0,0,0.00533324,0,0.000805081,0,0,0,0.0703765,-0.0246,0.588076,0,0,0,0,0,0
0.0470578,-7.2995e-06,-1.10791,-2.76808e-06,2.21663,1.40879e-05,0.610433,-1.52548e-05,-0.000302907,0.0155826,-0.000114722,0.00235141,0.000584938,-0.017934,-0.000633285,0,0,0,0.00544898,0,0.000823007,0,0,0,0.070382,-0.0246,0.588076,0,0,0,0,0,0
0.0480579,-7.60885e-06,-1.10789,-2.88523e-06,2.21663,1.46853e-05,0.610415,-1.59015e-05,-0.000309321,0.0159142,-0.000117138,0.00239986,0.000597353,-0.0183141,-0.000646717,0,0,0,0.00556473,0,0.000840877,0,0,0,0.0703875,-0.0246,0.588077,0,0,0,0,0,0
0.0490581,-7.92465e-06,-1.10788,-3.00481e-06,2.21663,1.52952e-05,0.610396,-1.65618e-05,-0.000315734,0.0162459,-0.000119553,0.00244823,0.000609768,-0.0186942,-0.000660148,0,0,0,0.00568048,0,0.000858773,0,0,0,0.0703932,-0.0246,0.588078,0,0,0,0,0,0
0.0500583,-8.24685e-06,-1.10786,-3.1268e-06,2.21663,1.59175e-05,0.610377,-1.72355e-05,-0.000322145,0.0165777,-0.000121966,0.00249649,0.000622182,-0.0190742,-0.000673578,0,0,0,0.00579623,0,0.000876694,0,0,0,0.070399,-0.0246,0.588079,0,0,0,0,0,0
0.0510585,-8.57548e-06,-1.10784,-3.2512e-06,2.21664,1.65522e-05,0.610358,-1.79227e-05,-0.000328555,0.0169094,-0.000124378,0.00254466,0.000634595,-0.0194541,-0.000687006,0,0,0,0.00591198,0,0.00089464,0,0,0,0.0704049,-0.0246,0.58808,0,0,0,0,0,0
0.0520624,-8.91177e-06,-1.10783,-3.3785e-06,2.21664,1.72018e-05,0.610338,-1.86259e-05,-0.000334986,0.0172425,-0.000126798,0.0025929,0.000647053,-0.0198354,-0.000700482,0,0,0,0.00602815,0,0.000912676,0,0,0,0.070411,-0.0246,0.588081,0,0,0,0,0,0
0.0530625,-9.25319e-06,-1.10781,-3.50772e-06,2.21664,1.78613e-05,0.610317,-1.93399e-05,-0.000341392,0.0175743,-0.000129206,0.00264085,0.000659462,-0.0202151,-0.000713905,0,0,0,0.00614388,0,0.000930674,0,0,0,0.0704171,-0.0246,0.588082,0,0,0,0,0,0
0.0540626,-9.60103e-06,-1.10779,-3.63934e-06,2.21664,1.85333e-05,0.610297,-2.00673e-05,-0.000347796,0.0179061,-0.000131614,0.00268869,0.00067187,-0.0205948,-0.000727326,0,0,0,0.00625961,0,0.000948697,0,0,0,0.0704234,-0.0246,0.588083,0,0,0,0,0,0
0.0550627,-9.95526e-06,-1.10777,-3.77337e-06,2.21665,1.92176e-05,0.610276,-2.08081e-05,-0.000354198,0.018238,-0.000134019,0.00273643,0.000684277,-0.0209744,-0.000740746,0,0,0,0.00637533,0,0.000966746,0,0,0,0.0704297,-0.0246,0.588084,0,0,0,0,0,0
0.0560629,-1.03159e-05,-1.10775,-3.90983e-06,2.21665,1.99145e-05,0.610255,-2.15624e-05,-0.0003606,0.0185699,-0.000136424,0.00278406,0.000696684,-0.021354,-0.000754164,0,0,0,0.00649106,0,0.000984826,0,0,0,0.0704362,-0.0246,0.588085,0,0,0,0,0,0
0.057063,-1.0683e-05,-1.10773,-4.04867e-06,2.21665,2.06236e-05,0.610233,-2.23301e-05,-0.000366998,0.0189018,-0.000138826,0.00283157,0.000709089,-0.0217334,-0.000767579,0,0,0,0.00660677,0,0.00100293,0,0,0,0.0704428,-0.0246,0.588086,0,0,0,0,0,0
0.0580631,-1.10564e-05,-1.10772,-4.18991e-06,2.21665,2.13452e-05,0.610211,-2.31111e-05,-0.000373396,0.0192338,-0.000141227,0.00287897,0.000721492,-0.0221128,-0.000780993,0,0,0,0.00672247,0,0.00102107,0,0,0,0.0704496,-0.0246,0.588087,0,0,0,0,0,0
0.0593114,-1.15325e-05,-1.10769,-4.36995e-06,2.21666,2.22651e-05,0.610183,-2.41069e-05,-0.000381387,0.019648,-0.000144229,0.00293855,0.000736978,-0.0225866,-0.000797742,0,0,0,0.00686691,0,0.0010436,0,0,0,0.0704581,-0.0246,0.588088,0,0,0,0,0,0
0.0603198,-1.19236e-05,-1.10767,-4.51782e-06,2.21666,2.30209e-05,0.610159,-2.4925e-05,-0.000387824,0.019983,-0.000146638,0.00298551,0.000749475,-0.0229685,-0.000811252,0,0,0,0.00698355,0,0.00106209,0,0,0,0.0704652,-0.0246,0.588089,0,0,0,0,0,0
0.0615824,-1.24234e-05,-1.10765,-4.70679e-06,2.21666,2.3987e-05,0.61013,-2.59707e-05,-0.000395902,0.0204021,-0.000149671,0.00304548,0.000765136,-0.0234476,-0.000828188,0,0,0,0.00712963,0,0.00108495,0,0,0,0.0704742,-0.0246,0.58809,0,0,0,0,0,0
0.0631325,-1.30525e-05,-1.10761,-4.94456e-06,2.21667,2.52028e-05,0.610092,-2.72867e-05,-0.000405815,0.0209166,-0.00015339,0.00311885,0.000784359,-0.0240355,-0.000848976,0,0,0,0.00730897,0,0.00111308,0,0,0,0.0704855,-0.0246,0.588092,0,0,0,0,0,0
0.064395,-1.3575e-05,-1.10759,-5.14201e-06,2.21667,2.62128e-05,0.610062,-2.83798e-05,-0.000413864,0.0213362,-0.000156396,0.00317699,0.000799998,-0.0245132,-0.000865878,0,0,0,0.00745497,0,0.0011364,0,0,0,0.0704949,-0.0246,0.588094,0,0,0,0,0,0
0.0655848,-1.40764e-05,-1.10756,-5.33147e-06,2.21668,2.71822e-05,0.610032,-2.9429e-05,-0.000421454,0.0217316,-0.000159234,0.00323211,0.00081474,-0.0249637,-0.000881813,0,0,0,0.00759257,0,0.00115829,0,0,0,0.070504,-0.0246,0.588095,0,0,0,0,0,0
0.0667487,-1.45756e-05,-1.10753,-5.52003e-06,2.21668,2.81472e-05,0.610002,-3.04735e-05,-0.000428878,0.0221183,-0.000162009,0.00328596,0.00082916,-0.0254043,-0.000897399,0,0,0,0.00772718,0,0.00117972,0,0,0,0.070513,-0.0246,0.588096,0,0,0,0,0,0
0.0679477,-1.5099e-05,-1.10751,-5.71771e-06,2.21669,2.91592e-05,0.609971,-3.15687e-05,-0.000436526,0.0225167,-0.000164868,0.00334144,0.000844016,-0.0258581,-0.000913456,0,0,0,0.00786585,0,0.0012018,0,0,0,0.0705224,-0.0246,0.588098,0,0,0,0,0,0
0.0691399,-1.56285e-05,-1.10748,-5.91765e-06,2.21669,3.01831e-05,0.60994,-3.26768e-05,-0.000444126,0.022913,-0.000167705,0.00339628,0.000858783,-0.0263092,-0.000929416,0,0,0,0.00800372,0,0.00122383,0,0,0,0.0705319,-0.0246,0.588099,0,0,0,0,0,0
0.0703243,-1.61634e-05,-1.10745,-6.11961e-06,2.21669,3.12176e-05,0.609908,-3.37964e-05,-0.000451673,0.0233067,-0.000170522,0.00345056,0.000873452,-0.0267572,-0.000945268,0,0,0,0.00814068,0,0.00124577,0,0,0,0.0705416,-0.0246,0.588101,0,0,0,0,0,0
0.0715162,-1.67108e-05,-1.10742,-6.32623e-06,2.2167,3.22762e-05,0.609876,-3.4942e-05,-0.000459265,0.0237029,-0.000173354,0.00350503,0.000888211,-0.0272079,-0.000961217,0,0,0,0.0082785,0,0.00126788,0,0,0,0.0705514,-0.0246,0.588102,0,0,0,0,0,0
0.0726732,-1.72507e-05,-1.1074,-6.52998e-06,2.2167,3.33205e-05,0.609844,-3.60721e-05,-0.000466629,0.0240877,-0.000176098,0.00355757,0.000902535,-0.0276452,-0.000976693,0,0,0,0.00841227,0,0.00128943,0,0,0,0.0705612,-0.0246,0.588104,0,0,0,0,0,0
0.0739762,-1.78696e-05,-1.10736,-6.76347e-06,2.21671,3.45175e-05,0.609807,-3.73674e-05,-0.00047493,0.0245209,-0.000179195,0.00361717,0.000918671,-0.028138,-0.00099413,0,0,0,0.00856294,0,0.0013136,0,0,0,0.0705723,-0.0246,0.588105,0,0,0,0,0,0
0.0751707,-1.84459e-05,-1.10733,-6.98089e-06,2.21671,3.56325e-05,0.609773,-3.8574e-05,-0.000482522,0.0249183,-0.000182017,0.0036707,0.000933451,-0.028589,-0.0010101,0,0,0,0.00870102,0,0.00133603,0,0,0,0.0705827,-0.0246,0.588107,0,0,0,0,0,0
0.076321,-1.90094e-05,-1.10731,-7.19339e-06,2.21672,3.67226e-05,0.60974,-3.97536e-05,-0.000489833,0.025301,-0.000184736,0.00372226,0.000947685,-0.0290233,-0.00102547,0,0,0,0.00883399,0,0.00135762,0,0,0,0.0705929,-0.0246,0.588109,0,0,0,0,0,0
0.0775319,-1.96119e-05,-1.10727,-7.42055e-06,2.21672,3.78883e-05,0.609704,-4.10149e-05,-0.000497532,0.0257039,-0.0001876,0.00377673,0.00096267,-0.0294806,-0.00104166,0,0,0,0.00897397,0,0.00138031,0,0,0,0.0706037,-0.0246,0.58811,0,0,0,0,0,0
0.078532,-2.01158e-05,-1.10725,-7.61052e-06,2.21672,3.88635e-05,0.609674,-4.207e-05,-0.000503872,0.026037,-0.000189948,0.00382049,0.000975033,-0.0298574,-0.00105501,0,0,0,0.00908954,0,0.00139935,0,0,0,0.0706128,-0.0246,0.588112,0,0,0,0,0,0
0.0795321,-2.06261e-05,-1.10722,-7.80285e-06,2.21673,3.9851e-05,0.609644,-4.31385e-05,-0.000510222,0.0263698,-0.000192306,0.00386493,0.000987403,-0.0302347,-0.00106837,0,0,0,0.00920513,0,0.00141822,0,0,0,0.070622,-0.0246,0.588113,0,0,0,0,0,0
0.0805322,-2.11427e-05,-1.1072,-7.99753e-06,2.21673,4.08508e-05,0.609613,-4.42203e-05,-0.00051657,0.0267028,-0.000194662,0.00390921,0.000999772,-0.0306119,-0.00108172,0,0,0,0.00932071,0,0.00143714,0,0,0,0.0706314,-0.0246,0.588114,0,0,0,0,0,0
0.0815323,-2.16656e-05,-1.10717,-8.19456e-06,2.21674,4.18631e-05,0.609582,-4.53155e-05,-0.000522916,0.0270357,-0.000197016,0.00395333,0.00101214,-0.030989,-0.00109508,0,0,0,0.00943629,0,0.00145609,0,0,0,0.0706408,-0.0246,0.588116,0,0,0,0,0,0
0.0825324,-2.2195e-05,-1.10714,-8.39395e-06,2.21674,4.28877e-05,0.609551,-4.64241e-05,-0.000529258,0.0273687,-0.000199367,0.00399729,0.0010245,-0.031366,-0.00110843,0,0,0,0.00955187,0,0.00147508,0,0,0,0.0706504,-0.0246,0.588117,0,0,0,0,0,0
0.0835325,-2.27306e-05,-1.10711,-8.59569e-06,2.21674,4.39246e-05,0.609519,-4.7546e-05,-0.000535599,0.0277018,-0.000201715,0.00404108,0.00103687,-0.0317429,-0.00112178,0,0,0,0.00966743,0,0.00149412,0,0,0,0.07066,-0.0246,0.588119,0,0,0,0,0,0
0.0845327,-2.32727e-05,-1.10708,-8.79979e-06,2.21675,4.49741e-05,0.609487,-4.86813e-05,-0.000541937,0.028035,-0.000204062,0.0040847,0.00104923,-0.0321196,-0.00113512,0,0,0,0.00978301,0,0.0015132,0,0,0,0.0706698,-0.0246,0.58812,0,0,0,0,0,0
0.0855328,-2.3821e-05,-1.10706,-9.00622e-06,2.21675,4.60358e-05,0.609454,-4.98299e-05,-0.000548272,0.0283682,-0.000206406,0.00412815,0.00106159,-0.0324963,-0.00114847,0,0,0,0.00989856,0,0.00153232,0,0,0,0.0706797,-0.0246,0.588122,0,0,0,0,0,0
0.0865329,-2.43756e-05,-1.10703,-9.21498e-06,2.21676,4.71098e-05,0.609422,-5.09918e-05,-0.000554604,0.0287014,-0.000208747,0.00417143,0.00107395,-0.0328728,-0.00116181,0,0,0,0.0100141,0,0.00155148,0,0,0,0.0706897,-0.0246,0.588124,0,0,0,0,0,0
0.087533,-2.49366e-05,-1.107,-9.42609e-06,2.21676,4.81962e-05,0.609388,-5.21671e-05,-0.000560933,0.0290347,-0.000211086,0.00421453,0.0010863,-0.0332492,-0.00117514,0,0,0,0.0101296,0,0.00157069,0,0,0,0.0706999,-0.0246,0.588125,0,0,0,0,0,0
0.0885331,-2.55039e-05,-1.10697,-9.63953e-06,2.21676,4.9295e-05,0.609355,-5.33557e-05,-0.00056726,0.029368,-0.000213422,0.00425746,0.00109866,-0.0336254,-0.00118847,0,0,0,0.0102452,0,0.00158994,0,0,0,0.0707101,-0.0246,0.588127,0,0,0,0,0,0
0.0895333,-2.60776e-05,-1.10694,-9.85533e-06,2.21677,5.04062e-05,0.609321,-5.45577e-05,-0.000573584,0.0297014,-0.000215756,0.00430021,0.00111101,-0.0340016,-0.00120181,0,0,0,0.0103607,0,0.00160924,0,0,0,0.0707205,-0.0246,0.588128,0,0,0,0,0,0
0.0905334,-2.66576e-05,-1.10691,-1.00734e-05,2.21677,5.15297e-05,0.609286,-5.5773e-05,-0.000579905,0.0300348,-0.000218087,0.00434277,0.00112336,-0.0343776,-0.00121513,0,0,0,0.0104762,0,0.00162858,0,0,0,0.0707309,-0.0246,0.58813,0,0,0,0,0,0
0.0916666,-2.73229e-05,-1.10688,-1.03236e-05,2.21678,5.28186e-05,0.609247,-5.71671e-05,-0.000587076,0.0304125,-0.000220736,0.00439153,0.00113736,-0.034804,-0.00123024,0,0,0,0.0106071,0,0.00165036,0,0,0,0.070743,-0.0246,0.588132,0,0,0,0,0,0
0.0928184,-2.80075e-05,-1.10684,-1.05809e-05,2.21678,5.41449e-05,0.609206,-5.86017e-05,-0.00059435,0.0307966,-0.000223415,0.00444021,0.00115157,-0.0352368,-0.00124558,0,0,0,0.0107402,0,0.00167272,0,0,0,0.0707553,-0.0246,0.588134,0,0,0,0,0,0
0.0939753,-2.87035e-05,-1.1068,-1.08425e-05,2.21679,5.54937e-05,0.609165,-6.00606e-05,-0.000601651,0.0311825,-0.000226102,0.00448878,0.00116585,-0.0356713,-0.00126099,0,0,0,0.0108738,0,0.00169526,0,0,0,0.0707679,-0.0246,0.588136,0,0,0,0,0,0
0.0951884,-2.94427e-05,-1.10677,-1.11202e-05,2.21679,5.69262e-05,0.609121,-6.16099e-05,-0.000609308,0.0315872,-0.00022892,0.00453974,0.00118082,-0.0361269,-0.00127714,0,0,0,0.0110139,0,0.00171889,0,0,0,0.0707813,-0.0246,0.588138,0,0,0,0,0,0
0.0963607,-3.01656e-05,-1.10673,-1.13917e-05,2.2168,5.83274e-05,0.609078,-6.31253e-05,-0.000616694,0.0319785,-0.000231631,0.00458815,0.00119528,-0.0365666,-0.00129273,0,0,0,0.0111492,0,0.00174193,0,0,0,0.0707943,-0.0246,0.58814,0,0,0,0,0,0
0.0974982,-3.08752e-05,-1.10669,-1.16582e-05,2.2168,5.9703e-05,0.609036,-6.4613e-05,-0.000623857,0.0323582,-0.000234258,0.00463488,0.00120931,-0.0369931,-0.00130786,0,0,0,0.0112805,0,0.00176435,0,0,0,0.0708072,-0.0246,0.588142,0,0,0,0,0,0
0.0986468,-3.16001e-05,-1.10665,-1.19303e-05,2.21681,6.11083e-05,0.608993,-6.61328e-05,-0.00063109,0.0327417,-0.000236911,0.00468211,0.00122347,-0.0374237,-0.00132313,0,0,0,0.0114132,0,0.00178697,0,0,0,0.0708203,-0.0246,0.588144,0,0,0,0,0,0
0.0998459,-3.23659e-05,-1.10661,-1.22177e-05,2.21682,6.25931e-05,0.608948,-6.77385e-05,-0.000638641,0.033142,-0.000239681,0.00473139,0.00123826,-0.0378733,-0.00133908,0,0,0,0.0115516,0,0.0018106,0,0,0,0.0708341,-0.0246,0.588146,0,0,0,0,0,0
0.100952,-3.30798e-05,-1.10658,-1.24856e-05,2.21682,6.39774e-05,0.608905,-6.92355e-05,-0.000645586,0.0335115,-0.000242218,0.00477563,0.00125188,-0.0382871,-0.00135376,0,0,0,0.0116792,0,0.00183269,0,0,0,0.070847,-0.0246,0.588148,0,0,0,0,0,0
0.102056,-3.38006e-05,-1.10654,-1.27559e-05,2.21683,6.53753e-05,0.608863,-7.0747e-05,-0.000652528,0.0338805,-0.000244757,0.0048202,0.0012655,-0.0387007,-0.00136844,0,0,0,0.0118067,0,0.00185466,0,0,0,0.0708601,-0.0246,0.58815,0,0,0,0,0,0
0.103178,-3.45407e-05,-1.1065,-1.30335e-05,2.21683,6.68108e-05,0.608819,-7.22993e-05,-0.000659579,0.0342554,-0.000247335,0.00486535,0.00127932,-0.0391207,-0.00138334,0,0,0,0.0119362,0,0.00187701,0,0,0,0.0708735,-0.0246,0.588152,0,0,0,0,0,0
0.104317,-3.53001e-05,-1.10646,-1.33181e-05,2.21684,6.82839e-05,0.608774,-7.38921e-05,-0.000666732,0.0346361,-0.000249948,0.00491091,0.00129335,-0.0395469,-0.00139846,0,0,0,0.0120676,0,0.00189976,0,0,0,0.0708872,-0.0246,0.588154,0,0,0,0,0,0
0.105476,-3.60808e-05,-1.10642,-1.36107e-05,2.21684,6.97986e-05,0.608727,-7.55298e-05,-0.000674002,0.0350232,-0.000252601,0.00495698,0.00130762,-0.0399801,-0.00141384,0,0,0,0.0122013,0,0.00192297,0,0,0,0.0709014,-0.0246,0.588157,0,0,0,0,0,0
0.106986,-3.7113e-05,-1.10637,-1.39975e-05,2.21685,7.18013e-05,0.608666,-7.76952e-05,-0.000683513,0.0355273,-0.00025609,0.00501912,0.00132624,-0.0405464,-0.00143392,0,0,0,0.0123756,0,0.0019527,0,0,0,0.0709201,-0.0246,0.58816,0,0,0,0,0,0
0.10814,-3.79104e-05,-1.10633,-1.42961e-05,2.21686,7.33488e-05,0.608619,-7.93682e-05,-0.000690703,0.0359142,-0.000258684,0.00506151,0.00134042,-0.0409757,-0.00144918,0,0,0,0.0125087,0,0.00197671,0,0,0,0.0709345,-0.0246,0.588162,0,0,0,0,0,0
0.10914,-3.86074e-05,-1.10629,-1.45571e-05,2.21686,7.47017e-05,0.608578,-8.08308e-05,-0.000696946,0.0362491,-0.000260944,0.00509912,0.00135271,-0.0413482,-0.00146242,0,0,0,0.012624,0,0.00199729,0,0,0,0.0709471,-0.0246,0.588164,0,0,0,0,0,0
0.110141,-3.93107e-05,-1.10625,-1.48203e-05,2.21687,7.6067e-05,0.608536,-8.23068e-05,-0.000703205,0.0365838,-0.000263218,0.00513773,0.00136502,-0.0417215,-0.00147567,0,0,0,0.0127394,0,0.00201762,0,0,0,0.0709599,-0.0246,0.588166,0,0,0,0,0,0
0.111141,-4.00203e-05,-1.10622,-1.50859e-05,2.21687,7.74444e-05,0.608494,-8.37958e-05,-0.00070946,0.0369185,-0.000265489,0.00517611,0.00137732,-0.0420945,-0.00148892,0,0,0,0.0128548,0,0.002038,0,0,0,0.0709727,-0.0246,0.588168,0,0,0,0,0,0
0.112141,-4.07361e-05,-1.10618,-1.53536e-05,2.21688,7.88342e-05,0.608451,-8.52982e-05,-0.000715712,0.0372532,-0.000267757,0.00521427,0.00138962,-0.0424674,-0.00150217,0,0,0,0.0129701,0,0.00205844,0,0,0,0.0709857,-0.0246,0.58817,0,0,0,0,0,0
0.113141,-4.14581e-05,-1.10614,-1.56237e-05,2.21688,8.02362e-05,0.608408,-8.68137e-05,-0.000721959,0.037588,-0.000270021,0.00525219,0.00140191,-0.0428402,-0.00151541,0,0,0,0.0130854,0,0.00207894,0,0,0,0.0709988,-0.0246,0.588172,0,0,0,0,0,0
0.114141,-4.21864e-05,-1.1061,-1.5896e-05,2.21689,8.16506e-05,0.608365,-8.83425e-05,-0.000728204,0.0379229,-0.000272283,0.00528989,0.00141421,-0.0432127,-0.00152865,0,0,0,0.0132008,0,0.00209949,0,0,0,0.071012,-0.0246,0.588174,0,0,0,0,0,0
0.115141,-4.2921e-05,-1.10606,-1.61706e-05,2.21689,8.30775e-05,0.608322,-8.98849e-05,-0.000734446,0.0382579,-0.000274541,0.00532737,0.0014265,-0.0435852,-0.00154188,0,0,0,0.0133161,0,0.00212011,0,0,0,0.0710253,-0.0246,0.588176,0,0,0,0,0,0
0.116141,-4.36618e-05,-1.10603,-1.64474e-05,2.2169,8.45164e-05,0.608278,-9.14401e-05,-0.000740683,0.0385929,-0.000276796,0.00536461,0.00143879,-0.0439575,-0.00155511,0,0,0,0.0134314,0,0.00214077,0,0,0,0.0710387,-0.0246,0.588178,0,0,0,0,0,0
0.117141,-4.44088e-05,-1.10599,-1.67265e-05,2.2169,8.59677e-05,0.608233,-9.30086e-05,-0.000746916,0.038928,-0.000279047,0.00540161,0.00145107,-0.0443296,-0.00156834,0,0,0,0.0135467,0,0.0021615,0,0,0,0.0710523,-0.0246,0.588181,0,0,0,0,0,0
0.118142,-4.51622e-05,-1.10595,-1.70079e-05,2.21691,8.74316e-05,0.608189,-9.45908e-05,-0.000753147,0.0392633,-0.000281295,0.00543838,0.00146336,-0.0447016,-0.00158156,0,0,0,0.013662,0,0.00218229,0,0,0,0.0710659,-0.0246,0.588183,0,0,0,0,0,0
0.119599,-4.62732e-05,-1.10589,-1.74227e-05,2.21692,8.95905e-05,0.608123,-9.6924e-05,-0.000762287,0.0397505,-0.000284628,0.00549592,0.0014813,-0.0452463,-0.0016009,0,0,0,0.0138302,0,0.0022116,0,0,0,0.0710861,-0.0246,0.588186,0,0,0,0,0,0
0.120599,-4.70417e-05,-1.10585,-1.77096e-05,2.21692,9.10841e-05,0.608077,-9.85382e-05,-0.000768438,0.0400871,-0.000286804,0.00552769,0.00149353,-0.0456147,-0.00161403,0,0,0,0.0139452,0,0.00223363,0,0,0,0.0711,-0.0246,0.588188,0,0,0,0,0,0
0.1216,-4.78165e-05,-1.10581,-1.79987e-05,2.21693,9.25902e-05,0.608031,-0.000100166,-0.000774655,0.0404226,-0.00028904,0.00556362,0.0015058,-0.0459861,-0.00162723,0,0,0,0.0140605,0,0.00225463,0,0,0,0.0711141,-0.0246,0.58819,0,0,0,0,0,0
0.12318,-4.90568e-05,-1.10574,-1.84613e-05,2.21694,9.50014e-05,0.607957,-0.000102771,-0.000784566,0.0409511,-0.000292652,0.00562582,0.00152526,-0.0465768,-0.0016482,0,0,0,0.0142429,0,0.00228646,0,0,0,0.0711366,-0.0246,0.588194,0,0,0,0,0,0
0.124823,-5.03623e-05,-1.10568,-1.89481e-05,2.21695,9.754e-05,0.60788,-0.000105514,-0.00079477,0.0415021,-0.000296319,0.00568444,0.00154542,-0.0471864,-0.00166988,0,0,0,0.0144322,0,0.00232104,0,0,0,0.0711603,-0.0246,0.588198,0,0,0,0,0,0
0.126247,-5.15062e-05,-1.10562,-1.93743e-05,2.21695,9.97648e-05,0.607812,-0.000107918,-0.000803558,0.0419806,-0.000299447,0.0057318,0.00156284,-0.0477123,-0.00168861,0,0,0,0.0145961,0,0.00235186,0,0,0,0.0711811,-0.0246,0.588201,0,0,0,0,0,0
0.127647,-5.26438e-05,-1.10556,-1.97981e-05,2.21696,0.000101978,0.607744,-0.000110309,-0.000812229,0.0424509,-0.000302546,0.0057799,0.00158,-0.0482307,-0.00170706,0,0,0,0.0147574,0,0.00238181,0,0,0,0.0712018,-0.0246,0.588205,0,0,0,0,0,0
0.129034,-5.37821e-05,-1.1055,-2.02219e-05,2.21697,0.000104192,0.607677,-0.000112702,-0.000820807,0.0429168,-0.000305609,0.00582712,0.00159699,-0.0487438,-0.00172532,0,0,0,0.0149171,0,0.00241157,0,0,0,0.0712225,-0.0246,0.588208,0,0,0,0,0,0
0.130414,-5.49264e-05,-1.10544,-2.06478e-05,2.21698,0.000106419,0.607609,-0.000115107,-0.000829336,0.0433804,-0.000308651,0.00587366,0.00161389,-0.0492539,-0.00174348,0,0,0,0.0150759,0,0.00244129,0,0,0,0.0712433,-0.0246,0.588211,0,0,0,0,0,0
0.131414,-5.57619e-05,-1.10539,-2.09586e-05,2.21698,0.000108046,0.607559,-0.000116864,-0.000835444,0.0437178,-0.000310788,0.00590273,0.00162608,-0.0496204,-0.00175656,0,0,0,0.0151909,0,0.00246399,0,0,0,0.0712585,-0.0246,0.588214,0,0,0,0,0,0
0.132414,-5.66037e-05,-1.10535,-2.12716e-05,2.21699,0.000109684,0.607509,-0.000118634,-0.000841617,0.044054,-0.000312985,0.00593589,0.00163832,-0.0499898,-0.00176971,0,0,0,0.0153061,0,0.00248568,0,0,0,0.0712738,-0.0246,0.588216,0,0,0,0,0,0
0.13345,-5.74821e-05,-1.1053,-2.15982e-05,2.217,0.000111394,0.607457,-0.000120481,-0.000848012,0.0444022,-0.000315261,0.00597037,0.001651,-0.0503724,-0.00178334,0,0,0,0.0154253,0,0.0025081,0,0,0,0.0712897,-0.0246,0.588219,0,0,0,0,0,0
0.13445,-5.83363e-05,-1.10526,-2.19157e-05,2.217,0.000113058,0.607406,-0.000122278,-0.000854169,0.0447386,-0.000317444,0.00600254,0.00166323,-0.050741,-0.00179647,0,0,0,0.0155404,0,0.00253003,0,0,0,0.0713053,-0.0246,0.588221,0,0,0,0,0,0
0.13545,-5.91968e-05,-1.10521,-2.22353e-05,2.21701,0.000114733,0.607355,-0.000124088,-0.000860329,0.0450751,-0.000319629,0.00603487,0.00167546,-0.0511098,-0.00180961,0,0,0,0.0156555,0,0.00255192,0,0,0,0.0713209,-0.0246,0.588224,0,0,0,0,0,0
0.13645,-6.00634e-05,-1.10517,-2.25572e-05,2.21701,0.000116421,0.607304,-0.000125911,-0.000866484,0.0454116,-0.000321809,0.00606692,0.00168769,-0.0514784,-0.00182274,0,0,0,0.0157706,0,0.00257388,0,0,0,0.0713367,-0.0246,0.588226,0,0,0,0,0,0
0.137453,-6.09381e-05,-1.10512,-2.28819e-05,2.21702,0.000118125,0.607252,-0.000127751,-0.000872649,0.0457489,-0.000323991,0.0060988,0.00169994,-0.0518476,-0.0018359,0,0,0,0.0158859,0,0.00259595,0,0,0,0.0713526,-0.0246,0.588229,0,0,0,0,0,0
0.138453,-6.1817e-05,-1.10508,-2.32082e-05,2.21703,0.000119838,0.6072,-0.0001296,-0.000878796,0.0460856,-0.000326164,0.00613027,0.00171216,-0.0522157,-0.00184902,0,0,0,0.016001,0,0.00261805,0,0,0,0.0713686,-0.0246,0.588232,0,0,0,0,0,0
0.139567,-6.28039e-05,-1.10503,-2.35743e-05,2.21703,0.000121761,0.607141,-0.000131677,-0.000885662,0.0464604,-0.000328601,0.00616653,0.00172579,-0.0526267,-0.00186366,0,0,0,0.0161292,0,0.00264238,0,0,0,0.0713866,-0.0246,0.588235,0,0,0,0,0,0
0.140567,-6.36958e-05,-1.10498,-2.39051e-05,2.21704,0.000123499,0.607088,-0.000133554,-0.000891775,0.0467976,-0.000330744,0.00619593,0.00173798,-0.0529934,-0.00187675,0,0,0,0.0162442,0,0.002665,0,0,0,0.0714029,-0.0246,0.588237,0,0,0,0,0,0
0.141567,-6.45938e-05,-1.10493,-2.4238e-05,2.21705,0.000125249,0.607035,-0.000135444,-0.000897908,0.0471345,-0.000332904,0.00622655,0.00175019,-0.0533609,-0.00188985,0,0,0,0.0163592,0,0.00268732,0,0,0,0.0714192,-0.0246,0.58824,0,0,0,0,0,0
0.142851,-6.57568e-05,-1.10487,-2.46691e-05,2.21705,0.000127516,0.606965,-0.000137892,-0.000905835,0.047566,-0.000335728,0.00626933,0.00176591,-0.0538352,-0.00190674,0,0,0,0.016507,0,0.0027151,0,0,0,0.0714404,-0.0246,0.588243,0,0,0,0,0,0
0.14401,-6.68147e-05,-1.10481,-2.5061e-05,2.21706,0.000129579,0.606903,-0.000140119,-0.000912902,0.0479571,-0.000338195,0.00630232,0.00178003,-0.0542593,-0.00192188,0,0,0,0.0166402,0,0.00274157,0,0,0,0.0714597,-0.0246,0.588247,0,0,0,0,0,0
0.145074,-6.77934e-05,-1.10476,-2.54234e-05,2.21707,0.000131488,0.606844,-0.00014218,-0.000919391,0.0483164,-0.000340461,0.00633253,0.00179299,-0.0546488,-0.00193578,0,0,0,0.0167625,0,0.00276591,0,0,0,0.0714775,-0.0246,0.58825,0,0,0,0,0,0
0.146166,-6.88037e-05,-1.10471,-2.57974e-05,2.21708,0.000133458,0.606784,-0.000144307,-0.000926064,0.0486842,-0.000342802,0.00636488,0.0018063,-0.0550489,-0.00195006,0,0,0,0.016888,0,0.00279052,0,0,0,0.071496,-0.0246,0.588253,0,0,0,0,0,0
0.147393,-6.99493e-05,-1.10465,-2.62213e-05,2.21708,0.000135693,0.606716,-0.00014672,-0.000933588,0.0490976,-0.000345453,0.0064024,0.00182128,-0.0554998,-0.00196614,0,0,0,0.0170291,0,0.0028179,0,0,0,0.0715169,-0.0246,0.588256,0,0,0,0,0,0
0.148646,-7.11287e-05,-1.10459,-2.66575e-05,2.21709,0.000137995,0.606646,-0.000149204,-0.000941237,0.0495203,-0.000348129,0.00643864,0.00183655,-0.0559587,-0.00198252,0,0,0,0.0171731,0,0.00284639,0,0,0,0.0715384,-0.0246,0.58826,0,0,0,0,0,0
0.149651,-7.20815e-05,-1.10454,-2.70097e-05,2.2171,0.000139854,0.606589,-0.000151211,-0.000947309,0.0498608,-0.000350215,0.00646335,0.00184876,-0.056324,-0.00199558,0,0,0,0.0172885,0,0.00287034,0,0,0,0.0715558,-0.0246,0.588263,0,0,0,0,0,0
0.150651,-7.3035e-05,-1.10449,-2.73621e-05,2.2171,0.000141715,0.606533,-0.00015322,-0.000953397,0.0501985,-0.000352336,0.00649119,0.00186093,-0.0566895,-0.00200863,0,0,0,0.0174034,0,0.00289334,0,0,0,0.0715732,-0.0246,0.588265,0,0,0,0,0,0
0.151917,-7.42514e-05,-1.10442,-2.78115e-05,2.21711,0.00014409,0.60646,-0.000155783,-0.000961162,0.0506247,-0.000355074,0.00653023,0.00187638,-0.0571548,-0.00202522,0,0,0,0.017549,0,0.00292151,0,0,0,0.0715954,-0.0246,0.588269,0,0,0,0,0,0
0.153428,-7.57172e-05,-1.10435,-2.83527e-05,2.21712,0.000146952,0.606373,-0.000158872,-0.000970404,0.0511339,-0.000358319,0.0065752,0.00189481,-0.0577089,-0.00204499,0,0,0,0.0177226,0,0.00295552,0,0,0,0.0716222,-0.0246,0.588274,0,0,0,0,0,0
0.154606,-7.68695e-05,-1.10429,-2.8778e-05,2.21713,0.000149202,0.606305,-0.000161301,-0.000977477,0.0515338,-0.000360725,0.00660148,0.00190908,-0.058135,-0.00206025,0,0,0,0.0178578,0,0.00298426,0,0,0,0.0716432,-0.0246,0.588277,0,0,0,0,0,0
0.155738,-7.79836e-05,-1.10423,-2.91889e-05,2.21714,0.000151379,0.606238,-0.000163649,-0.00098433,0.0519166,-0.000363092,0.0066306,0.00192283,-0.058547,-0.00207498,0,0,0,0.0179877,0,0.00301089,0,0,0,0.0716636,-0.0246,0.588281,0,0,0,0,0,0
0.156869,-7.91044e-05,-1.10417,-2.96022e-05,2.21715,0.000153569,0.606172,-0.000166012,-0.000991181,0.0522989,-0.000365461,0.00666002,0.00193657,-0.0589588,-0.0020897,0,0,0,0.0181176,0,0.00303741,0,0,0,0.0716841,-0.0246,0.588284,0,0,0,0,0,0
0.158001,-8.02343e-05,-1.10411,-3.00186e-05,2.21715,0.000155777,0.606105,-0.000168395,-0.000998035,0.0526819,-0.000367827,0.00668911,0.00195033,-0.0593708,-0.00210443,0,0,0,0.0182475,0,0.00306405,0,0,0,0.0717047,-0.0246,0.588287,0,0,0,0,0,0
0.159353,-8.15946e-05,-1.10404,-3.05197e-05,2.21716,0.000158435,0.606024,-0.000171263,-0.00100627,0.0531382,-0.000370699,0.00672704,0.00196679,-0.059865,-0.00212207,0,0,0,0.0184028,0,0.00309507,0,0,0,0.0717296,-0.0246,0.588292,0,0,0,0,0,0
0.160521,-8.27779e-05,-1.10397,-3.09554e-05,2.21717,0.000160749,0.605953,-0.000173759,-0.00101327,0.0535343,-0.000373081,0.00675294,0.00198092,-0.060287,-0.00213719,0,0,0,0.0185367,0,0.00312357,0,0,0,0.0717512,-0.0246,0.588295,0,0,0,0,0,0
0.16177,-8.40528e-05,-1.10391,-3.14246e-05,2.21718,0.000163242,0.605877,-0.000176449,-0.00102083,0.0539567,-0.000375691,0.00678494,0.00199609,-0.0607415,-0.00215343,0,0,0,0.0186801,0,0.00315298,0,0,0,0.0717746,-0.0246,0.588299,0,0,0,0,0,0
0.162857,-8.51699e-05,-1.10385,-3.18355e-05,2.21719,0.000165426,0.605811,-0.000178805,-0.00102734,0.0543258,-0.000377898,0.00680827,0.00200925,-0.0611338,-0.00216749,0,0,0,0.0188047,0,0.00317971,0,0,0,0.071795,-0.0246,0.588303,0,0,0,0,0,0
0.164341,-8.67083e-05,-1.10377,-3.24012e-05,2.2172,0.000168436,0.605719,-0.000182052,-0.0010364,0.0548266,-0.000381061,0.00685061,0.00202733,-0.061677,-0.00218688,0,0,0,0.0189753,0,0.0032136,0,0,0,0.0718232,-0.0246,0.588307,0,0,0,0,0,0
0.165576,-8.79964e-05,-1.1037,-3.28745e-05,2.2172,0.000170956,0.605643,-0.00018477,-0.00104375,0.0552462,-0.000383533,0.00687472,0.00204223,-0.0621206,-0.00220279,0,0,0,0.0191166,0,0.00324452,0,0,0,0.0718468,-0.0246,0.588311,0,0,0,0,0,0
0.166877,-8.93654e-05,-1.10363,-3.33773e-05,2.21721,0.000173635,0.605561,-0.00018766,-0.00105159,0.0556872,-0.000386219,0.00690568,0.00205801,-0.0625926,-0.00221968,0,0,0,0.019266,0,0.00327578,0,0,0,0.0718719,-0.0246,0.588316,0,0,0,0,0,0
0.168374,-9.09529e-05,-1.10354,-3.396e-05,2.21722,0.000176743,0.605467,-0.000191011,-0.00106063,0.0561937,-0.00038933,0.00694285,0.00207617,-0.0631363,-0.00223913,0,0,0,0.0194377,0,0.00331131,0,0,0,0.071901,-0.0246,0.588321,0,0,0,0,0,0
0.169691,-9.23598e-05,-1.10347,-3.44761e-05,2.21723,0.000179498,0.605383,-0.000193982,-0.00106847,0.0566414,-0.000391962,0.0069682,0.00209207,-0.0636093,-0.0022561,0,0,0,0.0195885,0,0.00334441,0,0,0,0.0719267,-0.0246,0.588325,0,0,0,0,0,0
0.170837,-9.35924e-05,-1.1034,-3.49281e-05,2.21724,0.000181912,0.60531,-0.000196585,-0.00107528,0.0570314,-0.000394242,0.00698942,0.00210589,-0.0640205,-0.00227085,0,0,0,0.0197197,0,0.00337342,0,0,0,0.0719493,-0.0246,0.588329,0,0,0,0,0,0
0.172042,-9.48969e-05,-1.10333,-3.54061e-05,2.21725,0.000184467,0.605232,-0.000199341,-0.0010825,0.0574402,-0.000396698,0.0070159,0.00212047,-0.0644558,-0.00228644,0,0,0,0.0198578,0,0.00340289,0,0,0,0.0719733,-0.0246,0.588333,0,0,0,0,0,0
0.173076,-9.60226e-05,-1.10327,-3.58184e-05,2.21726,0.000186672,0.605165,-0.000201718,-0.00108862,0.0577923,-0.000398736,0.00703375,0.00213293,-0.0648258,-0.00229973,0,0,0,0.0199762,0,0.00342939,0,0,0,0.0719939,-0.0246,0.588337,0,0,0,0,0,0
0.176242,-9.95309e-05,-1.10309,-3.71029e-05,2.21728,0.000193548,0.604956,-0.000209131,-0.0011082,0.0588554,-0.000405725,0.00714103,0.00217168,-0.0659962,-0.00234139,0,0,0,0.0203406,0,0.00349743,0,0,0,0.0720583,-0.0246,0.588348,0,0,0,0,0,0
0.177811,-0.000101283,-1.10299,-3.77434e-05,2.21729,0.000196983,0.604852,-0.000212834,-0.001117,0.0593982,-0.000408381,0.00713766,0.00219021,-0.0665355,-0.00236097,0,0,0,0.0205188,0,0.00354516,0,0,0,0.0720905,-0.0246,0.588353,0,0,0,0,0,0
0.179425,-0.000103102,-1.1029,-3.8408e-05,2.2173,0.000200551,0.604743,-0.00021668,-0.00112661,0.0599471,-0.000411607,0.00716859,0.00220969,-0.0671154,-0.00238177,0,0,0,0.0207037,0,0.00358577,0,0,0,0.0721239,-0.0246,0.588359,0,0,0,0,0,0
0.18093,-0.000104811,-1.1028,-3.90319e-05,2.21731,0.000203903,0.604641,-0.000220293,-0.00113549,0.0604599,-0.000414554,0.00719322,0.0022278,-0.0676528,-0.00240108,0,0,0,0.0208758,0,0.00362466,0,0,0,0.0721554,-0.0246,0.588364,0,0,0,0,0,0
0.182136,-0.000106189,-1.10273,-3.95346e-05,2.21732,0.000206608,0.604559,-0.000223207,-0.00114253,0.0608723,-0.00041684,0.00720758,0.00224224,-0.0680795,-0.00241645,0,0,0,0.0210135,0,0.00365716,0,0,0,0.0721807,-0.0246,0.588369,0,0,0,0,0,0
0.183136,-0.000107337,-1.10267,-3.99534e-05,2.21733,0.000208862,0.604491,-0.000225637,-0.00114837,0.0612142,-0.000418742,0.00721989,0.00225422,-0.0684338,-0.00242921,0,0,0,0.0211277,0,0.00368402,0,0,0,0.0722018,-0.0246,0.588373,0,0,0,0,0,0
0.184363,-0.000108754,-1.10259,-4.04699e-05,2.21734,0.000211645,0.604406,-0.000228635,-0.0011557,0.0616305,-0.000421221,0.00724532,0.00226904,-0.0688755,-0.00244504,0,0,0,0.0212682,0,0.00371437,0,0,0,0.0722279,-0.0246,0.588377,0,0,0,0,0,0
0.185363,-0.000109916,-1.10253,-4.08931e-05,2.21734,0.000213926,0.604337,-0.000231094,-0.00116152,0.0619728,-0.000423103,0.00725622,0.002281,-0.0692286,-0.00245777,0,0,0,0.0213823,0,0.00374157,0,0,0,0.0722493,-0.0246,0.588381,0,0,0,0,0,0
0.186363,-0.000111084,-1.10247,-4.13182e-05,2.21735,0.000216219,0.604268,-0.000233564,-0.00116742,0.0623137,-0.000425053,0.00727194,0.00229303,-0.0695852,-0.00247058,0,0,0,0.0214967,0,0.00376758,0,0,0,0.0722708,-0.0246,0.588385,0,0,0,0,0,0
0.187363,-0.000112257,-1.10241,-4.17452e-05,2.21736,0.000218525,0.604198,-0.000236048,-0.00117331,0.0626546,-0.000426998,0.00728727,0.00230504,-0.0699416,-0.00248339,0,0,0,0.021611,0,0.00379368,0,0,0,0.0722924,-0.0246,0.588388,0,0,0,0,0,0
0.188363,-0.000113437,-1.10234,-4.21743e-05,2.21737,0.000220842,0.604127,-0.000238545,-0.00117919,0.0629958,-0.000428938,0.00730223,0.00231706,-0.0702977,-0.00249619,0,0,0,0.0217253,0,0.00381987,0,0,0,0.0723141,-0.0246,0.588392,0,0,0,0,0,0
0.189363,-0.000114622,-1.10228,-4.26052e-05,2.21737,0.000223172,0.604057,-0.000241054,-0.00118507,0.063337,-0.000430873,0.0073168,0.00232906,-0.0706534,-0.00250899,0,0,0,0.0218396,0,0.00384616,0,0,0,0.072336,-0.0246,0.588396,0,0,0,0,0,0
0.190364,-0.000115813,-1.10222,-4.30381e-05,2.21738,0.000225513,0.603986,-0.000243576,-0.00119095,0.0636783,-0.000432802,0.00733099,0.00234107,-0.0710089,-0.00252178,0,0,0,0.0219539,0,0.00387255,0,0,0,0.0723579,-0.0246,0.5884,0,0,0,0,0,0
0.191364,-0.00011701,-1.10215,-4.34729e-05,2.21739,0.000227866,0.603914,-0.000246111,-0.00119681,0.0640197,-0.000434726,0.00734478,0.00235307,-0.0713641,-0.00253456,0,0,0,0.0220682,0,0.00389903,0,0,0,0.07238,-0.0246,0.588404,0,0,0,0,0,0
0.192505,-0.000118383,-1.10208,-4.39715e-05,2.2174,0.000230567,0.603832,-0.00024902,-0.00120355,0.0644084,-0.000436964,0.00736358,0.00236679,-0.0717716,-0.00254919,0,0,0,0.0221987,0,0.00392848,0,0,0,0.0724053,-0.0246,0.588408,0,0,0,0,0,0
0.193793,-0.000119944,-1.102,-4.45376e-05,2.21741,0.000233636,0.603739,-0.000252325,-0.00121115,0.0648473,-0.000439479,0.00738398,0.00238228,-0.0722309,-0.0025657,0,0,0,0.0223459,0,0.00396194,0,0,0,0.0724341,-0.0246,0.588413,0,0,0,0,0,0
0.19529,-0.00012177,-1.1019,-4.51999e-05,2.21742,0.000237229,0.60363,-0.000256195,-0.00121998,0.0653574,-0.000442406,0.00740795,0.00240027,-0.072765,-0.00258489,0,0,0,0.0225171,0,0.00400074,0,0,0,0.0724678,-0.0246,0.588419,0,0,0,0,0,0
0.19629,-0.000122996,-1.10183,-4.56441e-05,2.21743,0.000239642,0.603557,-0.000258793,-0.00122561,0.0657028,-0.00044412,0.00740699,0.00241209,-0.0731094,-0.00259739,0,0,0,0.0226307,0,0.00403088,0,0,0,0.0724905,-0.0246,0.588423,0,0,0,0,0,0
0.19729,-0.000124227,-1.10177,-4.60901e-05,2.21743,0.000242066,0.603484,-0.000261403,-0.00123144,0.0660448,-0.000446011,0.00741844,0.00242405,-0.0734628,-0.00261012,0,0,0,0.0227448,0,0.00405794,0,0,0,0.0725132,-0.0246,0.588427,0,0,0,0,0,0
0.198311,-0.00012549,-1.1017,-4.65473e-05,2.21744,0.000244552,0.603408,-0.00026408,-0.00123739,0.0663937,-0.000447943,0.00743026,0.00243626,-0.0738235,-0.00262311,0,0,0,0.0228613,0,0.00408551,0,0,0,0.0725366,-0.0246,0.588432,0,0,0,0,0,0
0.199311,-0.000126733,-1.10163,-4.69972e-05,2.21745,0.000247001,0.603334,-0.000266716,-0.0012432,0.066736,-0.000449815,0.00744035,0.00244821,-0.074176,-0.00263582,0,0,0,0.0229754,0,0.00411291,0,0,0,0.0725595,-0.0246,0.588436,0,0,0,0,0,0
0.200311,-0.000127983,-1.10157,-4.74489e-05,2.21745,0.000249461,0.60326,-0.000269365,-0.00124901,0.0670783,-0.000451689,0.00745058,0.00246016,-0.0745285,-0.00264853,0,0,0,0.0230895,0,0.00414027,0,0,0,0.0725826,-0.0246,0.58844,0,0,0,0,0,0
0.201311,-0.000129238,-1.1015,-4.79025e-05,2.21746,0.000251934,0.603185,-0.000272026,-0.00125481,0.0674207,-0.000453557,0.00746041,0.00247211,-0.0748807,-0.00266123,0,0,0,0.0232035,0,0.00416772,0,0,0,0.0726058,-0.0246,0.588444,0,0,0,0,0,0
0.202311,-0.000130498,-1.10143,-4.8358e-05,2.21747,0.000254418,0.60311,-0.000274701,-0.00126061,0.0677632,-0.00045542,0.00746982,0.00248405,-0.0752325,-0.00267392,0,0,0,0.0233176,0,0.00419528,0,0,0,0.0726291,-0.0246,0.588448,0,0,0,0,0,0
0.203311,-0.000131765,-1.10136,-4.88153e-05,2.21748,0.000256914,0.603034,-0.000277387,-0.0012664,0.0681057,-0.000457277,0.00747882,0.00249598,-0.0755841,-0.0026866,0,0,0,0.0234316,0,0.00422295,0,0,0,0.0726526,-0.0246,0.588452,0,0,0,0,0,0
0.204311,-0.000133037,-1.10129,-4.92745e-05,2.21748,0.000259422,0.602958,-0.000280087,-0.00127218,0.0684484,-0.000459128,0.0074874,0.00250791,-0.0759354,-0.00269927,0,0,0,0.0235456,0,0.00425071,0,0,0,0.0726761,-0.0246,0.588457,0,0,0,0,0,0
0.205312,-0.000134315,-1.10122,-4.97355e-05,2.21749,0.000261942,0.602882,-0.000282799,-0.00127796,0.0687912,-0.000460974,0.00749557,0.00251983,-0.0762863,-0.00271194,0,0,0,0.0236596,0,0.00427858,0,0,0,0.0726998,-0.0246,0.588461,0,0,0,0,0,0
0.206312,-0.000135599,-1.10116,-5.01984e-05,2.2175,0.000264475,0.602805,-0.000285524,-0.00128373,0.0691341,-0.000462814,0.00750332,0.00253175,-0.076637,-0.0027246,0,0,0,0.0237736,0,0.00430655,0,0,0,0.0727236,-0.0246,0.588465,0,0,0,0,0,0
0.207312,-0.000136889,-1.10109,-5.06631e-05,2.21751,0.000267018,0.602728,-0.000288262,-0.00128949,0.0694771,-0.000464647,0.00751064,0.00254366,-0.0769873,-0.00273725,0,0,0,0.0238875,0,0.00433462,0,0,0,0.0727475,-0.0246,0.58847,0,0,0,0,0,0
0.208312,-0.000138184,-1.10102,-5.11296e-05,2.21751,0.000269574,0.602651,-0.000291012,-0.00129525,0.0698202,-0.000466475,0.00751755,0.00255556,-0.0773373,-0.00274989,0,0,0,0.0240014,0,0.0043628,0,0,0,0.0727715,-0.0246,0.588474,0,0,0,0,0,0
0.209312,-0.000139485,-1.10095,-5.1598e-05,2.21752,0.000272142,0.602573,-0.000293775,-0.001301,0.0701634,-0.000468298,0.00752403,0.00256746,-0.077687,-0.00276252,0,0,0,0.0241153,0,0.00439109,0,0,0,0.0727956,-0.0246,0.588478,0,0,0,0,0,0
0.210312,-0.000140792,-1.10088,-5.20682e-05,2.21753,0.000274722,0.602495,-0.000296551,-0.00130674,0.0705067,-0.000470114,0.00753008,0.00257936,-0.0780363,-0.00277514,0,0,0,0.0242292,0,0.00441948,0,0,0,0.0728198,-0.0246,0.588483,0,0,0,0,0,0
0.211313,-0.000142105,-1.1008,-5.25402e-05,2.21754,0.000277314,0.602417,-0.000299339,-0.00131248,0.0708502,-0.000471925,0.0075357,0.00259125,-0.0783854,-0.00278776,0,0,0,0.0243431,0,0.00444797,0,0,0,0.0728442,-0.0246,0.588487,0,0,0,0,0,0
0.212313,-0.000143424,-1.10073,-5.3014e-05,2.21755,0.000279917,0.602338,-0.00030214,-0.00131821,0.0711937,-0.000473729,0.00754089,0.00260313,-0.078734,-0.00280036,0,0,0,0.0244569,0,0.00447657,0,0,0,0.0728686,-0.0246,0.588492,0,0,0,0,0,0
0.213313,-0.000144748,-1.10066,-5.34896e-05,2.21755,0.000282533,0.602259,-0.000304953,-0.00132393,0.0715373,-0.000475527,0.00754565,0.002615,-0.0790824,-0.00281296,0,0,0,0.0245707,0,0.00450528,0,0,0,0.0728932,-0.0246,0.588496,0,0,0,0,0,0
0.214358,-0.000146137,-1.10059,-5.39885e-05,2.21756,0.000285278,0.602176,-0.000307906,-0.00132992,0.071896,-0.00047742,0.00755155,0.00262742,-0.0794471,-0.00282614,0,0,0,0.0246897,0,0.00453504,0,0,0,0.072919,-0.0246,0.588501,0,0,0,0,0,0
0.215358,-0.000147473,-1.10051,-5.44677e-05,2.21757,0.000287918,0.602096,-0.000310745,-0.00133561,0.0722402,-0.000479186,0.00755402,0.00263927,-0.0797937,-0.00283869,0,0,0,0.0248034,0,0.00456431,0,0,0,0.0729438,-0.0246,0.588506,0,0,0,0,0,0
0.216358,-0.000148815,-1.10044,-5.49487e-05,2.21758,0.000290569,0.602016,-0.000313597,-0.00134131,0.0725841,-0.000480966,0.00755744,0.00265113,-0.080141,-0.00285126,0,0,0,0.0249171,0,0.00459335,0,0,0,0.0729687,-0.0246,0.58851,0,0,0,0,0,0
0.217358,-0.000150162,-1.10037,-5.54315e-05,2.21758,0.000293232,0.601935,-0.000316461,-0.00134701,0.0729281,-0.00048274,0.00756042,0.00266298,-0.080488,-0.00286382,0,0,0,0.0250308,0,0.00462249,0,0,0,0.0729938,-0.0246,0.588515,0,0,0,0,0,0
0.218358,-0.000151515,-1.1003,-5.59161e-05,2.21759,0.000295907,0.601854,-0.000319338,-0.00135269,0.0732723,-0.000484507,0.00756296,0.00267482,-0.0808347,-0.00287637,0,0,0,0.0251445,0,0.00465174,0,0,0,0.0730189,-0.0246,0.588519,0,0,0,0,0,0
0.219358,-0.000152873,-1.10022,-5.64024e-05,2.2176,0.000298594,0.601773,-0.000322227,-0.00135837,0.0736165,-0.000486269,0.00756505,0.00268666,-0.081181,-0.00288891,0,0,0,0.0252582,0,0.0046811,0,0,0,0.0730442,-0.0246,0.588524,0,0,0,0,0,0
0.220358,-0.000154237,-1.10015,-5.68905e-05,2.21761,0.000301293,0.601692,-0.000325129,-0.00136405,0.0739608,-0.000488025,0.0075667,0.00269849,-0.081527,-0.00290145,0,0,0,0.0253718,0,0.00471058,0,0,0,0.0730695,-0.0246,0.588529,0,0,0,0,0,0
0.221358,-0.000155607,-1.10007,-5.73803e-05,2.21761,0.000304004,0.60161,-0.000328043,-0.00136971,0.0743053,-0.000489774,0.00756789,0.00271032,-0.0818726,-0.00291397,0,0,0,0.0254855,0,0.00474016,0,0,0,0.073095,-0.0246,0.588534,0,0,0,0,0,0
0.222358,-0.000156983,-1.1,-5.78719e-05,2.21762,0.000306726,0.601528,-0.00033097,-0.00137537,0.0746498,-0.000491517,0.00756863,0.00272214,-0.0822179,-0.00292648,0,0,0,0.0255991,0,0.00476985,0,0,0,0.0731206,-0.0246,0.588538,0,0,0,0,0,0
0.223359,-0.000158364,-1.09992,-5.83652e-05,2.21763,0.00030946,0.601445,-0.000333909,-0.00138102,0.0749945,-0.000493254,0.00756892,0.00273395,-0.0825628,-0.00293899,0,0,0,0.0257127,0,0.00479966,0,0,0,0.0731463,-0.0246,0.588543,0,0,0,0,0,0
0.224359,-0.000159751,-1.09985,-5.88602e-05,2.21764,0.000312206,0.601362,-0.000336861,-0.00138666,0.0753392,-0.000494984,0.00756875,0.00274576,-0.0829074,-0.00295148,0,0,0,0.0258262,0,0.00482957,0,0,0,0.0731722,-0.0246,0.588548,0,0,0,0,0,0
0.225359,-0.000161143,-1.09977,-5.9357e-05,2.21764,0.000314964,0.601279,-0.000339825,-0.0013923,0.0756841,-0.000496709,0.00756812,0.00275756,-0.0832516,-0.00296397,0,0,0,0.0259397,0,0.0048596,0,0,0,0.0731981,-0.0246,0.588553,0,0,0,0,0,0
0.226438,-0.000162652,-1.09969,-5.98949e-05,2.21765,0.000317953,0.601189,-0.000343038,-0.00139842,0.0760555,-0.000498601,0.00756967,0.00277032,-0.0836246,-0.00297748,0,0,0,0.0260623,0,0.00489145,0,0,0,0.0732262,-0.0246,0.588558,0,0,0,0,0,0
0.227438,-0.000164056,-1.09961,-6.03953e-05,2.21766,0.000320736,0.601105,-0.000346028,-0.001404,0.0764014,-0.000500273,0.00756534,0.00278208,-0.0839661,-0.00298989,0,0,0,0.0261757,0,0.0049224,0,0,0,0.0732524,-0.0246,0.588563,0,0,0,0,0,0
0.228438,-0.000165466,-1.09954,-6.08974e-05,2.21767,0.00032353,0.60102,-0.000349031,-0.00140961,0.0767466,-0.000501978,0.00756328,0.00279386,-0.0843092,-0.00300235,0,0,0,0.0262892,0,0.00495278,0,0,0,0.0732787,-0.0246,0.588568,0,0,0,0,0,0
0.229438,-0.000166882,-1.09946,-6.14012e-05,2.21767,0.000326337,0.600936,-0.000352046,-0.00141522,0.0770919,-0.000503677,0.00756076,0.00280563,-0.084652,-0.0030148,0,0,0,0.0264026,0,0.00498328,0,0,0,0.0733051,-0.0246,0.588573,0,0,0,0,0,0
0.230572,-0.000168494,-1.09937,-6.19746e-05,2.21768,0.000329533,0.600839,-0.000355481,-0.00142164,0.0774823,-0.000505663,0.00756216,0.00281904,-0.0850438,-0.00302899,0,0,0,0.0265314,0,0.0050168,0,0,0,0.0733352,-0.0246,0.588579,0,0,0,0,0,0
0.231572,-0.000169921,-1.0993,-6.24819e-05,2.21769,0.000332364,0.600754,-0.000358523,-0.00142716,0.0778291,-0.00050728,0.00755381,0.00283074,-0.0853822,-0.00304132,0,0,0,0.0266446,0,0.00504873,0,0,0,0.0733619,-0.0246,0.588584,0,0,0,0,0,0
0.232573,-0.000171354,-1.09922,-6.29909e-05,2.2177,0.000335207,0.600668,-0.000361577,-0.00143274,0.0781747,-0.000508958,0.00754981,0.00284249,-0.0857238,-0.00305374,0,0,0,0.0267579,0,0.00507959,0,0,0,0.0733886,-0.0246,0.588589,0,0,0,0,0,0
0.233573,-0.000172792,-1.09914,-6.35016e-05,2.21771,0.000338062,0.600582,-0.000364643,-0.00143832,0.0785204,-0.00051063,0.00754534,0.00285424,-0.0860651,-0.00306614,0,0,0,0.0268713,0,0.00511056,0,0,0,0.0734155,-0.0246,0.588594,0,0,0,0,0,0
0.234573,-0.000174236,-1.09906,-6.4014e-05,2.21771,0.000340928,0.600496,-0.000367723,-0.00144388,0.0788663,-0.000512295,0.00754039,0.00286598,-0.086406,-0.00307854,0,0,0,0.0269846,0,0.00514165,0,0,0,0.0734425,-0.0246,0.588599,0,0,0,0,0,0
0.235573,-0.000175686,-1.09898,-6.45281e-05,2.21772,0.000343807,0.600409,-0.000370814,-0.00144944,0.0792122,-0.000513954,0.00753496,0.00287771,-0.0867465,-0.00309093,0,0,0,0.0270979,0,0.00517286,0,0,0,0.0734696,-0.0246,0.588604,0,0,0,0,0,0
0.236573,-0.000177141,-1.0989,-6.50437e-05,2.21773,0.000346696,0.600322,-0.000373918,-0.001455,0.0795583,-0.000515606,0.00752905,0.00288944,-0.0870867,-0.0031033,0,0,0,0.0272111,0,0.00520419,0,0,0,0.0734968,-0.0246,0.588609,0,0,0,0,0,0
0.237573,-0.000178602,-1.09882,-6.5561e-05,2.21774,0.000349598,0.600234,-0.000377034,-0.00146054,0.0799044,-0.000517252,0.00752265,0.00290116,-0.0874264,-0.00311567,0,0,0,0.0273243,0,0.00523564,0,0,0,0.0735241,-0.0246,0.588615,0,0,0,0,0,0
0.238573,-0.000180068,-1.09874,-6.608e-05,2.21774,0.000352511,0.600147,-0.000380162,-0.00146608,0.0802507,-0.000518891,0.00751577,0.00291287,-0.0877658,-0.00312802,0,0,0,0.0274375,0,0.0052672,0,0,0,0.0735516,-0.0246,0.58862,0,0,0,0,0,0
0.239574,-0.00018154,-1.09866,-6.66006e-05,2.21775,0.000355436,0.600058,-0.000383303,-0.00147161,0.0805971,-0.000520523,0.0075084,0.00292457,-0.0881048,-0.00314037,0,0,0,0.0275507,0,0.00529888,0,0,0,0.0735791,-0.0246,0.588625,0,0,0,0,0,0
0.240574,-0.000183018,-1.09858,-6.71229e-05,2.21776,0.000358373,0.59997,-0.000386456,-0.00147713,0.0809436,-0.000522149,0.00750054,0.00293627,-0.0884434,-0.0031527,0,0,0,0.0276639,0,0.00533069,0,0,0,0.0736068,-0.0246,0.588631,0,0,0,0,0,0
0.241574,-0.000184501,-1.0985,-6.76467e-05,2.21777,0.000361322,0.599881,-0.000389622,-0.00148264,0.0812902,-0.000523768,0.00749219,0.00294796,-0.0887817,-0.00316503,0,0,0,0.027777,0,0.00536262,0,0,0,0.0736346,-0.0246,0.588636,0,0,0,0,0,0
0.242576,-0.000185991,-1.09842,-6.8173e-05,2.21777,0.000364286,0.599792,-0.000392805,-0.00148816,0.0816374,-0.000525384,0.00748339,0.00295967,-0.0891201,-0.00317736,0,0,0,0.0278903,0,0.0053947,0,0,0,0.0736625,-0.0246,0.588641,0,0,0,0,0,0
0.243576,-0.000187485,-1.09833,-6.87e-05,2.21778,0.000367258,0.599702,-0.000395995,-0.00149366,0.0819842,-0.000526989,0.00747399,0.00297134,-0.0894575,-0.00318966,0,0,0,0.0280033,0,0.00542688,0,0,0,0.0736905,-0.0246,0.588647,0,0,0,0,0,0
0.244576,-0.000188984,-1.09825,-6.92287e-05,2.21779,0.000370241,0.599613,-0.000399197,-0.00149915,0.0823311,-0.000528587,0.00746414,0.00298301,-0.0897945,-0.00320195,0,0,0,0.0281164,0,0.00545917,0,0,0,0.0737186,-0.0246,0.588652,0,0,0,0,0,0
0.245576,-0.000190489,-1.09817,-6.97589e-05,2.2178,0.000373236,0.599522,-0.000402412,-0.00150463,0.0826781,-0.000530179,0.0074538,0.00299467,-0.0901312,-0.00321423,0,0,0,0.0282294,0,0.00549158,0,0,0,0.0737469,-0.0246,0.588658,0,0,0,0,0,0
0.246576,-0.000191999,-1.09809,-7.02907e-05,2.2178,0.000376243,0.599432,-0.000405638,-0.0015101,0.0830253,-0.000531765,0.00744295,0.00300633,-0.0904674,-0.0032265,0,0,0,0.0283424,0,0.00552411,0,0,0,0.0737752,-0.0246,0.588663,0,0,0,0,0,0
0.247576,-0.000193515,-1.098,-7.08242e-05,2.21781,0.000379261,0.599341,-0.000408878,-0.00151557,0.0833725,-0.000533343,0.00743161,0.00301797,-0.0908033,-0.00323876,0,0,0,0.0284553,0,0.00555677,0,0,0,0.0738037,-0.0246,0.588669,0,0,0,0,0,0
0.248577,-0.000195037,-1.09792,-7.13592e-05,2.21782,0.000382292,0.59925,-0.00041213,-0.00152103,0.0837199,-0.000534915,0.00741975,0.00302961,-0.0911388,-0.00325101,0,0,0,0.0285683,0,0.00558955,0,0,0,0.0738323,-0.0246,0.588674,0,0,0,0,0,0
0.249577,-0.000196563,-1.09783,-7.18957e-05,2.21783,0.000385333,0.599159,-0.000415393,-0.00152648,0.0840673,-0.00053648,0.00740738,0.00304125,-0.0914739,-0.00326325,0,0,0,0.0286812,0,0.00562246,0,0,0,0.0738609,-0.0246,0.58868,0,0,0,0,0,0
0.250577,-0.000198095,-1.09775,-7.24338e-05,2.21783,0.000388386,0.599067,-0.000418669,-0.00153192,0.0844148,-0.000538037,0.0073945,0.00305287,-0.0918085,-0.00327548,0,0,0,0.0287941,0,0.00565549,0,0,0,0.0738897,-0.0246,0.588686,0,0,0,0,0,0
0.251577,-0.000199633,-1.09767,-7.29735e-05,2.21784,0.000391451,0.598975,-0.000421957,-0.00153735,0.0847625,-0.000539588,0.00738111,0.00306449,-0.0921428,-0.00328769,0,0,0,0.0289069,0,0.00568865,0,0,0,0.0739186,-0.0246,0.588691,0,0,0,0,0,0
0.252577,-0.000201176,-1.09758,-7.35147e-05,2.21785,0.000394527,0.598882,-0.000425257,-0.00154278,0.0851102,-0.000541132,0.00736721,0.0030761,-0.0924766,-0.0032999,0,0,0,0.0290197,0,0.00572193,0,0,0,0.0739477,-0.0246,0.588697,0,0,0,0,0,0
0.253577,-0.000202724,-1.09749,-7.40574e-05,2.21786,0.000397615,0.598789,-0.00042857,-0.00154819,0.0854581,-0.000542669,0.00735279,0.0030877,-0.0928101,-0.00331209,0,0,0,0.0291325,0,0.00575534,0,0,0,0.0739768,-0.0246,0.588703,0,0,0,0,0,0
0.254577,-0.000204278,-1.09741,-7.46016e-05,2.21786,0.000400715,0.598696,-0.000431894,-0.0015536,0.0858061,-0.000544199,0.00733785,0.00309929,-0.0931431,-0.00332428,0,0,0,0.0292452,0,0.00578887,0,0,0,0.0740061,-0.0246,0.588709,0,0,0,0,0,0
0.255577,-0.000205837,-1.09732,-7.51474e-05,2.21787,0.000403826,0.598603,-0.000435231,-0.001559,0.0861542,-0.000545722,0.00732239,0.00311088,-0.0934757,-0.00333645,0,0,0,0.029358,0,0.00582253,0,0,0,0.0740354,-0.0246,0.588714,0,0,0,0,0,0
0.256577,-0.000207402,-1.09724,-7.56947e-05,2.21788,0.000406949,0.598509,-0.00043858,-0.0015644,0.0865023,-0.000547238,0.0073064,0.00312246,-0.0938079,-0.00334861,0,0,0,0.0294707,0,0.00585632,0,0,0,0.0740649,-0.0246,0.58872,0,0,0,0,0,0
0.257577,-0.000208971,-1.09715,-7.62435e-05,2.21788,0.000410083,0.598415,-0.000441941,-0.00156978,0.0868506,-0.000548747,0.00728989,0.00313403,-0.0941396,-0.00336076,0,0,0,0.0295833,0,0.00589024,0,0,0,0.0740945,-0.0246,0.588726,0,0,0,0,0,0
0.258578,-0.000210547,-1.09706,-7.67939e-05,2.21789,0.00041323,0.59832,-0.000445315,-0.00157516,0.0871991,-0.000550249,0.00727286,0.00314559,-0.0944711,-0.00337289,0,0,0,0.029696,0,0.00592429,0,0,0,0.0741242,-0.0246,0.588732,0,0,0,0,0,0
0.259774,-0.00021244,-1.09696,-7.74547e-05,2.2179,0.000417011,0.598207,-0.000449369,-0.00158172,0.0876139,-0.000552161,0.00726078,0.00315954,-0.0948738,-0.00338758,0,0,0,0.0298312,0,0.00596298,0,0,0,0.0741599,-0.0246,0.588739,0,0,0,0,0,0
0.260802,-0.000214071,-1.09687,-7.80238e-05,2.21791,0.000420271,0.598109,-0.000452864,-0.0015871,0.0879742,-0.000553581,0.00723433,0.0031713,-0.0952076,-0.00339988,0,0,0,0.0299465,0,0.00600018,0,0,0,0.0741907,-0.0246,0.588745,0,0,0,0,0,0
0.262323,-0.000216497,-1.09673,-7.88693e-05,2.21792,0.000425119,0.597963,-0.000458061,-0.00159559,0.0884987,-0.000556145,0.00722863,0.00318914,-0.0957264,-0.00341873,0,0,0,0.0301187,0,0.00604695,0,0,0,0.0742365,-0.0246,0.588755,0,0,0,0,0,0
0.263323,-0.000218098,-1.09664,-7.94266e-05,2.21793,0.00042832,0.597867,-0.000461492,-0.00160054,0.0888536,-0.000557276,0.00718474,0.00320034,-0.0960374,-0.00343032,0,0,0,0.03023,0,0.0060876,0,0,0,0.0742667,-0.0246,0.588761,0,0,0,0,0,0
0.264323,-0.000219704,-1.09655,-7.99854e-05,2.21793,0.000431532,0.597771,-0.000464935,-0.00160587,0.0892026,-0.000558736,0.00716464,0.00321185,-0.0963663,-0.00344239,0,0,0,0.0303425,0,0.0061224,0,0,0,0.074297,-0.0246,0.588767,0,0,0,0,0,0
0.265323,-0.000221315,-1.09646,-8.05457e-05,2.21794,0.000434756,0.597674,-0.00046839,-0.00161119,0.0895517,-0.00056019,0.00714399,0.00322336,-0.0966947,-0.00345445,0,0,0,0.0304549,0,0.00615733,0,0,0,0.0743275,-0.0246,0.588773,0,0,0,0,0,0
0.266323,-0.000222932,-1.09637,-8.11073e-05,2.21795,0.000437991,0.597577,-0.000471856,-0.0016165,0.0899009,-0.000561636,0.00712279,0.00323486,-0.0970228,-0.0034665,0,0,0,0.0305673,0,0.00619239,0,0,0,0.0743581,-0.0246,0.588779,0,0,0,0,0,0
0.267323,-0.000224554,-1.09628,-8.16705e-05,2.21795,0.000441238,0.59748,-0.000475336,-0.0016218,0.0902503,-0.000563075,0.00710106,0.00324635,-0.0973504,-0.00347853,0,0,0,0.0306797,0,0.00622758,0,0,0,0.0743887,-0.0246,0.588785,0,0,0,0,0,0
0.268323,-0.000226181,-1.09619,-8.22351e-05,2.21796,0.000444496,0.597382,-0.000478827,-0.00162709,0.0905997,-0.000564506,0.00707877,0.00325784,-0.0976775,-0.00349056,0,0,0,0.030792,0,0.00626291,0,0,0,0.0744195,-0.0246,0.588792,0,0,0,0,0,0
0.269324,-0.000227814,-1.0961,-8.28011e-05,2.21797,0.000447766,0.597284,-0.00048233,-0.00163237,0.0909493,-0.000565931,0.00705593,0.00326931,-0.0980042,-0.00350257,0,0,0,0.0309043,0,0.00629837,0,0,0,0.0744504,-0.0246,0.588798,0,0,0,0,0,0
0.270324,-0.000229452,-1.09601,-8.33685e-05,2.21798,0.000451047,0.597186,-0.000485844,-0.00163765,0.0912989,-0.000567347,0.00703254,0.00328077,-0.0983305,-0.00351456,0,0,0,0.0310166,0,0.00633397,0,0,0,0.0744815,-0.0246,0.588804,0,0,0,0,0,0
0.271324,-0.000231095,-1.09592,-8.39373e-05,2.21798,0.00045434,0.597087,-0.000489371,-0.00164291,0.0916487,-0.000568757,0.0070086,0.00329223,-0.0986563,-0.00352655,0,0,0,0.0311288,0,0.0063697,0,0,0,0.0745126,-0.0246,0.588811,0,0,0,0,0,0
0.272324,-0.000232743,-1.09583,-8.45076e-05,2.21799,0.000457644,0.596988,-0.000492911,-0.00164817,0.0919986,-0.000570159,0.0069841,0.00330368,-0.0989816,-0.00353852,0,0,0,0.031241,0,0.00640557,0,0,0,0.0745438,-0.0246,0.588817,0,0,0,0,0,0
0.273324,-0.000234397,-1.09574,-8.50792e-05,2.218,0.000460959,0.596889,-0.000496461,-0.00165341,0.0923485,-0.000571554,0.00695904,0.00331512,-0.0993065,-0.00355049,0,0,0,0.0313532,0,0.00644157,0,0,0,0.0745752,-0.0246,0.588823,0,0,0,0,0,0
0.274324,-0.000236056,-1.09564,-8.56522e-05,2.218,0.000464287,0.596789,-0.000500025,-0.00165865,0.0926986,-0.000572941,0.00693343,0.00332655,-0.099631,-0.00356244,0,0,0,0.0314653,0,0.00647771,0,0,0,0.0746067,-0.0246,0.58883,0,0,0,0,0,0
0.275325,-0.00023772,-1.09555,-8.62267e-05,2.21801,0.000467626,0.596689,-0.0005036,-0.00166388,0.0930489,-0.000574322,0.00690725,0.00333798,-0.0999551,-0.00357437,0,0,0,0.0315775,0,0.00651399,0,0,0,0.0746383,-0.0246,0.588836,0,0,0,0,0,0
0.276436,-0.000239576,-1.09545,-8.68669e-05,2.21802,0.00047135,0.596578,-0.000507588,-0.00166978,0.0934368,-0.000575926,0.00688327,0.00335074,-0.100319,-0.00358774,0,0,0,0.0317023,0,0.00655305,0,0,0,0.0746735,-0.0246,0.588844,0,0,0,0,0,0
0.277436,-0.000241251,-1.09535,-8.74441e-05,2.21802,0.000474712,0.596477,-0.000511188,-0.0016749,0.0937886,-0.00057721,0.00685011,0.00336206,-0.100638,-0.00359954,0,0,0,0.031814,0,0.00659103,0,0,0,0.0747053,-0.0246,0.58885,0,0,0,0,0,0
0.278436,-0.000242932,-1.09526,-8.80228e-05,2.21803,0.000478087,0.596376,-0.0005148,-0.0016801,0.0941391,-0.000578567,0.00682217,0.00337346,-0.10096,-0.00361143,0,0,0,0.0319261,0,0.00662774,0,0,0,0.0747373,-0.0246,0.588857,0,0,0,0,0,0
0.279436,-0.000244617,-1.09516,-8.86028e-05,2.21804,0.000481472,0.596275,-0.000518424,-0.00168529,0.0944898,-0.000579915,0.00679365,0.00338485,-0.101282,-0.00362332,0,0,0,0.032038,0,0.00666458,0,0,0,0.0747693,-0.0246,0.588864,0,0,0,0,0,0
0.280437,-0.000246308,-1.09507,-8.91841e-05,2.21805,0.000484868,0.596173,-0.000522059,-0.00169047,0.0948405,-0.000581257,0.00676456,0.00339622,-0.101604,-0.00363519,0,0,0,0.0321499,0,0.00670157,0,0,0,0.0748014,-0.0246,0.58887,0,0,0,0,0,0
0.281437,-0.000248004,-1.09497,-8.97668e-05,2.21805,0.000488276,0.596071,-0.000525706,-0.00169565,0.0951913,-0.000582591,0.0067349,0.00340759,-0.101925,-0.00364705,0,0,0,0.0322618,0,0.00673869,0,0,0,0.0748337,-0.0246,0.588877,0,0,0,0,0,0
0.282437,-0.000249705,-1.09488,-9.03508e-05,2.21806,0.000491696,0.595969,-0.000529366,-0.00170081,0.0955423,-0.000583917,0.00670467,0.00341895,-0.102246,-0.0036589,0,0,0,0.0323737,0,0.00677595,0,0,0,0.0748661,-0.0246,0.588884,0,0,0,0,0,0
0.283437,-0.000251411,-1.09478,-9.09361e-05,2.21807,0.000495126,0.595866,-0.000533037,-0.00170597,0.0958933,-0.000585235,0.00667385,0.0034303,-0.102566,-0.00367073,0,0,0,0.0324855,0,0.00681335,0,0,0,0.0748986,-0.0246,0.588891,0,0,0,0,0,0
0.284437,-0.000253122,-1.09469,-9.15227e-05,2.21807,0.000498568,0.595763,-0.00053672,-0.00171112,0.0962444,-0.000586546,0.00664245,0.00344164,-0.102886,-0.00368255,0,0,0,0.0325973,0,0.0068509,0,0,0,0.0749312,-0.0246,0.588897,0,0,0,0,0,0
0.285437,-0.000254839,-1.09459,-9.21106e-05,2.21808,0.000502022,0.59566,-0.000540415,-0.00171625,0.0965957,-0.000587849,0.00661047,0.00345297,-0.103205,-0.00369436,0,0,0,0.0327091,0,0.00688858,0,0,0,0.0749639,-0.0246,0.588904,0,0,0,0,0,0
0.286437,-0.00025656,-1.09449,-9.26998e-05,2.21809,0.000505486,0.595557,-0.000544121,-0.00172138,0.096947,-0.000589145,0.0065779,0.00346429,-0.103524,-0.00370615,0,0,0,0.0328208,0,0.00692641,0,0,0,0.0749967,-0.0246,0.588911,0,0,0,0,0,0
0.287437,-0.000258287,-1.0944,-9.32904e-05,2.21809,0.000508963,0.595453,-0.00054784,-0.0017265,0.0972985,-0.000590433,0.00654475,0.0034756,-0.103842,-0.00371793,0,0,0,0.0329325,0,0.00696438,0,0,0,0.0750297,-0.0246,0.588918,0,0,0,0,0,0
0.288438,-0.000260019,-1.0943,-9.38821e-05,2.2181,0.00051245,0.595349,-0.00055157,-0.00173161,0.0976501,-0.000591713,0.006511,0.00348691,-0.10416,-0.0037297,0,0,0,0.0330441,0,0.0070025,0,0,0,0.0750627,-0.0246,0.588925,0,0,0,0,0,0
0.289438,-0.000261756,-1.0942,-9.44752e-05,2.2181,0.000515949,0.595244,-0.000555312,-0.00173671,0.0980017,-0.000592985,0.00647667,0.0034982,-0.104477,-0.00374145,0,0,0,0.0331558,0,0.00704076,0,0,0,0.0750959,-0.0246,0.588932,0,0,0,0,0,0
0.290438,-0.000263498,-1.0941,-9.50695e-05,2.21811,0.000519459,0.595139,-0.000559066,-0.0017418,0.0983535,-0.000594249,0.00644174,0.00350948,-0.104794,-0.00375319,0,0,0,0.0332673,0,0.00707916,0,0,0,0.0751291,-0.0246,0.588939,0,0,0,0,0,0
0.291838,-0.000265947,-1.09396,-9.59046e-05,2.21812,0.000524396,0.594992,-0.000564345,-0.00174928,0.0988409,-0.000596324,0.00641501,0.00352559,-0.105255,-0.00377009,0,0,0,0.0334247,0,0.00712748,0,0,0,0.0751759,-0.0246,0.588949,0,0,0,0,0,0
0.293085,-0.000268136,-1.09384,-9.665e-05,2.21813,0.000528809,0.59486,-0.000569064,-0.00175545,0.0992819,-0.000597755,0.00636082,0.00353951,-0.105641,-0.0037845,0,0,0,0.0335632,0,0.00717796,0,0,0,0.0752178,-0.0246,0.588958,0,0,0,0,0,0
0.294085,-0.000269897,-1.09374,-9.72488e-05,2.21813,0.00053236,0.594754,-0.000572861,-0.00176028,0.0996373,-0.000598794,0.00630927,0.00355055,-0.105945,-0.00379589,0,0,0,0.0336739,0,0.00722044,0,0,0,0.0752515,-0.0246,0.588965,0,0,0,0,0,0
0.295085,-0.000271662,-1.09364,-9.78489e-05,2.21814,0.000535922,0.594648,-0.000576669,-0.00176533,0.0999895,-0.000600022,0.00627156,0.00356179,-0.10626,-0.00380757,0,0,0,0.0337853,0,0.00725951,0,0,0,0.0752853,-0.0246,0.588973,0,0,0,0,0,0
0.296085,-0.000273433,-1.09354,-9.84502e-05,2.21815,0.000539496,0.594541,-0.000580488,-0.00177036,0.100342,-0.000601242,0.00623324,0.00357302,-0.106574,-0.00381923,0,0,0,0.0338967,0,0.00729874,0,0,0,0.0753192,-0.0246,0.58898,0,0,0,0,0,0
0.297086,-0.000275208,-1.09344,-9.90527e-05,2.21815,0.00054308,0.594434,-0.00058432,-0.00177539,0.100694,-0.000602454,0.00619431,0.00358424,-0.106887,-0.00383088,0,0,0,0.034008,0,0.00733811,0,0,0,0.0753532,-0.0246,0.588987,0,0,0,0,0,0
0.298086,-0.000276989,-1.09334,-9.96564e-05,2.21816,0.000546676,0.594327,-0.000588162,-0.0017804,0.101047,-0.000603658,0.00615478,0.00359545,-0.1072,-0.00384252,0,0,0,0.0341193,0,0.00737762,0,0,0,0.0753873,-0.0246,0.588995,0,0,0,0,0,0
0.299086,-0.000278775,-1.09324,-0.000100261,2.21817,0.000550283,0.59422,-0.000592017,-0.00178541,0.101399,-0.000604855,0.00611463,0.00360665,-0.107513,-0.00385414,0,0,0,0.0342305,0,0.00741729,0,0,0,0.0754215,-0.0246,0.589002,0,0,0,0,0,0
0.300086,-0.000280565,-1.09313,-0.000100867,2.21817,0.000553901,0.594112,-0.000595883,-0.00179041,0.101752,-0.000606043,0.00607387,0.00361784,-0.107825,-0.00386574,0,0,0,0.0343417,0,0.0074571,0,0,0,0.0754559,-0.0246,0.58901,0,0,0,0,0,0
0.301086,-0.000282361,-1.09303,-0.000101475,2.21818,0.000557531,0.594004,-0.000599761,-0.0017954,0.102105,-0.000607223,0.00603249,0.00362901,-0.108136,-0.00387734,0,0,0,0.0344529,0,0.00749707,0,0,0,0.0754903,-0.0246,0.589017,0,0,0,0,0,0
0.302086,-0.000284162,-1.09293,-0.000102083,2.21818,0.000561172,0.593895,-0.00060365,-0.00180037,0.102458,-0.000608396,0.0059905,0.00364018,-0.108447,-0.00388892,0,0,0,0.034564,0,0.00753718,0,0,0,0.0755249,-0.0246,0.589025,0,0,0,0,0,0
0.303086,-0.000285967,-1.09283,-0.000102693,2.21819,0.000564823,0.593786,-0.000607551,-0.00180534,0.102811,-0.00060956,0.00594788,0.00365134,-0.108758,-0.00390048,0,0,0,0.0346751,0,0.00757745,0,0,0,0.0755596,-0.0246,0.589032,0,0,0,0,0,0
0.304086,-0.000287778,-1.09272,-0.000103304,2.2182,0.000568487,0.593677,-0.000611464,-0.0018103,0.103164,-0.000610716,0.00590465,0.00366249,-0.109068,-0.00391203,0,0,0,0.0347862,0,0.00761787,0,0,0,0.0755944,-0.0246,0.58904,0,0,0,0,0,0
0.305086,-0.000289593,-1.09262,-0.000103916,2.2182,0.000572161,0.593568,-0.000615388,-0.00181525,0.103518,-0.000611865,0.00586078,0.00367363,-0.109377,-0.00392357,0,0,0,0.0348972,0,0.00765843,0,0,0,0.0756293,-0.0246,0.589048,0,0,0,0,0,0
0.306087,-0.000291414,-1.09252,-0.000104529,2.21821,0.000575846,0.593458,-0.000619324,-0.00182019,0.103871,-0.000613005,0.0058163,0.00368476,-0.109686,-0.00393509,0,0,0,0.0350082,0,0.00769915,0,0,0,0.0756643,-0.0246,0.589055,0,0,0,0,0,0
0.307087,-0.000293239,-1.09241,-0.000105143,2.21821,0.000579543,0.593348,-0.000623271,-0.00182511,0.104224,-0.000614137,0.00577117,0.00369587,-0.109994,-0.0039466,0,0,0,0.0351191,0,0.00774002,0,0,0,0.0756994,-0.0246,0.589063,0,0,0,0,0,0
0.308087,-0.00029507,-1.09231,-0.000105758,2.21822,0.00058325,0.593238,-0.00062723,-0.00183003,0.104578,-0.000615261,0.00572543,0.00370698,-0.110302,-0.00395809,0,0,0,0.03523,0,0.00778105,0,0,0,0.0757347,-0.0246,0.589071,0,0,0,0,0,0
0.309161,-0.000297041,-1.09219,-0.000106421,2.21822,0.000587244,0.593119,-0.000631494,-0.00183538,0.104957,-0.000616523,0.0056804,0.00371896,-0.110636,-0.00397051,0,0,0,0.0353493,0,0.00782409,0,0,0,0.0757726,-0.0246,0.589079,0,0,0,0,0,0
0.310161,-0.000298881,-1.09209,-0.000107038,2.21823,0.000590975,0.593008,-0.000635476,-0.0018402,0.105311,-0.000617565,0.00562854,0.00372998,-0.110939,-0.00398187,0,0,0,0.0354598,0,0.0078666,0,0,0,0.0758081,-0.0246,0.589087,0,0,0,0,0,0
0.311161,-0.000300726,-1.09198,-0.000107657,2.21824,0.000594716,0.592897,-0.00063947,-0.00184508,0.105665,-0.000618664,0.00558085,0.00374105,-0.111245,-0.00399332,0,0,0,0.0355706,0,0.0079081,0,0,0,0.0758437,-0.0246,0.589095,0,0,0,0,0,0
0.312161,-0.000302576,-1.09188,-0.000108277,2.21824,0.000598468,0.592785,-0.000643475,-0.00184996,0.106019,-0.000619754,0.00553252,0.00375211,-0.11155,-0.00400475,0,0,0,0.0356813,0,0.00794974,0,0,0,0.0758793,-0.0246,0.589103,0,0,0,0,0,0
0.313161,-0.000304431,-1.09177,-0.000108898,2.21825,0.000602232,0.592673,-0.000647492,-0.00185483,0.106373,-0.000620836,0.00548354,0.00376316,-0.111855,-0.00401617,0,0,0,0.035792,0,0.00799154,0,0,0,0.0759151,-0.0246,0.589111,0,0,0,0,0,0
0.314161,-0.000306291,-1.09166,-0.00010952,2.21825,0.000606007,0.592561,-0.00065152,-0.00185968,0.106727,-0.00062191,0.00543393,0.0037742,-0.11216,-0.00402757,0,0,0,0.0359026,0,0.0080335,0,0,0,0.075951,-0.0246,0.589119,0,0,0,0,0,0
0.315162,-0.000308156,-1.09156,-0.000110143,2.21826,0.000609792,0.592449,-0.000655559,-0.00186453,0.107082,-0.000622976,0.00538367,0.00378523,-0.112464,-0.00403895,0,0,0,0.0360132,0,0.00807561,0,0,0,0.0759871,-0.0246,0.589127,0,0,0,0,0,0
0.316162,-0.000310026,-1.09145,-0.000110767,2.21826,0.000613589,0.592336,-0.00065961,-0.00186937,0.107436,-0.000624034,0.00533276,0.00379625,-0.112767,-0.00405033,0,0,0,0.0361237,0,0.00811788,0,0,0,0.0760232,-0.0246,0.589135,0,0,0,0,0,0
0.317162,-0.0003119,-1.09134,-0.000111392,2.21827,0.000617397,0.592223,-0.000663672,-0.00187419,0.107791,-0.000625083,0.0052812,0.00380726,-0.11307,-0.00406168,0,0,0,0.0362342,0,0.00816031,0,0,0,0.0760594,-0.0246,0.589143,0,0,0,0,0,0
0.318162,-0.000313779,-1.09123,-0.000112018,2.21827,0.000621216,0.59211,-0.000667746,-0.00187901,0.108145,-0.000626124,0.00522899,0.00381826,-0.113372,-0.00407302,0,0,0,0.0363447,0,0.00820289,0,0,0,0.0760958,-0.0246,0.589151,0,0,0,0,0,0
0.319162,-0.000315663,-1.09113,-0.000112645,2.21828,0.000625045,0.591996,-0.000671831,-0.00188381,0.1085,-0.000627156,0.00517613,0.00382924,-0.113674,-0.00408435,0,0,0,0.0364551,0,0.00824563,0,0,0,0.0761322,-0.0246,0.58916,0,0,0,0,0,0
0.320162,-0.000317552,-1.09102,-0.000113274,2.21828,0.000628886,0.591882,-0.000675927,-0.0018886,0.108854,-0.00062818,0.00512262,0.00384022,-0.113975,-0.00409566,0,0,0,0.0365655,0,0.00828853,0,0,0,0.0761688,-0.0246,0.589168,0,0,0,0,0,0
0.321162,-0.000319446,-1.09091,-0.000113903,2.21829,0.000632737,0.591768,-0.000680034,-0.00189339,0.109209,-0.000629196,0.00506844,0.00385118,-0.114276,-0.00410695,0,0,0,0.0366758,0,0.00833158,0,0,0,0.0762055,-0.0246,0.589176,0,0,0,0,0,0
0.322169,-0.000321357,-1.0908,-0.000114537,2.21829,0.000636625,0.591652,-0.00068418,-0.0018982,0.109566,-0.000630216,0.00501371,0.00386221,-0.114578,-0.00411831,0,0,0,0.0367868,0,0.00837497,0,0,0,0.0762425,-0.0246,0.589185,0,0,0,0,0,0
0.323169,-0.00032326,-1.09069,-0.000115169,2.2183,0.000640499,0.591537,-0.00068831,-0.00190295,0.109921,-0.000631209,0.00495775,0.00387314,-0.114878,-0.00412957,0,0,0,0.0368971,0,0.00841846,0,0,0,0.0762794,-0.0246,0.589193,0,0,0,0,0,0
0.324169,-0.000325168,-1.09058,-0.000115801,2.2183,0.000644384,0.591422,-0.000692452,-0.00190771,0.110277,-0.000632199,0.00490159,0.00388407,-0.115177,-0.00414081,0,0,0,0.0370073,0,0.008462,0,0,0,0.0763164,-0.0246,0.589202,0,0,0,0,0,0
0.32517,-0.000327081,-1.09047,-0.000116434,2.21831,0.000648281,0.591307,-0.000696606,-0.00191245,0.110632,-0.000633182,0.00484476,0.00389499,-0.115475,-0.00415205,0,0,0,0.0371175,0,0.0085057,0,0,0,0.0763536,-0.0246,0.58921,0,0,0,0,0,0
0.32617,-0.000328999,-1.09035,-0.000117069,2.21831,0.000652187,0.591191,-0.000700769,-0.00191718,0.110987,-0.000634155,0.00478724,0.0039059,-0.115773,-0.00416326,0,0,0,0.0372276,0,0.00854956,0,0,0,0.0763908,-0.0246,0.589219,0,0,0,0,0,0
0.32717,-0.000330921,-1.09024,-0.000117704,2.21832,0.000656104,0.591075,-0.000704944,-0.0019219,0.111343,-0.00063512,0.00472908,0.00391679,-0.11607,-0.00417446,0,0,0,0.0373376,0,0.00859358,0,0,0,0.0764281,-0.0246,0.589227,0,0,0,0,0,0
0.32817,-0.000332847,-1.09013,-0.00011834,2.21832,0.000660032,0.590958,-0.00070913,-0.00192661,0.111698,-0.000636076,0.00467025,0.00392767,-0.116367,-0.00418564,0,0,0,0.0374476,0,0.00863776,0,0,0,0.0764656,-0.0246,0.589236,0,0,0,0,0,0
0.32917,-0.000334779,-1.09002,-0.000118977,2.21833,0.000663972,0.590842,-0.000713328,-0.00193131,0.112054,-0.000637025,0.00461074,0.00393855,-0.116663,-0.00419681,0,0,0,0.0375576,0,0.0086821,0,0,0,0.0765032,-0.0246,0.589245,0,0,0,0,0,0
0.33017,-0.000336715,-1.08991,-0.000119615,2.21833,0.000667921,0.590725,-0.000717536,-0.001936,0.112409,-0.000637964,0.00455055,0.0039494,-0.116958,-0.00420796,0,0,0,0.0376675,0,0.00872661,0,0,0,0.0765408,-0.0246,0.589253,0,0,0,0,0,0
0.331171,-0.000338656,-1.08979,-0.000120254,2.21834,0.000671882,0.590607,-0.000721756,-0.00194067,0.112765,-0.000638895,0.00448969,0.00396025,-0.117253,-0.0042191,0,0,0,0.0377774,0,0.00877128,0,0,0,0.0765786,-0.0246,0.589262,0,0,0,0,0,0
0.332171,-0.000340602,-1.08968,-0.000120894,2.21834,0.000675854,0.59049,-0.000725987,-0.00194534,0.113121,-0.000639817,0.00442815,0.00397108,-0.117547,-0.00423021,0,0,0,0.0378872,0,0.00881611,0,0,0,0.0766165,-0.0246,0.589271,0,0,0,0,0,0
0.333171,-0.000342552,-1.08957,-0.000121535,2.21835,0.000679836,0.590372,-0.000730229,-0.00195,0.113477,-0.000640731,0.00436592,0.00398191,-0.117841,-0.00424132,0,0,0,0.037997,0,0.0088611,0,0,0,0.0766545,-0.0246,0.58928,0,0,0,0,0,0
0.334171,-0.000344507,-1.08945,-0.000122176,2.21835,0.000683829,0.590254,-0.000734482,-0.00195464,0.113833,-0.000641636,0.00430301,0.00399272,-0.118134,-0.0042524,0,0,0,0.0381067,0,0.00890626,0,0,0,0.0766926,-0.0246,0.589289,0,0,0,0,0,0
0.335171,-0.000346466,-1.08934,-0.000122819,2.21835,0.000687833,0.590135,-0.000738745,-0.00195927,0.114189,-0.000642533,0.00423942,0.00400352,-0.118426,-0.00426347,0,0,0,0.0382164,0,0.00895159,0,0,0,0.0767308,-0.0246,0.589298,0,0,0,0,0,0
0.336171,-0.000348431,-1.08923,-0.000123463,2.21836,0.000691848,0.590017,-0.00074302,-0.0019639,0.114545,-0.00064342,0.00417514,0.0040143,-0.118718,-0.00427452,0,0,0,0.038326,0,0.00899708,0,0,0,0.0767692,-0.0246,0.589307,0,0,0,0,0,0
0.337171,-0.000350399,-1.08911,-0.000124107,2.21836,0.000695873,0.589898,-0.000747306,-0.00196851,0.114901,-0.0006443,0.00411017,0.00402507,-0.11901,-0.00428555,0,0,0,0.0384356,0,0.00904273,0,0,0,0.0768076,-0.0246,0.589316,0,0,0,0,0,0
0.338171,-0.000352373,-1.089,-0.000124752,2.21837,0.00069991,0.589778,-0.000751604,-0.00197311,0.115258,-0.00064517,0.0040445,0.00403584,-0.1193,-0.00429657,0,0,0,0.0385451,0,0.00908856,0,0,0,0.0768462,-0.0246,0.589325,0,0,0,0,0,0
0.339172,-0.000354351,-1.08888,-0.000125398,2.21837,0.000703957,0.589659,-0.000755912,-0.0019777,0.115614,-0.000646032,0.00397814,0.00404659,-0.11959,-0.00430758,0,0,0,0.0386546,0,0.00913455,0,0,0,0.0768848,-0.0246,0.589334,0,0,0,0,0,0
0.340172,-0.000356333,-1.08876,-0.000126045,2.21837,0.000708015,0.589539,-0.000760231,-0.00198228,0.115971,-0.000646885,0.00391108,0.00405732,-0.11988,-0.00431856,0,0,0,0.038764,0,0.00918071,0,0,0,0.0769236,-0.0246,0.589343,0,0,0,0,0,0
0.341172,-0.00035832,-1.08865,-0.000126693,2.21838,0.000712084,0.589419,-0.000764561,-0.00198685,0.116327,-0.00064773,0.00384333,0.00406805,-0.120169,-0.00432953,0,0,0,0.0388734,0,0.00922703,0,0,0,0.0769625,-0.0246,0.589352,0,0,0,0,0,0
0.342172,-0.000360312,-1.08853,-0.000127342,2.21838,0.000716163,0.589298,-0.000768902,-0.0019914,0.116684,-0.000648565,0.00377488,0.00407876,-0.120457,-0.00434048,0,0,0,0.0389828,0,0.00927352,0,0,0,0.0770015,-0.0246,0.589362,0,0,0,0,0,0
0.343172,-0.000362308,-1.08841,-0.000127991,2.21839,0.000720253,0.589177,-0.000773254,-0.00199595,0.117041,-0.000649392,0.00370572,0.00408946,-0.120745,-0.00435141,0,0,0,0.0390921,0,0.00932018,0,0,0,0.0770406,-0.0246,0.589371,0,0,0,0,0,0
0.344172,-0.000364309,-1.0883,-0.000128642,2.21839,0.000724354,0.589056,-0.000777617,-0.00200048,0.117398,-0.00065021,0.00363586,0.00410014,-0.121032,-0.00436233,0,0,0,0.0392013,0,0.00936701,0,0,0,0.0770798,-0.0246,0.58938,0,0,0,0,0,0
0.345172,-0.000366314,-1.08818,-0.000129293,2.21839,0.000728465,0.588935,-0.000781991,-0.00200501,0.117755,-0.00065102,0.00356529,0.00411081,-0.121318,-0.00437323,0,0,0,0.0393105,0,0.00941401,0,0,0,0.0771191,-0.0246,0.58939,0,0,0,0,0,0
0.346172,-0.000368324,-1.08806,-0.000129944,2.2184,0.000732587,0.588813,-0.000786375,-0.00200952,0.118112,-0.00065182,0.00349402,0.00412147,-0.121604,-0.00438411,0,0,0,0.0394196,0,0.00946118,0,0,0,0.0771585,-0.0246,0.589399,0,0,0,0,0,0
0.347173,-0.000370338,-1.08794,-0.000130597,2.2184,0.00073672,0.588692,-0.000790771,-0.00201402,0.118469,-0.000652612,0.00342204,0.00413212,-0.121889,-0.00439497,0,0,0,0.0395287,0,0.00950852,0,0,0,0.0771981,-0.0246,0.589409,0,0,0,0,0,0
0.348173,-0.000372357,-1.08782,-0.000131251,2.2184,0.000740863,0.588569,-0.000795178,-0.00201851,0.118826,-0.000653395,0.00334933,0.00414276,-0.122173,-0.00440582,0,0,0,0.0396377,0,0.00955603,0,0,0,0.0772377,-0.0246,0.589418,0,0,0,0,0,0
0.349173,-0.00037438,-1.0877,-0.000131905,2.21841,0.000745017,0.588447,-0.000799595,-0.00202299,0.119183,-0.000654169,0.00327592,0.00415338,-0.122457,-0.00441665,0,0,0,0.0397467,0,0.00960372,0,0,0,0.0772774,-0.0246,0.589428,0,0,0,0,0,0
0.350173,-0.000376408,-1.08758,-0.00013256,2.21841,0.000749181,0.588324,-0.000804023,-0.00202745,0.119541,-0.000654934,0.00320179,0.00416398,-0.12274,-0.00442746,0,0,0,0.0398556,0,0.00965157,0,0,0,0.0773173,-0.0246,0.589437,0,0,0,0,0,0
0.351173,-0.00037844,-1.08746,-0.000133216,2.21841,0.000753356,0.588201,-0.000808462,-0.00203191,0.119898,-0.000655691,0.00312694,0.00417458,-0.123023,-0.00443825,0,0,0,0.0399645,0,0.00969959,0,0,0,0.0773573,-0.0246,0.589447,0,0,0,0,0,0
0.352173,-0.000380477,-1.08734,-0.000133872,2.21842,0.000757542,0.588078,-0.000812911,-0.00203635,0.120256,-0.000656438,0.00305138,0.00418516,-0.123305,-0.00444903,0,0,0,0.0400733,0,0.00974779,0,0,0,0.0773974,-0.0246,0.589457,0,0,0,0,0,0
0.353174,-0.000382518,-1.08722,-0.00013453,2.21842,0.000761739,0.587954,-0.000817373,-0.00204079,0.120613,-0.000657177,0.00297508,0.00419573,-0.123586,-0.00445978,0,0,0,0.0401821,0,0.00979617,0,0,0,0.0774376,-0.0246,0.589467,0,0,0,0,0,0
0.354193,-0.000384603,-1.0871,-0.0001352,2.21842,0.000766026,0.587828,-0.000821928,-0.00204532,0.120977,-0.000657942,0.0028982,0.00420651,-0.123873,-0.00447076,0,0,0,0.0402929,0,0.00984525,0,0,0,0.0774786,-0.0246,0.589477,0,0,0,0,0,0
0.355193,-0.000386652,-1.08698,-0.000135859,2.21842,0.000770243,0.587704,-0.00082641,-0.0020497,0.121335,-0.000658641,0.00281883,0.00421703,-0.124152,-0.00448145,0,0,0,0.0404015,0,0.00989436,0,0,0,0.077519,-0.0246,0.589487,0,0,0,0,0,0
0.356193,-0.000388707,-1.08686,-0.000136518,2.21843,0.000774472,0.587579,-0.000830903,-0.0020541,0.121693,-0.000659353,0.00274035,0.00422755,-0.124431,-0.00449215,0,0,0,0.0405101,0,0.00994326,0,0,0,0.0775595,-0.0246,0.589497,0,0,0,0,0,0
0.357193,-0.000390766,-1.08673,-0.000137178,2.21843,0.00077871,0.587455,-0.000835407,-0.00205848,0.122051,-0.000660055,0.00266112,0.00423807,-0.12471,-0.00450283,0,0,0,0.0406187,0,0.00999233,0,0,0,0.0776002,-0.0246,0.589507,0,0,0,0,0,0
0.358193,-0.000392829,-1.08661,-0.000137839,2.21843,0.00078296,0.58733,-0.000839921,-0.00206286,0.122409,-0.000660749,0.00258118,0.00424857,-0.124988,-0.0045135,0,0,0,0.0407272,0,0.0100416,0,0,0,0.0776409,-0.0246,0.589517,0,0,0,0,0,0
0.359264,-0.000395043,-1.08648,-0.000138548,2.21843,0.000787521,0.587195,-0.000844766,-0.00206763,0.122791,-0.000661564,0.00250098,0.00425989,-0.12529,-0.00452504,0,0,0,0.0408436,0,0.010093,0,0,0,0.0776846,-0.0246,0.589527,0,0,0,0,0,0
0.360264,-0.000397115,-1.08636,-0.00013921,2.21844,0.000791792,0.58707,-0.000849303,-0.00207188,0.123151,-0.000662156,0.00241328,0.00427027,-0.125562,-0.00453553,0,0,0,0.0409516,0,0.0101441,0,0,0,0.0777256,-0.0246,0.589537,0,0,0,0,0,0
0.361264,-0.000399192,-1.08623,-0.000139873,2.21844,0.000796073,0.586944,-0.000853849,-0.00207622,0.123509,-0.000662822,0.00233106,0.00428072,-0.125838,-0.00454614,0,0,0,0.04106,0,0.0101939,0,0,0,0.0777667,-0.0246,0.589548,0,0,0,0,0,0
0.362264,-0.000401272,-1.08611,-0.000140536,2.21844,0.000800365,0.586818,-0.000858407,-0.00208055,0.123867,-0.000663479,0.00224811,0.00429117,-0.126113,-0.00455673,0,0,0,0.0411682,0,0.0102439,0,0,0,0.0778078,-0.0246,0.589558,0,0,0,0,0,0
0.363264,-0.000403358,-1.08599,-0.000141201,2.21844,0.000804667,0.586691,-0.000862974,-0.00208486,0.124226,-0.000664127,0.00216441,0.0043016,-0.126388,-0.0045673,0,0,0,0.0412764,0,0.010294,0,0,0,0.0778491,-0.0246,0.589568,0,0,0,0,0,0
0.364265,-0.000405447,-1.08586,-0.000141865,2.21845,0.00080898,0.586565,-0.000867553,-0.00208916,0.124584,-0.000664766,0.00207997,0.00431201,-0.126662,-0.00457785,0,0,0,0.0413846,0,0.0103443,0,0,0,0.0778905,-0.0246,0.589579,0,0,0,0,0,0
0.365265,-0.000407541,-1.08574,-0.000142531,2.21845,0.000813303,0.586438,-0.000872142,-0.00209346,0.124942,-0.000665396,0.00199478,0.00432242,-0.126935,-0.00458839,0,0,0,0.0414927,0,0.0103948,0,0,0,0.077932,-0.0246,0.589589,0,0,0,0,0,0
0.366265,-0.000409639,-1.08561,-0.000143197,2.21845,0.000817636,0.586311,-0.000876741,-0.00209774,0.125301,-0.000666016,0.00190884,0.0043328,-0.127208,-0.0045989,0,0,0,0.0416007,0,0.0104455,0,0,0,0.0779736,-0.0246,0.589599,0,0,0,0,0,0
0.367265,-0.000411741,-1.08549,-0.000143864,2.21845,0.00082198,0.586183,-0.000881352,-0.002102,0.12566,-0.000666628,0.00182215,0.00434318,-0.12748,-0.0046094,0,0,0,0.0417087,0,0.0104964,0,0,0,0.0780153,-0.0246,0.58961,0,0,0,0,0,0
0.368265,-0.000413848,-1.08536,-0.000144531,2.21845,0.000826334,0.586055,-0.000885972,-0.00210626,0.126018,-0.000667231,0.0017347,0.00435354,-0.127751,-0.00461988,0,0,0,0.0418166,0,0.0105474,0,0,0,0.0780572,-0.0246,0.58962,0,0,0,0,0,0
0.369265,-0.000415959,-1.08523,-0.000145199,2.21846,0.000830699,0.585927,-0.000890603,-0.0021105,0.126377,-0.000667824,0.00164649,0.00436388,-0.128021,-0.00463034,0,0,0,0.0419245,0,0.0105986,0,0,0,0.0780991,-0.0246,0.589631,0,0,0,0,0,0
0.370266,-0.000418074,-1.08511,-0.000145868,2.21846,0.000835074,0.585799,-0.000895245,-0.00211474,0.126736,-0.000668408,0.00155754,0.00437421,-0.128291,-0.00464078,0,0,0,0.0420323,0,0.01065,0,0,0,0.0781411,-0.0246,0.589642,0,0,0,0,0,0
0.371266,-0.000420193,-1.08498,-0.000146537,2.21846,0.000839459,0.58567,-0.000899897,-0.00211896,0.127095,-0.000668983,0.00146781,0.00438452,-0.12856,-0.00465119,0,0,0,0.0421401,0,0.0107016,0,0,0,0.0781833,-0.0246,0.589652,0,0,0,0,0,0
0.372266,-0.000422316,-1.08485,-0.000147206,2.21846,0.000843854,0.585542,-0.000904559,-0.00212316,0.127454,-0.000669549,0.00137734,0.00439482,-0.128829,-0.00466159,0,0,0,0.0422477,0,0.0107534,0,0,0,0.0782255,-0.0246,0.589663,0,0,0,0,0,0
0.373266,-0.000424444,-1.08472,-0.000147876,2.21846,0.00084826,0.585412,-0.000909231,-0.00212736,0.127813,-0.000670106,0.0012861,0.00440511,-0.129097,-0.00467197,0,0,0,0.0423554,0,0.0108053,0,0,0,0.0782679,-0.0246,0.589674,0,0,0,0,0,0
0.374266,-0.000426576,-1.0846,-0.000148547,2.21846,0.000852675,0.585283,-0.000913914,-0.00213154,0.128172,-0.000670653,0.00119409,0.00441538,-0.129364,-0.00468234,0,0,0,0.0424629,0,0.0108575,0,0,0,0.0783103,-0.0246,0.589685,0,0,0,0,0,0
0.375266,-0.000428712,-1.08447,-0.000149218,2.21846,0.000857102,0.585153,-0.000918607,-0.00213572,0.128531,-0.000671192,0.00110132,0.00442564,-0.12963,-0.00469268,0,0,0,0.0425704,0,0.0109098,0,0,0,0.0783529,-0.0246,0.589696,0,0,0,0,0,0
0.376266,-0.000430852,-1.08434,-0.00014989,2.21846,0.000861538,0.585024,-0.000923311,-0.00213988,0.12889,-0.000671721,0.00100778,0.00443588,-0.129896,-0.004703,0,0,0,0.0426779,0,0.0109623,0,0,0,0.0783956,-0.0246,0.589707,0,0,0,0,0,0
0.377266,-0.000432996,-1.08421,-0.000150563,2.21847,0.000865984,0.584893,-0.000928024,-0.00214402,0.12925,-0.000672241,0.000913462,0.0044461,-0.130161,-0.0047133,0,0,0,0.0427853,0,0.0110149,0,0,0,0.0784384,-0.0246,0.589718,0,0,0,0,0,0
0.378266,-0.000435144,-1.08408,-0.000151235,2.21847,0.000870441,0.584763,-0.000932748,-0.00214816,0.129609,-0.000672751,0.000818375,0.00445631,-0.130425,-0.00472358,0,0,0,0.0428926,0,0.0110678,0,0,0,0.0784813,-0.0246,0.589729,0,0,0,0,0,0
0.379267,-0.000437297,-1.08395,-0.000151909,2.21847,0.000874908,0.584632,-0.000937483,-0.00215228,0.129968,-0.000673253,0.000722513,0.00446651,-0.130688,-0.00473384,0,0,0,0.0429998,0,0.0111208,0,0,0,0.0785243,-0.0246,0.58974,0,0,0,0,0,0
0.380267,-0.000439453,-1.08382,-0.000152583,2.21847,0.000879385,0.584501,-0.000942227,-0.00215639,0.130328,-0.000673745,0.000625873,0.00447669,-0.130951,-0.00474408,0,0,0,0.043107,0,0.0111741,0,0,0,0.0785674,-0.0246,0.589751,0,0,0,0,0,0
0.381267,-0.000441614,-1.08369,-0.000153257,2.21847,0.000883873,0.58437,-0.000946982,-0.00216049,0.130687,-0.000674227,0.000528453,0.00448685,-0.131213,-0.00475431,0,0,0,0.0432142,0,0.0112275,0,0,0,0.0786106,-0.0246,0.589762,0,0,0,0,0,0
0.382267,-0.000443779,-1.08356,-0.000153932,2.21847,0.00088837,0.584239,-0.000951747,-0.00216458,0.131047,-0.000674701,0.000430252,0.004497,-0.131475,-0.00476451,0,0,0,0.0433213,0,0.0112811,0,0,0,0.078654,-0.0246,0.589774,0,0,0,0,0,0
0.383267,-0.000445948,-1.08343,-0.000154607,2.21847,0.000892878,0.584107,-0.000956522,-0.00216865,0.131407,-0.000675165,0.000331267,0.00450714,-0.131735,-0.00477469,0,0,0,0.0434283,0,0.0113349,0,0,0,0.0786974,-0.0246,0.589785,0,0,0,0,0,0
0.384267,-0.000448121,-1.08329,-0.000155283,2.21847,0.000897396,0.583975,-0.000961308,-0.00217271,0.131766,-0.00067562,0.000231497,0.00451726,-0.131995,-0.00478485,0,0,0,0.0435352,0,0.0113888,0,0,0,0.0787409,-0.0246,0.589796,0,0,0,0,0,0
0.385267,-0.000450298,-1.08316,-0.000155959,2.21847,0.000901924,0.583842,-0.000966103,-0.00217676,0.132126,-0.000676066,0.000130929,0.00452736,-0.132255,-0.00479499,0,0,0,0.0436421,0,0.011443,0,0,0,0.0787846,-0.0246,0.589808,0,0,0,0,0,0
0.386267,-0.000452479,-1.08303,-0.000156635,2.21847,0.000906461,0.58371,-0.000970909,-0.0021808,0.132486,-0.000676502,2.9581e-05,0.00453745,-0.132513,-0.00480511,0,0,0,0.0437489,0,0.0114974,0,0,0,0.0788283,-0.0246,0.589819,0,0,0,0,0,0
0.387267,-0.000454664,-1.0829,-0.000157312,2.21847,0.000911009,0.583577,-0.000975725,-0.00218482,0.132846,-0.000676929,-7.25581e-05,0.00454752,-0.132771,-0.00481521,0,0,0,0.0438557,0,0.0115519,0,0,0,0.0788722,-0.0246,0.589831,0,0,0,0,0,0
0.388268,-0.000456853,-1.08276,-0.00015799,2.21847,0.000915568,0.583444,-0.000980551,-0.00218884,0.133206,-0.000677347,-0.000175491,0.00455758,-0.133028,-0.00482529,0,0,0,0.0439624,0,0.0116066,0,0,0,0.0789162,-0.0246,0.589842,0,0,0,0,0,0
0.389268,-0.000459046,-1.08263,-0.000158668,2.21847,0.000920136,0.583311,-0.000985387,-0.00219284,0.133566,-0.000677755,-0.000279229,0.00456762,-0.133284,-0.00483534,0,0,0,0.044069,0,0.0116615,0,0,0,0.0789602,-0.0246,0.589854,0,0,0,0,0,0
0.390268,-0.000461244,-1.0825,-0.000159346,2.21847,0.000924715,0.583177,-0.000990234,-0.00219682,0.133926,-0.000678154,-0.000383766,0.00457764,-0.133539,-0.00484538,0,0,0,0.0441756,0,0.0117167,0,0,0,0.0790044,-0.0246,0.589866,0,0,0,0,0,0
0.391268,-0.000463445,-1.08236,-0.000160025,2.21847,0.000929303,0.583043,-0.00099509,-0.0022008,0.134286,-0.000678544,-0.000489101,0.00458765,-0.133794,-0.0048554,0,0,0,0.0442821,0,0.011772,0,0,0,0.0790487,-0.0246,0.589878,0,0,0,0,0,0
0.392268,-0.00046565,-1.08223,-0.000160704,2.21847,0.000933901,0.582909,-0.000999955,-0.00220476,0.134646,-0.000678924,-0.000595228,0.00459764,-0.134048,-0.00486539,0,0,0,0.0443885,0,0.0118274,0,0,0,0.0790931,-0.0246,0.589889,0,0,0,0,0,0
0.393268,-0.000467859,-1.08209,-0.000161383,2.21847,0.00093851,0.582775,-0.00100483,-0.00220871,0.135006,-0.000679295,-0.000702159,0.00460762,-0.134301,-0.00487537,0,0,0,0.0444949,0,0.0118831,0,0,0,0.0791376,-0.0246,0.589901,0,0,0,0,0,0
0.394269,-0.000470072,-1.08196,-0.000162063,2.21847,0.000943128,0.58264,-0.00100972,-0.00221264,0.135367,-0.000679656,-0.000809906,0.00461758,-0.134554,-0.00488532,0,0,0,0.0446012,0,0.011939,0,0,0,0.0791822,-0.0246,0.589913,0,0,0,0,0,0
0.395269,-0.000472288,-1.08182,-0.000162743,2.21846,0.000947756,0.582506,-0.00101461,-0.00221657,0.135727,-0.000680008,-0.000918449,0.00462752,-0.134806,-0.00489525,0,0,0,0.0447074,0,0.011995,0,0,0,0.0792269,-0.0246,0.589925,0,0,0,0,0,0
0.396269,-0.000474509,-1.08168,-0.000163423,2.21846,0.000952394,0.582371,-0.00101952,-0.00222048,0.136087,-0.000680351,-0.0010278,0.00463745,-0.135056,-0.00490516,0,0,0,0.0448136,0,0.0120513,0,0,0,0.0792718,-0.0246,0.589937,0,0,0,0,0,0
0.397269,-0.000476734,-1.08155,-0.000164104,2.21846,0.000957042,0.582235,-0.00102443,-0.00222438,0.136447,-0.000680684,-0.00113797,0.00464736,-0.135307,-0.00491505,0,0,0,0.0449197,0,0.0121077,0,0,0,0.0793167,-0.0246,0.589949,0,0,0,0,0,0
0.398269,-0.000478962,-1.08141,-0.000164785,2.21846,0.000961699,0.5821,-0.00102936,-0.00222826,0.136808,-0.000681007,-0.00124894,0.00465725,-0.135556,-0.00492491,0,0,0,0.0450257,0,0.0121644,0,0,0,0.0793617,-0.0246,0.589961,0,0,0,0,0,0
0.399269,-0.000481195,-1.08127,-0.000165466,2.21846,0.000966367,0.581964,-0.0010343,-0.00223214,0.137168,-0.000681322,-0.00136074,0.00466713,-0.135805,-0.00493476,0,0,0,0.0451316,0,0.0122212,0,0,0,0.0794068,-0.0246,0.589974,0,0,0,0,0,0
0.400269,-0.000483431,-1.08114,-0.000166148,2.21846,0.000971044,0.581828,-0.00103924,-0.002236,0.137529,-0.000681626,-0.00147335,0.00467699,-0.136053,-0.00494458,0,0,0,0.0452375,0,0.0122782,0,0,0,0.0794521,-0.0246,0.589986,0,0,0,0,0,0
0.401269,-0.000485671,-1.081,-0.00016683,2.21846,0.000975732,0.581691,-0.0010442,-0.00223984,0.137889,-0.000681922,-0.00158678,0.00468683,-0.1363,-0.00495438,0,0,0,0.0453433,0,0.0123354,0,0,0,0.0794974,-0.0246,0.589998,0,0,0,0,0,0
0.402269,-0.000487915,-1.08086,-0.000167512,2.21846,0.000980429,0.581555,-0.00104916,-0.00224368,0.13825,-0.000682207,-0.00170103,0.00469666,-0.136546,-0.00496416,0,0,0,0.0454491,0,0.0123929,0,0,0,0.0795429,-0.0246,0.590011,0,0,0,0,0,0
0.403269,-0.000490163,-1.08072,-0.000168195,2.21845,0.000985136,0.581418,-0.00105413,-0.0022475,0.13861,-0.000682484,-0.00181611,0.00470647,-0.136791,-0.00497392,0,0,0,0.0455548,0,0.0124505,0,0,0,0.0795885,-0.0246,0.590023,0,0,0,0,0,0
0.40448,-0.000492889,-1.08055,-0.000169022,2.21845,0.000990848,0.581252,-0.00106017,-0.00225248,0.139044,-0.000683106,-0.00193301,0.00471872,-0.137108,-0.00498625,0,0,0,0.0456842,0,0.0125148,0,0,0,0.0796438,-0.0246,0.590038,0,0,0,0,0,0
0.405492,-0.000495172,-1.08041,-0.000169713,2.21845,0.000995631,0.581113,-0.00106522,-0.00225596,0.139412,-0.00068308,-0.00207347,0.00472822,-0.137335,-0.00499555,0,0,0,0.0457894,0,0.0125789,0,0,0,0.0796901,-0.0246,0.590051,0,0,0,0,0,0
0.406492,-0.000497431,-1.08027,-0.000170396,2.21845,0.00100037,0.580976,-0.00107023,-0.00225972,0.139773,-0.000683309,-0.0021925,0.00473796,-0.137577,-0.00500521,0,0,0,0.0458948,0,0.0126374,0,0,0,0.079736,-0.0246,0.590064,0,0,0,0,0,0
0.407492,-0.000499695,-1.08013,-0.00017108,2.21844,0.00100512,0.580838,-0.00107525,-0.00226349,0.140133,-0.000683545,-0.00231108,0.00474769,-0.137819,-0.00501487,0,0,0,0.0460002,0,0.0126958,0,0,0,0.079782,-0.0246,0.590076,0,0,0,0,0,0
0.408492,-0.000501963,-1.07999,-0.000171764,2.21844,0.00100988,0.5807,-0.00108027,-0.00226724,0.140494,-0.000683772,-0.00243048,0.00475742,-0.138061,-0.00502451,0,0,0,0.0461055,0,0.0127545,0,0,0,0.0798281,-0.0246,0.590089,0,0,0,0,0,0
0.409492,-0.000504234,-1.07985,-0.000172448,2.21844,0.00101464,0.580561,-0.00108531,-0.00227099,0.140855,-0.000683989,-0.00255075,0.00476712,-0.138301,-0.00503413,0,0,0,0.0462107,0,0.0128133,0,0,0,0.0798743,-0.0246,0.590102,0,0,0,0,0,0
0.410492,-0.000506509,-1.07971,-0.000173132,2.21844,0.00101942,0.580423,-0.00109035,-0.00227471,0.141216,-0.000684196,-0.00267183,0.0047768,-0.138541,-0.00504373,0,0,0,0.0463159,0,0.0128723,0,0,0,0.0799206,-0.0246,0.590115,0,0,0,0,0,0
0.411492,-0.000508788,-1.07957,-0.000173817,2.21843,0.00102421,0.580284,-0.0010954,-0.00227843,0.141577,-0.000684394,-0.00279375,0.00478647,-0.13878,-0.0050533,0,0,0,0.046421,0,0.0129316,0,0,0,0.0799671,-0.0246,0.590128,0,0,0,0,0,0
0.412493,-0.00051107,-1.07943,-0.000174501,2.21843,0.00102901,0.580145,-0.00110047,-0.00228213,0.141938,-0.000684583,-0.00291651,0.00479612,-0.139018,-0.00506285,0,0,0,0.046526,0,0.012991,0,0,0,0.0800136,-0.0246,0.590141,0,0,0,0,0,0
0.413493,-0.000513356,-1.07928,-0.000175186,2.21843,0.00103381,0.580006,-0.00110554,-0.00228582,0.142299,-0.000684762,-0.00304011,0.00480575,-0.139256,-0.00507238,0,0,0,0.0466309,0,0.0130506,0,0,0,0.0800602,-0.0246,0.590154,0,0,0,0,0,0
0.414493,-0.000515646,-1.07914,-0.000175871,2.21842,0.00103863,0.579866,-0.00111062,-0.00228949,0.14266,-0.000684931,-0.00316456,0.00481537,-0.139492,-0.00508189,0,0,0,0.0467358,0,0.0131104,0,0,0,0.080107,-0.0246,0.590167,0,0,0,0,0,0
0.415498,-0.000517952,-1.079,-0.00017656,2.21842,0.00104348,0.579726,-0.00111574,-0.00229319,0.143023,-0.0006851,-0.0032899,0.00482503,-0.13973,-0.00509144,0,0,0,0.0468412,0,0.0131706,0,0,0,0.0801541,-0.0246,0.59018,0,0,0,0,0,0
0.416499,-0.00052025,-1.07885,-0.000177246,2.21842,0.00104832,0.579586,-0.00112084,-0.00229682,0.143384,-0.000685242,-0.00341671,0.0048346,-0.139964,-0.00510088,0,0,0,0.0469459,0,0.013231,0,0,0,0.080201,-0.0246,0.590193,0,0,0,0,0,0
0.417499,-0.00052255,-1.07871,-0.000177931,2.21841,0.00105316,0.579445,-0.00112596,-0.00230046,0.143745,-0.000685382,-0.00354372,0.00484416,-0.140198,-0.00511032,0,0,0,0.0470505,0,0.0132915,0,0,0,0.0802481,-0.0246,0.590207,0,0,0,0,0,0
0.418499,-0.000524855,-1.07857,-0.000178617,2.21841,0.00105801,0.579305,-0.00113108,-0.00230408,0.144106,-0.000685513,-0.00367158,0.0048537,-0.140431,-0.00511973,0,0,0,0.0471551,0,0.0133521,0,0,0,0.0802953,-0.0246,0.59022,0,0,0,0,0,0
0.419499,-0.000527163,-1.07842,-0.000179302,2.21841,0.00106288,0.579164,-0.00113621,-0.00230769,0.144467,-0.000685635,-0.00380029,0.00486322,-0.140664,-0.00512912,0,0,0,0.0472596,0,0.0134129,0,0,0,0.0803425,-0.0246,0.590233,0,0,0,0,0,0
0.420499,-0.000529474,-1.07828,-0.000179988,2.2184,0.00106775,0.579023,-0.00114134,-0.00231129,0.144828,-0.000685746,-0.00392986,0.00487273,-0.140895,-0.00513849,0,0,0,0.047364,0,0.013474,0,0,0,0.0803899,-0.0246,0.590247,0,0,0,0,0,0
0.421499,-0.000531789,-1.07813,-0.000180674,2.2184,0.00107263,0.578882,-0.00114649,-0.00231487,0.145189,-0.000685848,-0.00406028,0.00488221,-0.141126,-0.00514783,0,0,0,0.0474683,0,0.0135352,0,0,0,0.0804374,-0.0246,0.59026,0,0,0,0,0,0
0.422499,-0.000534108,-1.07799,-0.00018136,2.21839,0.00107753,0.578741,-0.00115165,-0.00231844,0.145551,-0.000685941,-0.00419157,0.00489168,-0.141356,-0.00515715,0,0,0,0.0475726,0,0.0135966,0,0,0,0.080485,-0.0246,0.590274,0,0,0,0,0,0
0.423499,-0.00053643,-1.07784,-0.000182046,2.21839,0.00108243,0.578599,-0.00115682,-0.00232199,0.145912,-0.000686024,-0.00432372,0.00490113,-0.141585,-0.00516644,0,0,0,0.0476768,0,0.0136583,0,0,0,0.0805326,-0.0246,0.590288,0,0,0,0,0,0
0.424499,-0.000538756,-1.07769,-0.000182732,2.21839,0.00108734,0.578458,-0.00116199,-0.00232554,0.146273,-0.000686097,-0.00445673,0.00491057,-0.141813,-0.00517572,0,0,0,0.0477809,0,0.0137201,0,0,0,0.0805804,-0.0246,0.590301,0,0,0,0,0,0
0.425613,-0.000541351,-1.07753,-0.000183497,2.21838,0.00109282,0.578299,-0.00116777,-0.00232969,0.146674,-0.000686344,-0.00459184,0.0049213,-0.142078,-0.00518635,0,0,0,0.0478977,0,0.0137859,0,0,0,0.0806338,-0.0246,0.590317,0,0,0,0,0,0
0.426806,-0.000544134,-1.07736,-0.000184316,2.21838,0.0010987,0.578129,-0.00117397,-0.00233403,0.147103,-0.000686529,-0.00474292,0.00493266,-0.142357,-0.00519758,0,0,0,0.0480223,0,0.0138578,0,0,0,0.0806911,-0.0246,0.590333,0,0,0,0,0,0
0.427806,-0.000546472,-1.07721,-0.000185002,2.21837,0.00110365,0.577987,-0.00117918,-0.00233715,0.147467,-0.00068627,-0.0049027,0.00494161,-0.142561,-0.0052062,0,0,0,0.0481245,0,0.0139261,0,0,0,0.0807392,-0.0246,0.590347,0,0,0,0,0,0
0.428806,-0.000548813,-1.07706,-0.000185688,2.21837,0.0011086,0.577844,-0.00118439,-0.00234063,0.147829,-0.000686302,-0.00503946,0.00495097,-0.142786,-0.00521537,0,0,0,0.0482283,0,0.0139888,0,0,0,0.0807874,-0.0246,0.590361,0,0,0,0,0,0
0.429806,-0.000551157,-1.07691,-0.000186375,2.21836,0.00111356,0.577701,-0.00118962,-0.0023441,0.14819,-0.000686324,-0.0051771,0.0049603,-0.143009,-0.00522451,0,0,0,0.0483319,0,0.0140517,0,0,0,0.0808358,-0.0246,0.590375,0,0,0,0,0,0
0.430806,-0.000553505,-1.07676,-0.000187061,2.21835,0.00111853,0.577558,-0.00119485,-0.00234756,0.148551,-0.000686336,-0.00531561,0.00496961,-0.143232,-0.00523363,0,0,0,0.0484355,0,0.0141149,0,0,0,0.0808842,-0.0246,0.590389,0,0,0,0,0,0
0.431806,-0.000555856,-1.07661,-0.000187747,2.21835,0.00112351,0.577414,-0.00120009,-0.00235101,0.148913,-0.000686339,-0.005455,0.0049789,-0.143454,-0.00524273,0,0,0,0.0485391,0,0.0141782,0,0,0,0.0809327,-0.0246,0.590403,0,0,0,0,0,0
0.432807,-0.000558211,-1.07646,-0.000188434,2.21834,0.0011285,0.577271,-0.00120535,-0.00235444,0.149274,-0.000686332,-0.00559527,0.00498818,-0.143675,-0.0052518,0,0,0,0.0486425,0,0.0142418,0,0,0,0.0809814,-0.0246,0.590418,0,0,0,0,0,0
0.433896,-0.00056078,-1.0763,-0.000189182,2.21834,0.00113394,0.577114,-0.00121108,-0.00235834,0.149666,-0.000686457,-0.00573761,0.00499846,-0.143925,-0.00526193,0,0,0,0.0487559,0,0.0143085,0,0,0,0.0810345,-0.0246,0.590433,0,0,0,0,0,0
0.434896,-0.000563142,-1.07615,-0.000189868,2.21833,0.00113895,0.57697,-0.00121635,-0.00236156,0.150029,-0.000686286,-0.00589119,0.00500749,-0.144134,-0.00527067,0,0,0,0.0488584,0,0.0143752,0,0,0,0.0810834,-0.0246,0.590448,0,0,0,0,0,0
0.435896,-0.000565507,-1.076,-0.000190554,2.21833,0.00114397,0.576825,-0.00122163,-0.00236495,0.15039,-0.00068625,-0.0060342,0.0050167,-0.144352,-0.00527966,0,0,0,0.0489615,0,0.0144394,0,0,0,0.0811323,-0.0246,0.590462,0,0,0,0,0,0
0.436896,-0.000567876,-1.07585,-0.000191241,2.21832,0.00114899,0.576681,-0.00122692,-0.00236832,0.150752,-0.000686203,-0.00617811,0.0050259,-0.14457,-0.00528863,0,0,0,0.0490646,0,0.0145038,0,0,0,0.0811814,-0.0246,0.590477,0,0,0,0,0,0
0.437896,-0.000570248,-1.0757,-0.000191927,2.21831,0.00115403,0.576536,-0.00123222,-0.00237168,0.151113,-0.000686147,-0.00632289,0.00503507,-0.144786,-0.00529758,0,0,0,0.0491677,0,0.0145684,0,0,0,0.0812306,-0.0246,0.590491,0,0,0,0,0,0
0.438897,-0.000572623,-1.07555,-0.000192613,2.21831,0.00115907,0.576391,-0.00123753,-0.00237503,0.151474,-0.000686081,-0.00646857,0.00504423,-0.145002,-0.0053065,0,0,0,0.0492706,0,0.0146333,0,0,0,0.0812799,-0.0246,0.590506,0,0,0,0,0,0
0.439897,-0.000575002,-1.0754,-0.000193299,2.2183,0.00116413,0.576246,-0.00124284,-0.00237836,0.151836,-0.000686006,-0.00661515,0.00505336,-0.145217,-0.00531539,0,0,0,0.0493735,0,0.0146983,0,0,0,0.0813293,-0.0246,0.59052,0,0,0,0,0,0
0.440897,-0.000577384,-1.07524,-0.000193985,2.21829,0.00116919,0.5761,-0.00124817,-0.00238168,0.152197,-0.000685921,-0.00676263,0.00506248,-0.145431,-0.00532427,0,0,0,0.0494763,0,0.0147636,0,0,0,0.0813787,-0.0246,0.590535,0,0,0,0,0,0
0.441979,-0.000579965,-1.07508,-0.000194728,2.21829,0.00117468,0.575943,-0.00125394,-0.00238543,0.152587,-0.000685953,-0.00691231,0.00507251,-0.145671,-0.0053341,0,0,0,0.0495881,0,0.0148318,0,0,0,0.0814324,-0.0246,0.590551,0,0,0,0,0,0
0.443029,-0.000582474,-1.07492,-0.000195448,2.21828,0.00118002,0.575789,-0.00125955,-0.00238881,0.152966,-0.000685789,-0.00707335,0.00508196,-0.145889,-0.00534325,0,0,0,0.0496955,0,0.0149018,0,0,0,0.0814846,-0.0246,0.590567,0,0,0,0,0,0
0.444029,-0.000584866,-1.07476,-0.000196133,2.21827,0.00118511,0.575643,-0.0012649,-0.00239198,0.153329,-0.000685591,-0.00723032,0.00509089,-0.146095,-0.00535188,0,0,0,0.0497975,0,0.0149693,0,0,0,0.0815344,-0.0246,0.590582,0,0,0,0,0,0
